!!!!SEGMENT: pl-wtm--r-910-m--001-004_moniuszko-stanislaw--litania-ostrobramska-agnus-dei.krn
!!!cenid: 18xx:2546
!!!COM: Moniuszko, Stanisław
!!!COM-rismID: pe30008351
!!!CDT: 1819/05/05-1872/06/04
!!!CNT: Polish
!!!OPR: Litania Ostrobramska
!!!OTL: Agnus Dei
!!!OMV: 004
!!!PDT: 1855
!!!AGN: Sacred; Mass
!!!YEC: Copyright 2022 Narodowy Instytut Fryderyka Chopina (https://polishscores.org)
!!!YEM: License CC-BY-4.0 (https://creativecommons.org/licenses/by/4.0)
!!!SMS-siglum: PL-Wtm
!!!SMS-shelfmark: R 910/M
!!!SMS-shelfwork: 001-004 M
!!!SMS-variant:
!!!SMS-altvar:
!!!NIFC-rismSourceID: 1001091649
!!!NIFC-rismChildID: 1001091649
!!!NIFC-islandoraID:
!!!URL-pdf-islandora:
!!!URL-scan:
!!!IIIF:
!!!ONB-nifc: UWAGA: części Litanii: 1. Kyrie, 2. Christe audi nos, 3. Ora pro nobis, 4. Agnus Dei
!!!AIN: 1 alto 1 empty 1 forte 1 soprn 1 tenor
!!!key:
**kern	**kern	**dynam	**kern	**text	**dynam	**kern	**text	**dynam	**kern	**text	**dynam	**kern	**text	**dynam
*group	*group	*group	*group1	*	*	*group1	*	*	*group1	*	*	*group1	*	*
*part5	*part5	*	*part4	*	*	*part3	*	*	*part2	*	*	*part1	*	*
*staff6	*staff5	*	*staff4	*	*	*staff3	*	*	*staff2	*	*	*staff1	*	*
*Iforte	*Iforte	*	*Iempty	*	*	*Itenor	*	*	*Ialto	*	*	*Isoprn	*	*
*I"Fortepian.	*I"Fortepian.	*	*I"Bas.	*	*	*I"Tenor.	*	*	*I"Alt.	*	*	*I"Sopran.	*	*
*pf	*I'pf	*	*I'B	*	*	*I'T	*	*	*I'A	*	*	*I'S	*	*
*clefF4	*clefF4	*	*clefF4	*	*	*clefGv2	*	*	*clefG2	*	*	*clefG2	*	*
*k[]	*k[]	*	*k[]	*	*	*k[]	*	*	*k[]	*	*	*k[]	*	*
*C:	*C:	*	*C:	*	*	*C:	*	*	*C:	*	*	*C:	*	*
*M2/2	*M2/2	*	*M2/2	*	*	*M2/2	*	*	*M2/2	*	*	*M2/2	*	*
*met(c|)	*met(c|)	*	*met(c|)	*	*	*met(c|)	*	*	*met(c|)	*	*	*met(c|)	*	*
=1	=1	=1	=1	=1	=1	=1	=1	=1	=1	=1	=1	=1	=1	=1
!!!OMD: Vivace.
*2\right	*2\right	*	*2\right	*	*	*2\right	*	*	*2\right	*	*	*2\right	*	*
*tremolo	*	*	*	*	*	*	*	*	*	*	*	*	*	*
!	!LO:S:color=blue	!LO:DY:t=pp.:rj	!	!	!	!LO:TX:t=P:problem=partia zapisana bez przenośnika oktawowego	!	!	!	!	!	!LO:TX:a:t=No 4.	!	!
8GGG/L	(>2.G 2.D 2.BB/	pp	1r	.	.	1r	.	.	1r	.	.	1r	.	.
8GG/	.	.	.	.	.	.	.	.	.	.	.	.	.	.
8GGG/	.	.	.	.	.	.	.	.	.	.	.	.	.	.
8GG/J	.	.	.	.	.	.	.	.	.	.	.	.	.	.
8GGG/L	.	.	.	.	.	.	.	.	.	.	.	.	.	.
8GG/	.	.	.	.	.	.	.	.	.	.	.	.	.	.
8GGG/	4A 4G 4C/	.	.	.	.	.	.	.	.	.	.	.	.	.
8GG/J	.	.	.	.	.	.	.	.	.	.	.	.	.	.
=2	=2	=2	=2	=2	=2	=2	=2	=2	=2	=2	=2	=2	=2	=2
8GGG/L	2.B 2.G 2.D/	.	1r	.	.	1r	.	.	1r	.	.	1r	.	.
8GG/	.	.	.	.	.	.	.	.	.	.	.	.	.	.
8GGG/	.	.	.	.	.	.	.	.	.	.	.	.	.	.
8GG/J	.	.	.	.	.	.	.	.	.	.	.	.	.	.
8GGG/L	.	.	.	.	.	.	.	.	.	.	.	.	.	.
8GG/	.	.	.	.	.	.	.	.	.	.	.	.	.	.
8GGG/	4A 4G 4C/)	.	.	.	.	.	.	.	.	.	.	.	.	.
8GG/J	.	.	.	.	.	.	.	.	.	.	.	.	.	.
=3	=3	=3	=3	=3	=3	=3	=3	=3	=3	=3	=3	=3	=3	=3
!	!LO:S:color=blue	!	!	!	!	!	!	!	!	!	!	!	!	!
8GGG/L	(>2.B 2.G 2.D/	.	1r	.	.	1r	.	.	1r	.	.	1r	.	.
8GG/	.	.	.	.	.	.	.	.	.	.	.	.	.	.
8GGG/	.	.	.	.	.	.	.	.	.	.	.	.	.	.
8GG/J	.	.	.	.	.	.	.	.	.	.	.	.	.	.
8GGG/L	.	.	.	.	.	.	.	.	.	.	.	.	.	.
8GG/	.	.	.	.	.	.	.	.	.	.	.	.	.	.
8GGG/	4c 4A 4G\	.	.	.	.	.	.	.	.	.	.	.	.	.
8GG/J	.	.	.	.	.	.	.	.	.	.	.	.	.	.
=4	=4	=4	=4	=4	=4	=4	=4	=4	=4	=4	=4	=4	=4	=4
!LO:TX:i:t=cres_cen_do.:color=blue:problem=dynamics with line extensions	!	!LO:HP:i:t=cres_cen_do.:ext=ud	!	!	!	!	!	!	!	!	!	!	!	!
8GGG/L	2.d 2.B 2.G\	<	1r	.	.	1r	.	.	1r	.	.	1r	.	.
8GG/	.	.	.	.	.	.	.	.	.	.	.	.	.	.
8GGG/	.	.	.	.	.	.	.	.	.	.	.	.	.	.
8GG/J	.	.	.	.	.	.	.	.	.	.	.	.	.	.
8GGG/L	.	.	.	.	.	.	.	.	.	.	.	.	.	.
8GG/	.	.	.	.	.	.	.	.	.	.	.	.	.	.
8GGG/	4c 4A 4G\)	.	.	.	.	.	.	.	.	.	.	.	.	.
8GG/J	.	.	.	.	.	.	.	.	.	.	.	.	.	.
=5	=5	=5	=5	=5	=5	=5	=5	=5	=5	=5	=5	=5	=5	=5
!	!LO:S:color=blue	!	!	!	!	!	!	!	!	!	!	!	!	!
8GGG/L	(>2.d 2.B\	.	1r	.	.	1r	.	.	1r	.	.	1r	.	.
8GG/	.	.	.	.	.	.	.	.	.	.	.	.	.	.
8GGG/	.	.	.	.	.	.	.	.	.	.	.	.	.	.
8GG/J	.	.	.	.	.	.	.	.	.	.	.	.	.	.
8GGG/L	.	.	.	.	.	.	.	.	.	.	.	.	.	.
8GG/	.	.	.	.	.	.	.	.	.	.	.	.	.	.
8GGG/	4e 4c\	.	.	.	.	.	.	.	.	.	.	.	.	.
8GG/J	.	.	.	.	.	.	.	.	.	.	.	.	.	.
*	*clefG2	*	*	*	*	*	*	*	*	*	*	*	*	*
!!LO:LB:g=original
=6	=6	=6	=6	=6	=6	=6	=6	=6	=6	=6	=6	=6	=6	=6
8GGG/L	4f 4d/)	.	1r	.	.	1r	.	.	1r	.	.	1r	.	.
8GG/	.	.	.	.	.	.	.	.	.	.	.	.	.	.
8GGG/	4e 4c/	.	.	.	.	.	.	.	.	.	.	.	.	.
8GG/J	.	.	.	.	.	.	.	.	.	.	.	.	.	.
8GGG/L	4f 4d/	.	.	.	.	.	.	.	.	.	.	.	.	.
8GG/	.	.	.	.	.	.	.	.	.	.	.	.	.	.
8GGG/	4g 4e/	.	.	.	.	.	.	.	.	.	.	.	.	.
8GG/J	.	.	.	.	.	.	.	.	.	.	.	.	.	.
=7	=7	=7	=7	=7	=7	=7	=7	=7	=7	=7	=7	=7	=7	=7
8GGG/L	4a 4f/	.	1r	.	.	1r	.	.	1r	.	.	1r	.	.
8GG/	.	.	.	.	.	.	.	.	.	.	.	.	.	.
8GGG/	4g 4e/	.	.	.	.	.	.	.	.	.	.	.	.	.
8GG/J	.	.	.	.	.	.	.	.	.	.	.	.	.	.
8GGG/L	4a 4f/	.	.	.	.	.	.	.	.	.	.	.	.	.
8GG/	.	.	.	.	.	.	.	.	.	.	.	.	.	.
8GGG/	4b 4g/	.	.	.	.	.	.	.	.	.	.	.	.	.
8GG/J	.	.	.	.	.	.	.	.	.	.	.	.	.	.
=8	=8	=8	=8	=8	=8	=8	=8	=8	=8	=8	=8	=8	=8	=8
8GGG/L	4cc 4a\	.	1r	.	.	1r	.	.	1r	.	.	1r	.	.
8GG/	.	.	.	.	.	.	.	.	.	.	.	.	.	.
8GGG/	4b 4g\	.	.	.	.	.	.	.	.	.	.	.	.	.
8GG/J	.	.	.	.	.	.	.	.	.	.	.	.	.	.
8GGG/L	4cc 4a\	.	.	.	.	.	.	.	.	.	.	.	.	.
8GG/	.	.	.	.	.	.	.	.	.	.	.	.	.	.
8GGG/	4dd 4b\	.	.	.	.	.	.	.	.	.	.	.	.	.
8GG/J	.	.	.	.	.	.	.	.	.	.	.	.	.	.
=9	=9	=9	=9	=9	=9	=9	=9	=9	=9	=9	=9	=9	=9	=9
8GGG/L	4ee 4cc\	.	1r	.	.	1r	.	.	1r	.	.	1r	.	.
8GG/	.	.	.	.	.	.	.	.	.	.	.	.	.	.
8GGG/	4cc 4a\	.	.	.	.	.	.	.	.	.	.	.	.	.
8GG/J	.	.	.	.	.	.	.	.	.	.	.	.	.	.
8GGG/L	4dd 4b\	.	.	.	.	.	.	.	.	.	.	.	.	.
8GG/	.	.	.	.	.	.	.	.	.	.	.	.	.	.
8GGG/	4ee 4cc\	.	.	.	.	.	.	.	.	.	.	.	.	.
8GG/J	.	.	.	.	.	.	.	.	.	.	.	.	.	.
=10	=10	=10	=10	=10	=10	=10	=10	=10	=10	=10	=10	=10	=10	=10
8GGG/L	4ff 4dd\	.	1r	.	.	1r	.	.	1r	.	.	1r	.	.
8GG/	.	.	.	.	.	.	.	.	.	.	.	.	.	.
8GGG/	4dd 4b\	.	.	.	.	.	.	.	.	.	.	.	.	.
8GG/J	.	.	.	.	.	.	.	.	.	.	.	.	.	.
8GGG/L	4ee 4cc\	.	.	.	.	.	.	.	.	.	.	.	.	.
8GG/	.	.	.	.	.	.	.	.	.	.	.	.	.	.
8GGG/	4ff 4dd\	[[	.	.	.	.	.	.	.	.	.	.	.	.
8GG/J	.	.	.	.	.	.	.	.	.	.	.	.	.	.
!!LO:PB:g=original
=11	=11	=11	=11	=11	=11	=11	=11	=11	=11	=11	=11	=11	=11	=11
8GGG/L	4gg 4ee\	<	1r	.	.	1r	.	.	1r	.	.	1r	.	.
8GG/	.	.	.	.	.	.	.	.	.	.	.	.	.	.
8GGG/	4ee 4cc\	.	.	.	.	.	.	.	.	.	.	.	.	.
8GG/J	.	.	.	.	.	.	.	.	.	.	.	.	.	.
8GGG/L	4ff 4dd\	.	.	.	.	.	.	.	.	.	.	.	.	.
8GG/	.	.	.	.	.	.	.	.	.	.	.	.	.	.
8GGG/	4gg 4ee\	.	.	.	.	.	.	.	.	.	.	.	.	.
8GG/J	.	.	.	.	.	.	.	.	.	.	.	.	.	.
=12	=12	=12	=12	=12	=12	=12	=12	=12	=12	=12	=12	=12	=12	=12
!	!LO:S:color=grey	!	!	!	!	!	!	!	!	!	!	!	!	!
.	(<8qbb/	.	.	.	.	.	.	.	.	.	.	.	.	.
8GGG/L	4aa 4ff\)	.	1r	.	.	1r	.	.	1r	.	.	1r	.	.
8GG/	.	.	.	.	.	.	.	.	.	.	.	.	.	.
8GGG/	4gg 4ee\	.	.	.	.	.	.	.	.	.	.	.	.	.
8GG/J	.	.	.	.	.	.	.	.	.	.	.	.	.	.
8GGG/L	4aa 4ff\	.	.	.	.	.	.	.	.	.	.	.	.	.
8GG/	.	.	.	.	.	.	.	.	.	.	.	.	.	.
8GGG/	4bb 4dd\	[[	.	.	.	.	.	.	.	.	.	.	.	.
!LO:TX:b:t=2:color=grey	!	!	!	!	!	!	!	!	!	!	!	!	!	!
8GG/J	.	.	.	.	.	.	.	.	.	.	.	.	.	.
=13	=13	=13	=13	=13	=13	=13	=13	=13	=13	=13	=13	=13	=13	=13
*	*	*	*2\right	*	*	*2\right	*	*	*2\right	*	*	*2\right	*	*
!	!	!LO:DY:t=ff.	!	!	!LO:DY:a:t=ff.:rj	!	!	!LO:DY:a:t=ff.	!	!	!LO:DY:a:t=ff.	!	!	!LO:DY:a:t=ff.
4C 4CC/	8ccc^>\L	ff	2.c\	a-	ff	2.c\	a-	ff	2.cc\	a-	ff	2.cc\	a-	ff
.	8bb\	.	.	.	.	.	.	.	.	.	.	.	.	.
4E\	8aa\	.	.	.	.	.	.	.	.	.	.	.	.	.
.	8gg\J	.	.	.	.	.	.	.	.	.	.	.	.	.
4G\	8ff\L	.	.	.	.	.	.	.	.	.	.	.	.	.
.	8ee\	.	.	.	.	.	.	.	.	.	.	.	.	.
4E\	8dd\	.	4c\	-gnus	.	4c\	-gnus	.	4cc\	-gnus	.	4cc\	-gnus	.
.	8cc\J	.	.	.	.	.	.	.	.	.	.	.	.	.
=14	=14	=14	=14	=14	=14	=14	=14	=14	=14	=14	=14	=14	=14	=14
4C\	8ccc^>\L	.	2c\	De-	.	2c\	De-	.	2cc\	De-	.	2cc\	De-	.
.	8gg\	.	.	.	.	.	.	.	.	.	.	.	.	.
4G\	8ee\	.	.	.	.	.	.	.	.	.	.	.	.	.
.	8ff\J	.	.	.	.	.	.	.	.	.	.	.	.	.
4E\	8gg\L	.	2c\	-i,	.	2c\	-i,	.	2cc\	-i,	.	2cc\	-i,	.
.	8aa\	.	.	.	.	.	.	.	.	.	.	.	.	.
4C\	8bb\	.	.	.	.	.	.	.	.	.	.	.	.	.
.	8ccc\J	.	.	.	.	.	.	.	.	.	.	.	.	.
=15	=15	=15	=15	=15	=15	=15	=15	=15	=15	=15	=15	=15	=15	=15
4BB-X 4BBB-X/	8ddd^>\L	.	2.B-X\	a-	.	2.d\	a-	.	2.b-X\	a-	.	2.dd\	a-	.
.	8ccc\	.	.	.	.	.	.	.	.	.	.	.	.	.
8D\L	8bb-X\	.	.	.	.	.	.	.	.	.	.	.	.	.
8F\J	8aa\J	.	.	.	.	.	.	.	.	.	.	.	.	.
4B-X\	8gg\L	.	.	.	.	.	.	.	.	.	.	.	.	.
.	8ff\	.	.	.	.	.	.	.	.	.	.	.	.	.
4F\	8ee-X\	.	4B-\	-gnus	.	4d\	-gnus	.	4b-\	-gnus	.	4dd\	-gnus	.
.	8dd\J	.	.	.	.	.	.	.	.	.	.	.	.	.
=16	=16	=16	=16	=16	=16	=16	=16	=16	=16	=16	=16	=16	=16	=16
4B-X\	8ddd^>\L	.	2B-X\	De-	.	2d\	De-	.	2b-X\	De-	.	2dd\	De-	.
.	8bb-X\	.	.	.	.	.	.	.	.	.	.	.	.	.
4D\	8ff\	.	.	.	.	.	.	.	.	.	.	.	.	.
.	8gg\J	.	.	.	.	.	.	.	.	.	.	.	.	.
4F\	8aa\L	.	2B-\	-i,	.	2d\	-i,	.	2b-\	-i,	.	2dd\	-i,	.
.	8bb-\	.	.	.	.	.	.	.	.	.	.	.	.	.
4BB-X/	8ccc\	.	.	.	.	.	.	.	.	.	.	.	.	.
.	8ddd\J	.	.	.	.	.	.	.	.	.	.	.	.	.
!!LO:LB:g=original
=17	=17	=17	=17	=17	=17	=17	=17	=17	=17	=17	=17	=17	=17	=17
4AA-X 4AAA-X/	8eee-X^>\L	.	2.A-X\	a-	.	2.c\@	a-	.	2.cc\	a-	.	2.ee-X\	a-	.
.	8ddd\	.	.	.	.	.	.	.	.	.	.	.	.	.
4E-X\	8ccc\	.	.	.	.	.	.	.	.	.	.	.	.	.
.	8bbn\J	.	.	.	.	.	.	.	.	.	.	.	.	.
4A-X\	8ccc\L	.	.	.	.	.	.	.	.	.	.	.	.	.
.	8bb\	.	.	.	.	.	.	.	.	.	.	.	.	.
4E-\	8ccc\	.	4A-\	-gnus,	.	4c\@	-gnus,	.	4cc\	-gnus,	.	4ee-\	-gnus,	.
.	8ddd\J	.	.	.	.	.	.	.	.	.	.	.	.	.
=18	=18	=18	=18	=18	=18	=18	=18	=18	=18	=18	=18	=18	=18	=18
4C\	8eee-X^>\L	.	2A-X\	a-	.	2c\@	a-	.	2cc\	a-	.	2ee-X\	a-	.
.	8ddd\	.	.	.	.	.	.	.	.	.	.	.	.	.
4E-X\	8ccc\	.	.	.	.	.	.	.	.	.	.	.	.	.
.	8bbn\J	.	.	.	.	.	.	.	.	.	.	.	.	.
4AA-X/	8ccc\L	.	2A-\	-gnus	.	2c\@	-gnus	.	2cc\	-gnus	.	2ee-\	-gnus	.
.	8ddd\	.	.	.	.	.	.	.	.	.	.	.	.	.
4C/	8eee-\	.	.	.	.	.	.	.	.	.	.	.	.	.
.	8fff\J	.	.	.	.	.	.	.	.	.	.	.	.	.
=19	=19	=19	=19	=19	=19	=19	=19	=19	=19	=19	=19	=19	=19	=19
8BB-XL 8EE-X/	8ggg^>\L	.	1e-X	De-	.	1e-X	De-	.	1b-X	De-	.	1gg	De-	.
8E-X/	8fff\	.	.	.	.	.	.	.	.	.	.	.	.	.
8BB- 8EE-/	8eee-X\	.	.	.	.	.	.	.	.	.	.	.	.	.
8E-/J	8ddd\J	.	.	.	.	.	.	.	.	.	.	.	.	.
8BB-L 8EE-/	8ccc\L	.	.	.	.	.	.	.	.	.	.	.	.	.
8E-/	8ddd\	.	.	.	.	.	.	.	.	.	.	.	.	.
8BB- 8EE-/	8eee-\	.	.	.	.	.	.	.	.	.	.	.	.	.
8E-/J	8fff\J	.	.	.	.	.	.	.	.	.	.	.	.	.
=20	=20	=20	=20	=20	=20	=20	=20	=20	=20	=20	=20	=20	=20	=20
4EE-X/	4ggg'\	.	4E-X\	-i,	.	4B-X\	-i,	.	4g/	-i,	.	4ee-X\	-i,	.
4r	4r	.	4r	.	.	4r	.	.	4r	.	.	4r	.	.
2B-X 2G 2E-X\	8gg^^>\L	.	2G\	qui	.	2e-X\	qui	.	2b-X\	qui	.	2gg\	qui	.
.	8bb-X\	.	.	.	.	.	.	.	.	.	.	.	.	.
.	8eee-X\	.	.	.	.	.	.	.	.	.	.	.	.	.
.	8ggg\J	.	.	.	.	.	.	.	.	.	.	.	.	.
=21	=21	=21	=21	=21	=21	=21	=21	=21	=21	=21	=21	=21	=21	=21
!	!	!	!	!	!	!LO:S:color=blue	!	!	!LO:S:color=red	!	!	!	!	!
2c 2A 2D\	8fff#X\L	.	(>2d\	tol-	.	(>2f#X\@	tol-	.	(>2a/	tol-	.	(>2ff#X\	tol-	.
.	8eee\	.	.	.	.	.	.	.	.	.	.	.	.	.
.	8ddd\	.	.	.	.	.	.	.	.	.	.	.	.	.
.	8eee\J	.	.	.	.	.	.	.	.	.	.	.	.	.
2B 2D 2GG\	8fffn\L	.	2B\)	.	.	2d\)@	.	.	2g/)	.	.	2ffn\)	.	.
.	8ddd\	.	.	.	.	.	.	.	.	.	.	.	.	.
.	8ggg\	.	.	.	.	.	.	.	.	.	.	.	.	.
.	8fff\J	.	.	.	.	.	.	.	.	.	.	.	.	.
=22	=22	=22	=22	=22	=22	=22	=22	=22	=22	=22	=22	=22	=22	=22
*	*	*	*	*	*	*	*	*	*	*color:red	*	*	*	*
2B-X 2G 2C\	8eee\L	.	2c\	-lis,	.	2c\	-lis,	.	2g/	-lis	.	2ee\	-lis,	.
*	*	*	*	*	*	*	*	*	*	*color:auto	*	*	*	*
.	8ddd\	.	.	.	.	.	.	.	.	.	.	.	.	.
.	8ccc\	.	.	.	.	.	.	.	.	.	.	.	.	.
.	8ddd\J	.	.	.	.	.	.	.	.	.	.	.	.	.
2A 2C 2FF\	8eee-X\L	.	2A\	qui	.	2c\	qui	.	2f/	qui	.	2ee-X\	qui	.
.	8ccc\	.	.	.	.	.	.	.	.	.	.	.	.	.
.	8fff\	.	.	.	.	.	.	.	.	.	.	.	.	.
.	8eee-\J	.	.	.	.	.	.	.	.	.	.	.	.	.
!!LO:PB:g=original
=23	=23	=23	=23	=23	=23	=23	=23	=23	=23	=23	=23	=23	=23	=23
!	!	!	!	!	!	!	!	!	!LO:S:color=red	!	!	!	!	!
2A-X 2F 2BB-X\	8ddd\L	.	(>2B-X\	tol-	.	(>2d\	tol-	.	(>2f/	tol-	.	(>2dd\	tol-	.
.	8ccc\	.	.	.	.	.	.	.	.	.	.	.	.	.
.	8bb-X\	.	.	.	.	.	.	.	.	.	.	.	.	.
.	8ddd\J	.	.	.	.	.	.	.	.	.	.	.	.	.
2An 2G 2AA\	8ccc#X\L	.	2A\)	.	.	2en\)	.	.	2g/)	.	.	2cc#X\)	.	.
.	8bbn\	.	.	.	.	.	.	.	.	.	.	.	.	.
.	8aa\	.	.	.	.	.	.	.	.	.	.	.	.	.
.	8bb\J	.	.	.	.	.	.	.	.	.	.	.	.	.
=24	=24	=24	=24	=24	=24	=24	=24	=24	=24	=24	=24	=24	=24	=24
2A 2F#X 2D\	8cccn\L	.	2F#X\	-lis	.	2d\	-lis	.	2a/	-lis	.	2ccn\	-lis	.
.	8aa\	.	.	.	.	.	.	.	.	.	.	.	.	.
.	8ddd\	.	.	.	.	.	.	.	.	.	.	.	.	.
.	8ccc\J	.	.	.	.	.	.	.	.	.	.	.	.	.
2B 2G\	8bb\L	.	2G\	pec-	.	2d\	pec-	.	2g/	pec-	.	2b\	pec-	.
.	8ddd\	.	.	.	.	.	.	.	.	.	.	.	.	.
.	8ccc\	.	.	.	.	.	.	.	.	.	.	.	.	.
.	8bb\J	.	.	.	.	.	.	.	.	.	.	.	.	.
=25	=25	=25	=25	=25	=25	=25	=25	=25	=25	=25	=25	=25	=25	=25
*^	*	*	*	*	*	*	*	*	*	*	*	*	*	*
4g/	2C\	8aaL 8gg\	.	2c\	-ca-	.	2e\	-ca-	.	2g/	-ca-	.	2a\	-ca-	.
.	.	8ee\	.	.	.	.	.	.	.	.	.	.	.	.	.
8f#X/L	.	8aa 8gg\	.	.	.	.	.	.	.	.	.	.	.	.	.
8e/J	.	8ee\J	.	.	.	.	.	.	.	.	.	.	.	.	.
8d/L	4BB\	8bbL 8gg\	.	(>4B\	-ta	.	(>4d\	-ta	.	2g/	-ta	.	(>4b\	-ta	.
8c/	.	8ee\	.	.	.	.	.	.	.	.	.	.	.	.	.
8B/	4AA\	8ccc 8gg\	.	4A\)	.	.	4c\)	.	.	.	.	.	4cc\)	.	.
8A/J	.	8ee\J	.	.	.	.	.	.	.	.	.	.	.	.	.
*v	*v	*	*	*	*	*	*	*	*	*	*	*	*	*	*
=26	=26	=26	=26	=26	=26	=26	=26	=26	=26	=26	=26	=26	=26	=26
*	*2\right	*	*	*	*	*	*	*	*	*	*	*	*	*
*	*tremolo	*	*	*	*	*	*	*	*	*	*	*	*	*
2D/	8bbL 8gg\	.	1d	mun-	.	1d	mun-	.	(<2g/	mun-	.	(>2b\	mun-	.
.	8dd\	.	.	.	.	.	.	.	.	.	.	.	.	.
.	8bb 8gg\	.	.	.	.	.	.	.	.	.	.	.	.	.
.	8dd\J	.	.	.	.	.	.	.	.	.	.	.	.	.
2DD/	8aaL 8ff#X\	.	.	.	.	.	.	.	2f#X/)	.	.	2a\)	.	.
.	8dd\	.	.	.	.	.	.	.	.	.	.	.	.	.
.	8aa 8ff#\	.	.	.	.	.	.	.	.	.	.	.	.	.
.	8dd\J	.	.	.	.	.	.	.	.	.	.	.	.	.
*	*Xtremolo	*	*	*	*	*	*	*	*	*	*	*	*	*
=27	=27	=27	=27	=27	=27	=27	=27	=27	=27	=27	=27	=27	=27	=27
4GG/	4gg\	.	2G\	-di,	.	2G/	-di,	.	2g/	-di,	.	2g/	-di,	.
4G\	8g/L	.	.	.	.	.	.	.	.	.	.	.	.	.
.	8g/J	.	.	.	.	.	.	.	.	.	.	.	.	.
4D\	4g/	.	2r	.	.	2r	.	.	2r	.	.	2r	.	.
4BB\	4g/	.	.	.	.	.	.	.	.	.	.	.	.	.
=28	=28	=28	=28	=28	=28	=28	=28	=28	=28	=28	=28	=28	=28	=28
2.GG^</	2.g^</	.	1r	.	.	1r	.	.	1r	.	.	1r	.	.
4r	4r	.	.	.	.	.	.	.	.	.	.	.	.	.
!!LO:LB:g=original
=29	=29	=29	=29	=29	=29	=29	=29	=29	=29	=29	=29	=29	=29	=29
!	!	!LO:DY:rj:t=p.	!	!	!	!	!	!	!LO:TX:a:i:t=Solo.	!	!LO:DY:a:t=p.	!LO:TX:a:i:t=Solo.	!	!LO:DY:a:t=p.
8c\L	N(>1ee-X 1g	p	1r	.	.	1r	.	.	2.g/	Par-	p	2.ee-X\	Par-	p
8G\	.	.	.	.	.	.	.	.	.	.	.	.	.	.
8A\	.	.	.	.	.	.	.	.	.	.	.	.	.	.
8B\J	.	.	.	.	.	.	.	.	.	.	.	.	.	.
8c\L	.	.	.	.	.	.	.	.	.	.	.	.	.	.
8d\	.	.	.	.	.	.	.	.	.	.	.	.	.	.
8e-X\	.	.	.	.	.	.	.	.	4g/	-ce	.	4ee-\	-ce	.
8f\J	.	.	.	.	.	.	.	.	.	.	.	.	.	.
=30	=30	=30	=30	=30	=30	=30	=30	=30	=30	=30	=30	=30	=30	=30
*^	*	*	*	*	*	*	*	*	*	*	*	*	*	*
!	!	!	!LO:HP:color=blue	!	!	!	!	!	!	!	!	!LO:HP:a:color=blue	!	!	!LO:HP:a:color=blue
2dd>/	2f\	8g\L	<	1r	.	.	1r	.	.	2f/	no-	<	2dd\	no-	<
.	.	8a\	.	.	.	.	.	.	.	.	.	.	.	.	.
.	.	8b\	.	.	.	.	.	.	.	.	.	.	.	.	.
.	.	8g\J	.	.	.	.	.	.	.	.	.	.	.	.	.
2cc>/N)	2e-X\	8cc\L	.	.	.	.	.	.	.	2e-X/	-bis	[[	2cc\	-bis	[[
.	.	8dd\	.	.	.	.	.	.	.	.	.	.	.	.	.
.	.	8ee-X\	.	.	.	.	.	.	.	.	.	.	.	.	.
.	.	8ff\J	[[	.	.	.	.	.	.	.	.	.	.	.	.
*v	*v	*	*	*	*	*	*	*	*	*	*	*	*	*	*
=31	=31	=31	=31	=31	=31	=31	=31	=31	=31	=31	=31	=31	=31	=31
!	!	!LO:HP:color=blue	!	!	!	!	!	!	!	!	!LO:HP:a:color=blue	!	!	!LO:HP:a:color=blue
(2.b-X> 2.d\	8gg/L	>	1r	.	.	1r	.	.	2.d/	Do-	>	2.b-X\	Do-	>
.	8aa/	.	.	.	.	.	.	.	.	.	.	.	.	.
.	8bb-X/	.	.	.	.	.	.	.	.	.	.	.	.	.
.	8ccc/J	.	.	.	.	.	.	.	.	.	.	.	.	.
.	8ddd/L	.	.	.	.	.	.	.	.	.	.	.	.	.
.	8eee-X/	.	.	.	.	.	.	.	.	.	.	.	.	.
4a> 4c\	8ddd/	.	.	.	.	.	.	.	4c/	-mi-	]]	4a\	-mi-	]]
.	8ddd/J	]]	.	.	.	.	.	.	.	.	.	.	.	.
=32	=32	=32	=32	=32	=32	=32	=32	=32	=32	=32	=32	=32	=32	=32
1g> 1B-X)	8ddd/L	.	1r	.	.	1r	.	.	2B-X/	-ne,	.	2g/	-ne,	.
.	8ccc/	.	.	.	.	.	.	.	.	.	.	.	.	.
.	8bb-X/	.	.	.	.	.	.	.	.	.	.	.	.	.
.	8aa/J	.	.	.	.	.	.	.	.	.	.	.	.	.
.	8gg/L	.	.	.	.	.	.	.	2r	.	.	2r	.	.
.	8ff/	.	.	.	.	.	.	.	.	.	.	.	.	.
.	8ee-X/	.	.	.	.	.	.	.	.	.	.	.	.	.
.	8dd/J	.	.	.	.	.	.	.	.	.	.	.	.	.
=33	=33	=33	=33	=33	=33	=33	=33	=33	=33	=33	=33	=33	=33	=33
!	!	!	!	!	!	!LO:TX:a:i:t=Solo.	!	!LO:DY:a:t=p.	!	!	!	!	!	!
1cc> 1e-X> 1A-X	8cc/L	.	1r	.	.	2.A-X/	Par-	p	2.e-X/	Par-	.	2.cc\	par-	.
.	8dd/	.	.	.	.	.	.	.	.	.	.	.	.	.
.	8ee-X/	.	.	.	.	.	.	.	.	.	.	.	.	.
.	8ff/J	.	.	.	.	.	.	.	.	.	.	.	.	.
.	8gg/L	.	.	.	.	.	.	.	.	.	.	.	.	.
.	8aa-X/	.	.	.	.	.	.	.	.	.	.	.	.	.
.	8bb-X/	.	.	.	.	4A-/	-ce	.	4e-/	-ce	.	4cc\	-ce	.
.	8ccc/J	.	.	.	.	.	.	.	.	.	.	.	.	.
!!LO:PB:g=original
=34	=34	=34	=34	=34	=34	=34	=34	=34	=34	=34	=34	=34	=34	=34
!	!	!LO:HP:color=blue	!	!	!	!	!	!	!	!	!LO:HP:a:color=blue	!	!	!LO:HP:a:color=blue
2b-X> 2d> 2B-X\	8ff/L	<	1r	.	.	2B-X\	no-	.	2d/	no-	<	2b-X\	no-	<
.	8gg/	.	.	.	.	.	.	.	.	.	.	.	.	.
!	!	!	!	!	!	!	!	!LO:HP:a:color=blue	!	!	!	!	!	!
.	8aa-X/	.	.	.	.	.	.	<	.	.	.	.	.	.
.	8bb-X/J	.	.	.	.	.	.	.	.	.	.	.	.	.
2a-X> 2B- 2D\	8bb-/L	.	.	.	.	2A-X\	-bis	.	2f/	-bis	[[	2a-X\	-bis	[[
.	8aa-/	.	.	.	.	.	.	.	.	.	.	.	.	.
.	8gg/	.	.	.	.	.	.	.	.	.	.	.	.	.
.	8ff/J	[[	.	.	.	.	.	.	.	.	.	.	.	.
=35	=35	=35	=35	=35	=35	=35	=35	=35	=35	=35	=35	=35	=35	=35
*^	*^	*	*	*	*	*	*	*	*	*	*	*	*	*
!	!	!	!	!LO:HP:color=blue	!	!	!	!	!	!LO:DY:a	!	!	!LO:HP:a:color=blue	!	!	!LO:HP:a:color=blue
2.B/	2.E-X\	8gg/L	2.g\	>	1r	.	.	2.B-X\	Do-	[	2.e-X/	Do-	>	2.g/	Do-	>
.	.	8ff/	.	.	.	.	.	.	.	.	.	.	.	.	.	.
!	!	!	!	!	!	!	!	!	!	!LO:HP:a:color=blue	!	!	!	!	!	!
.	.	8ee-X/	.	.	.	.	.	.	.	>	.	.	.	.	.	.
.	.	8dd/J	.	.	.	.	.	.	.	.	.	.	.	.	.	.
.	.	8cc/L	.	.	.	.	.	.	.	.	.	.	.	.	.	.
.	.	8b-X/	.	.	.	.	.	.	.	.	.	.	.	.	.	.
*	*Xtremolo	*	*	*	*	*	*	*	*	*	*	*	*	*	*	*
4A-X/	8BB-X\L	8cc/	4f\	]	.	.	.	4A-X\	-mi-	.	8d/L	-mi-	.	4f/	-mi-	]]
.	8BB-\J	8dd/J	.	.	.	.	.	.	.	]]	8c/J	.	]]	.	.	.
=36	=36	=36	=36	=36	=36	=36	=36	=36	=36	=36	=36	=36	=36	=36	=36	=36
!	!	!	!	!LO:HP:color=blue	!	!	!	!	!	!	!	!	!	!	!	!
4G/	4E-X\	8ee-X/L	2e-X\	<	1r	.	.	2G/	-ne,	.	2B-X/	-ne,	.	2e-X/	-ne,	.
.	.	8dd/	.	.	.	.	.	.	.	.	.	.	.	.	.	.
2.ryy	4B-X\	8cc/	.	.	.	.	.	.	.	.	.	.	.	.	.	.
.	.	8b-X/J	.	.	.	.	.	.	.	.	.	.	.	.	.	.
.	4G\	8a-X/L	2r	.	.	.	.	2r	.	.	2r	.	.	2r	.	.
.	.	8g/	.	.	.	.	.	.	.	.	.	.	.	.	.	.
.	4E-\	8f/	.	.	.	.	.	.	.	.	.	.	.	.	.	.
.	.	8e-/J	.	[	.	.	.	.	.	.	.	.	.	.	.	.
*	*	*v	*v	*	*	*	*	*	*	*	*	*	*	*	*	*
=37	=37	=37	=37	=37	=37	=37	=37	=37	=37	=37	=37	=37	=37	=37	=37
!	!	!	!	!LO:TX:a:t=tutti.	!	!LO:DY:a:rj:t=f.	!	!	!	!LO:TX:a:t=tutti.	!	!LO:DY:a:t=f.	!	!	!
!	!	!	!LO:DY:t=f.	!	!	!	!	!	!	!	!	!	!	!	!
8d>\L	4BB-X\	2.bb-X 2.aa-X 2.ff 2.b-X^^>/	f	2.B-X\	Par-	f	1r	.	.	2.b-X\	Par-	f	1r	.	.
8e->X\	.	.	.	.	.	.	.	.	.	.	.	.	.	.	.
8f>\	4r	.	.	.	.	.	.	.	.	.	.	.	.	.	.
8e->\J	.	.	.	.	.	.	.	.	.	.	.	.	.	.	.
8d>\L	2r	.	.	.	.	.	.	.	.	.	.	.	.	.	.
8B->X\	.	.	.	.	.	.	.	.	.	.	.	.	.	.	.
8c>\	.	4bb- 4aa- 4ff 4b-/	.	4B-\	-ce	.	.	.	.	4b-\	-ce	.	.	.	.
8d>\J	.	.	.	.	.	.	.	.	.	.	.	.	.	.	.
=38	=38	=38	=38	=38	=38	=38	=38	=38	=38	=38	=38	=38	=38	=38	=38
8e->X\L	1r	2bb-X/ 2gg/ 2b-X/	.	2B-X\	no-	.	1r	.	.	2b-X\	no-	.	1r	.	.
8g>\	.	.	.	.	.	.	.	.	.	.	.	.	.	.	.
8f>\	.	.	.	.	.	.	.	.	.	.	.	.	.	.	.
8e->\J	.	.	.	.	.	.	.	.	.	.	.	.	.	.	.
8d>\L	.	2bb-/ 2ff/ 2b-/	.	2B-\	-bis	.	.	.	.	2b-\	-bis	.	.	.	.
8f>\	.	.	.	.	.	.	.	.	.	.	.	.	.	.	.
8e->\	.	.	.	.	.	.	.	.	.	.	.	.	.	.	.
8d>\J	.	.	.	.	.	.	.	.	.	.	.	.	.	.	.
=39	=39	=39	=39	=39	=39	=39	=39	=39	=39	=39	=39	=39	=39	=39	=39
*	*	*^	*	*	*	*	*	*	*	*	*	*	*	*	*
!	!	!	!	!LO:HP:color=blue	!	!	!	!	!	!	!	!	!	!	!	!
8c>\L	1r	2bb-X\ 2gg\ 2ee-X\	1eee-X	>	2.e-X^>\	Do-	.	1r	.	.	2.ee-X^>\	Do-	.	1r	.	.
8B->X\	.	.	.	.	.	.	.	.	.	.	.	.	.	.	.	.
!	!	!	!	!	!	!	!LO:HP:a:color=blue	!	!	!	!	!	!LO:HP:a:color=blue	!	!	!
8c>\	.	.	.	.	.	.	>	.	.	.	.	.	>	.	.	.
8d>\J	.	.	.	.	.	.	.	.	.	.	.	.	.	.	.	.
8e->X\L	.	2aa\ 2cc\	.	.	.	.	.	.	.	.	.	.	.	.	.	.
8f>\	.	.	.	.	.	.	.	.	.	.	.	.	.	.	.	.
8g>\	.	.	.	.	4e-\	-mi-	.	.	.	.	4ee-\	-mi-	]]	.	.	.
8a>\J	.	.	.	]	.	.	]	.	.	.	.	.	.	.	.	.
*	*	*v	*v	*	*	*	*	*	*	*	*	*	*	*	*	*
!!LO:LB:g=original
=40	=40	=40	=40	=40	=40	=40	=40	=40	=40	=40	=40	=40	=40	=40	=40
!	!	!	!LO:DY:color=blue	!	!	!LO:DY:a:color=blue	!	!	!	!	!	!LO:DY:a:color=blue	!	!	!
1rCC	8b->X\L	2ddd 2ff 2dd-X/	mp <	2d\	-ne,	mp	1r	.	.	2dd\	-ne	mp	1r	.	.
.	8a>\	.	.	.	.	.	.	.	.	.	.	.	.	.	.
.	8g>\	.	.	.	.	.	.	.	.	.	.	.	.	.	.
.	8a>\J	.	.	.	.	.	.	.	.	.	.	.	.	.	.
.	8b->\L	2rgg	.	2r	.	.	.	.	.	2r	.	.	.	.	.
.	8cc>\	.	.	.	.	.	.	.	.	.	.	.	.	.	.
.	8dd>\	.	.	.	.	.	.	.	.	.	.	.	.	.	.
.	8een>\J	.	[	.	.	.	.	.	.	.	.	.	.	.	.
*v	*v	*	*	*	*	*	*	*	*	*	*	*	*	*	*
=41	=41	=41	=41	=41	=41	=41	=41	=41	=41	=41	=41	=41	=41	=41
!	!	!LO:DY:rj:t=f.	!	!	!	!LO:TX:a:i:t=tutti.	!	!LO:DY:a:t=f.	!	!	!	!LO:TX:a:t=tutti.	!	!LO:DY:a:rj:t=f.
2.d 2.c 2.A^^>\	8ff#X\L	f	1r	.	.	2.d\	Par-	f	1r	.	.	2.dd\	Par-	f
.	8gg\	.	.	.	.	.	.	.	.	.	.	.	.	.
.	8aa\	.	.	.	.	.	.	.	.	.	.	.	.	.
.	8gg\J	.	.	.	.	.	.	.	.	.	.	.	.	.
.	8ff#\L	.	.	.	.	.	.	.	.	.	.	.	.	.
.	8dd\	.	.	.	.	.	.	.	.	.	.	.	.	.
4c 4A\	8ee\	.	.	.	.	4d\	-ce	.	.	.	.	4dd\	-ce	.
.	8ff#\J	.	.	.	.	.	.	.	.	.	.	.	.	.
=42	=42	=42	=42	=42	=42	=42	=42	=42	=42	=42	=42	=42	=42	=42
2B-X 2G\	8gg\L	.	1r	.	.	2d\	no-	.	1r	.	.	2.dd\	no-	.
.	8ff#X\	.	.	.	.	.	.	.	.	.	.	.	.	.
.	8gg\	.	.	.	.	.	.	.	.	.	.	.	.	.
.	8aa\J	.	.	.	.	.	.	.	.	.	.	.	.	.
2d 2B- 2G 2F\	8bb-X\L	.	.	.	.	2d\	-bis	.	.	.	.	.	.	.
.	8aa\	.	.	.	.	.	.	.	.	.	.	.	.	.
.	8bb-\	.	.	.	.	.	.	.	.	.	.	4dd\	-bis	.
.	8ccc\J	.	.	.	.	.	.	.	.	.	.	.	.	.
=43	=43	=43	=43	=43	=43	=43	=43	=43	=43	=43	=43	=43	=43	=43
!	!	!LO:HP:color=blue	!	!	!	!	!	!LO:HP:a:color=blue	!	!	!	!	!	!LO:DY:a
2d 2B-X 2G 2E\	8ddd\L	>	1r	.	.	2B\	Do-	>	1r	.	.	2.gg^>\	Do-	.
.	8bb-X\	.	.	.	.	.	.	.	.	.	.	.	.	.
.	8gg\	.	.	.	.	.	.	.	.	.	.	.	.	.
!	!	!	!	!	!	!	!	!	!	!	!	!	!	!LO:HP:a:color=blue
.	8ee\J	.	.	.	.	.	.	.	.	.	.	.	.	>
2c#X 2A\	8ee\L	.	.	.	.	2A\	mi-	]]	.	.	.	.	.	.
.	8ff#X\	.	.	.	.	.	.	.	.	.	.	.	.	.
.	8gg\	.	.	.	.	.	.	.	.	.	.	4gg\	-mi-	.
.	8aa\J	]]	.	.	.	.	.	.	.	.	.	.	.	.
=44	=44	=44	=44	=44	=44	=44	=44	=44	=44	=44	=44	=44	=44	=44
!	!	!LO:HP:color=blue	!	!	!	!	!	!	!	!	!	!	!	!
!	!	!LO:DY:color=blue	!	!	!	!	!	!LO:DY:a:color=blue	!	!	!	!	!	!LO:DY:b:color=blue
4d\	8ff#X\L	mp <	1r	.	.	4d\	-ne,	mp	1r	.	.	4ff#X\	-ne,	]mp
.	8gg\	.	.	.	.	.	.	.	.	.	.	.	.	.
4r	8aa\	.	.	.	.	4r	.	.	.	.	.	4r	.	.
.	8bb-X\J	.	.	.	.	.	.	.	.	.	.	.	.	.
2r	8ccc\L	.	.	.	.	2r	.	.	.	.	.	2r	.	.
.	8ddd\	.	.	.	.	.	.	.	.	.	.	.	.	.
.	8eee\	.	.	.	.	.	.	.	.	.	.	.	.	.
.	8fff#\J	[[	.	.	.	.	.	.	.	.	.	.	.	.
!!LO:PB:g=original
=45	=45	=45	=45	=45	=45	=45	=45	=45	=45	=45	=45	=45	=45	=45
!	!	!LO:DY:color=blue	!	!	!LO:DY:a:rj:t=ff.	!	!	!LO:DY:a:t=ff.:rj	!	!	!LO:DY:a:t=ff.:rj	!	!	!LO:DY:a:rj:t=ff.
4GG 4GGG/	8gggL 8bb-X 8gg\	ff	2.G\	a-	ff	2.d\	a-	ff	2.b-X\	a-	ff	2.gg\	a-	ff
.	8fff\	.	.	.	.	.	.	.	.	.	.	.	.	.
4BB-X/	8eee-X\	.	.	.	.	.	.	.	.	.	.	.	.	.
.	8ddd\J	.	.	.	.	.	.	.	.	.	.	.	.	.
4D/	8ccc\L	.	.	.	.	.	.	.	.	.	.	.	.	.
.	8bb-X\	.	.	.	.	.	.	.	.	.	.	.	.	.
4BB-/	8aa\	.	4G\	-gnus	.	4d\	-gnus	.	4b-\	-gnus	.	4dd\	-gnus	.
.	8gg\J	.	.	.	.	.	.	.	.	.	.	.	.	.
=46	=46	=46	=46	=46	=46	=46	=46	=46	=46	=46	=46	=46	=46	=46
4GG/	8gg\L	.	2G\	De-	.	2d\	De-	.	2b-X\	De-	.	2dd\	De-	.
.	8dd\	.	.	.	.	.	.	.	.	.	.	.	.	.
4D/	8b-X\	.	.	.	.	.	.	.	.	.	.	.	.	.
.	8cc\J	.	.	.	.	.	.	.	.	.	.	.	.	.
4BB-X/	8dd\L	.	2G\	-i,	.	2B-X\	-i,	.	2g/	-i,	.	2dd\	-i,	.
.	8ee\	.	.	.	.	.	.	.	.	.	.	.	.	.
4GG/	8ff#X\	.	.	.	.	.	.	.	.	.	.	.	.	.
.	8gg\J	.	.	.	.	.	.	.	.	.	.	.	.	.
=47	=47	=47	=47	=47	=47	=47	=47	=47	=47	=47	=47	=47	=47	=47
4F 4FF/	8aa\L	.	2.F\	a-	.	2.c\	a-	.	2.a/	a-	.	2.ff\	a-	.
.	8gg\	.	.	.	.	.	.	.	.	.	.	.	.	.
4AA/	8ff\	.	.	.	.	.	.	.	.	.	.	.	.	.
.	8ee\J	.	.	.	.	.	.	.	.	.	.	.	.	.
4C/	8dd\L	.	.	.	.	.	.	.	.	.	.	.	.	.
.	8cc\	.	.	.	.	.	.	.	.	.	.	.	.	.
4F/	8b-X\	.	4F\	-gnus	.	4c\	-gnus	.	4a/	-gnus	.	4cc\	-gnus	.
.	8a\J	.	.	.	.	.	.	.	.	.	.	.	.	.
=48	=48	=48	=48	=48	=48	=48	=48	=48	=48	=48	=48	=48	=48	=48
4FF/	8aa\L	.	2F\	De-	.	2c\	De-	.	2a/	De-	.	2cc\	De-	.
.	8gg\	.	.	.	.	.	.	.	.	.	.	.	.	.
4C/	8ff\	.	.	.	.	.	.	.	.	.	.	.	.	.
.	8ee\J	.	.	.	.	.	.	.	.	.	.	.	.	.
4AA/	8ff\L	.	2F\	-i,	.	2A\	-i,	.	2a/	-i,	.	2dd\	-i,	.
.	8gg\	.	.	.	.	.	.	.	.	.	.	.	.	.
4FF/	8gg#X\	.	.	.	.	.	.	.	.	.	.	.	.	.
!LO:TX:b:t=2:color=grey	!	!	!	!	!	!	!	!	!	!	!	!	!	!
.	8aa\J	.	.	.	.	.	.	.	.	.	.	.	.	.
=49	=49	=49	=49	=49	=49	=49	=49	=49	=49	=49	=49	=49	=49	=49
4EE/	8bb\L	.	2.E\	a-	.	2.Bn\	a-	.	2.g#X/	a-	.	2.een\	a-	.
.	8aa\	.	.	.	.	.	.	.	.	.	.	.	.	.
4E\	8gg#X\	.	.	.	.	.	.	.	.	.	.	.	.	.
.	8aa\J	.	.	.	.	.	.	.	.	.	.	.	.	.
4G#X\	8bb\L	.	.	.	.	.	.	.	.	.	.	.	.	.
.	8gg#\	.	.	.	.	.	.	.	.	.	.	.	.	.
4E\	8ee\	.	4E\	-gnus,	.	4B\	-gnus,	.	4g#/	-gnus,	.	4ee\	-gnus,	.
.	8ff#X\J	.	.	.	.	.	.	.	.	.	.	.	.	.
!!LO:LB:g=original
=50	=50	=50	=50	=50	=50	=50	=50	=50	=50	=50	=50	=50	=50	=50
4BB/	8gg#X\L	.	2E\	a-	.	2en\	a-	.	2g#X/	a-	.	2bn\	a-	.
.	8aa\	.	.	.	.	.	.	.	.	.	.	.	.	.
4GG#X/	8bb\	.	.	.	.	.	.	.	.	.	.	.	.	.
.	8ccc\J	.	.	.	.	.	.	.	.	.	.	.	.	.
4EE/	8ddd\L	.	2E\	-gnus	.	2e\	-gnus	.	2g#/	-gnus	.	2b\	-gnus	.
.	8bb\	.	.	.	.	.	.	.	.	.	.	.	.	.
4E\	8eee\	.	.	.	.	.	.	.	.	.	.	.	.	.
.	8ddd\J	.	.	.	.	.	.	.	.	.	.	.	.	.
=51	=51	=51	=51	=51	=51	=51	=51	=51	=51	=51	=51	=51	=51	=51
4AA/	8ccc\L	.	1A	De-	.	1f	De-	.	1a	De-	.	1cc	De-	.
.	8ddd\	.	.	.	.	.	.	.	.	.	.	.	.	.
8C/L	8eee\	.	.	.	.	.	.	.	.	.	.	.	.	.
8E/J	8ccc\J	.	.	.	.	.	.	.	.	.	.	.	.	.
4A\	8aa\L	.	.	.	.	.	.	.	.	.	.	.	.	.
.	8ee\	.	.	.	.	.	.	.	.	.	.	.	.	.
4E\	8cc\	.	.	.	.	.	.	.	.	.	.	.	.	.
.	8a\J	.	.	.	.	.	.	.	.	.	.	.	.	.
=52	=52	=52	=52	=52	=52	=52	=52	=52	=52	=52	=52	=52	=52	=52
4A 4AA\	4a\	.	4AA/	-i,	.	4A/	-i,	.	4a/	-i,	.	4a/	-i,	.
!	!	!LO:DY:color=blue	!	!	!	!	!	!	!	!	!	!	!	!
4r	4r	mf	4r	.	.	4r	.	.	4r	.	.	4r	.	.
!	!	!	!	!	!	!	!	!LO:HP:a:color=blue	!	!	!	!	!	!LO:HP:a:color=blue
!	!	!LO:HP:color=blue	!	!	!	!	!	!LO:DY:a:color=blue:rj	!	!	!	!	!	!LO:DY:a:rj:color=blue
2f 2c 2A\	8ff\L	<	2A\	qui	.	2c\	qui	mf < [[	2cc\	qui	.	2ff\	qui	mf <
.	8ee\	.	.	.	.	.	.	.	.	.	.	.	.	.
.	8gg\	.	.	.	.	.	.	.	.	.	.	.	.	.
.	8ff\J	[[	.	.	.	.	.	.	.	.	.	.	.	.
=53	=53	=53	=53	=53	=53	=53	=53	=53	=53	=53	=53	=53	=53	=53
!	!	!	!	!	!	!	!	!	!LO:ART:color=red	!	!	!LO:ART:color=blue	!	!
!LO:ART:color=blue	!	!	!	!	!	!LO:ART:color=blue	!	!	!LO:S:color=red	!	!	!	!	!
2e 2B 2G#X\^>	8ee\L	.	(>2G#X\	tol-	.	(>2d^>\	tol-	.	(>2b^>/	tol-	.	(>2ee^\	tol-	[
.	8dd\	.	.	.	.	.	.	.	.	.	.	.	.	.
.	8cc#X\	.	.	.	.	.	.	.	.	.	.	.	.	.
!	!	!LO:HP:color=blue	!	!	!	!	!	!LO:HP:a:color=blue	!	!	!	!	!	!
.	8dd\J	>	.	.	.	.	.	>	.	.	.	.	.	.
!	!	!	!	!	!	!	!	!	!	!	!	!	!	!LO:HP:a:color=blue
2e 2A 2Gn\	8ee\L	.	2Gn\)	.	.	2e\)	.	.	2a/)	.	.	2cc#X\)	.	>
.	8a\	.	.	.	.	.	.	.	.	.	.	.	.	.
.	8b\	.	.	.	.	.	.	]	.	.	.	.	.	.
.	8cc#\J	]]	.	.	.	.	.	.	.	.	.	.	.	.
=54	=54	=54	=54	=54	=54	=54	=54	=54	=54	=54	=54	=54	=54	=54
2d 2A 2F#X\	8dd\L	.	2F#X\	-lis,	.	2A\	-lis,	.	2a/	-lis,	.	2dd\	-lis,	]
.	8cc\	.	.	.	.	.	.	.	.	.	.	.	.	.
!	!	!	!	!	!	!	!	!LO:DY:a:color=blue	!	!	!	!	!	!
.	8b\	.	.	.	.	.	.	p	.	.	.	.	.	.
!	!	!LO:DY::color=blue	!	!	!	!	!	!	!	!	!	!	!	!
.	8cc\J	p	.	.	.	.	.	.	.	.	.	.	.	.
!	!	!	!	!	!	!	!	!	!	!	!	!	!	!LO:HP:a:color=blue
!	!	!	!	!	!	!	!	!	!	!	!	!	!	!LO:DY:a:rj:color=blue
2d 2G 2Fn\	8dd\L	.	2Fn\	qui	.	2B\	qui	.	2g/	qui	.	2dd\	qui	p < [[
!	!	!LO:HP:color=blue	!	!	!	!	!	!LO:HP:a:color=blue	!	!	!	!	!	!
.	8g\	<	.	.	.	.	.	<	.	.	.	.	.	.
.	8a\	.	.	.	.	.	.	.	.	.	.	.	.	.
.	8b\J	[[	.	.	.	.	.	[[	.	.	.	.	.	.
!!LO:PB:g=original
=55	=55	=55	=55	=55	=55	=55	=55	=55	=55	=55	=55	=55	=55	=55
*	*	*	*	*	*	*	*	*	*	*color:blue	*	*	*	*
!LO:ART:color=blue	!	!	!	!	!	!LO:ART:color=blue	!	!	!LO:S:color=blue	!	!	!LO:ART:color=blue	!	!
2c 2G 2E^\	8cc\L	.	(>2E\	tol-	.	(>2c^\	tol-	.	(<2g/	tol-	.	(>2cc^\	tol-	.
*	*	*	*	*	*	*	*	*	*	*color:auto	*	*	*	*
.	8ee\	.	.	.	.	.	.	.	.	.	.	.	.	.
!	!	!	!	!	!	!	!	!LO:HP:a:color=blue	!	!	!	!	!	!
.	8dd\	.	.	.	.	.	.	>	.	.	.	.	.	.
!	!	!LO:HP:color=blue	!	!	!	!	!	!	!	!	!	!	!	!LO:HP:a:color=blue
.	8cc\J	>	.	.	.	.	.	.	.	.	.	.	.	>
!	!	!	!	!	!	!	!	!LO:DY:a	!	!	!	!	!	!
2B 2G#X 2F 2D\	8b\L	.	2d\)	.	.	2G#X/)	.	.	2fn/)	.	.	2b\)	.	.
.	8dd\	.	.	.	.	.	.	.	.	.	.	.	.	.
.	8cc\	.	.	.	.	.	.	]	.	.	.	.	.	]
.	8b\J	]]	.	.	.	.	.	.	.	.	.	.	.	.
=56	=56	=56	=56	=56	=56	=56	=56	=56	=56	=56	=56	=56	=56	=56
!LO:TX:a:t=P:problem="crescen." zapisane niebieskim atramentem	!	!	!	!	!	!LO:TX:a:t=P:problem="crescen." zapisane niebieskim atramentem	!	!LO:HP:a	!	!	!	!LO:TX:a:t=P:problem="crescen." zapisane niebieskim atramentem	!	!
2A 2E 2C\	8a/L	<	2c\	-lis	.	2A/	-lis	<	2e/	-lis	.	2a\	-lis	<
.	8cc/	.	.	.	.	.	.	.	.	.	.	.	.	.
.	8b/	.	.	.	.	.	.	.	.	.	.	.	.	.
.	8a/J	.	.	.	.	.	.	.	.	.	.	.	.	.
2B 2E 2BB\	8g/L	.	2B\	pec-	.	2B/	pec-	.	2gn/	pec-	.	2ee\	pec-	.
.	8b/	.	.	.	.	.	.	.	.	.	.	.	.	.
.	8a/	.	.	.	.	.	.	.	.	.	.	.	.	.
.	8g/J	.	.	.	.	.	.	.	.	.	.	.	.	.
=57	=57	=57	=57	=57	=57	=57	=57	=57	=57	=57	=57	=57	=57	=57
*^	*	*	*	*	*	*	*	*	*	*	*	*	*	*
!LO:TX:t=P:problem=mixed beam	!	!	!	!	!	!	!	!	!	!	!	!	!	!	!
8e>\L	2AA\	2f#X 2e/	.	2A\	-ca-	.	2c\	-ca-	.	2f#X/	-ca-	.	2.ee\	-ca-	.
8d>\	.	.	.	.	.	.	.	.	.	.	.	.	.	.	.
8c>\	.	.	.	.	.	.	.	.	.	.	.	.	.	.	.
8B/J	.	.	.	.	.	.	.	.	.	.	.	.	.	.	.
8A/L	4GG\	4g 4e/	.	(>4G\	-ta	.	(>4B\	-ta	.	(<4g/	-ta	.	.	.	.
8G/	.	.	.	.	.	.	.	.	.	.	.	.	.	.	.
8F#X/	4FF#X\	8aL 8e/	.	4F#X\)	.	.	4A\)	.	.	4a/)	.	.	4e/	-ta	.
8E/J	.	8c/J	.	.	.	.	.	.	.	.	.	.	.	.	.
*v	*v	*	*	*	*	*	*	*	*	*	*	*	*	*	*
=58	=58	=58	=58	=58	=58	=58	=58	=58	=58	=58	=58	=58	=58	=58
*	*tremolo	*	*	*	*	*	*	*	*	*	*	*	*	*
!	!	!LO:DY:color=blue	!	!	!	!	!	!LO:DY:a:color=blue	!	!	!	!	!	!LO:DY:a:color=blue
2BB/	8gL 8e/	ff	1B	mun-	.	1B	mun-	ff	(<2g/	mun-	.	(<2e/	mun-	ff
.	8B/	.	.	.	.	.	.	.	.	.	.	.	.	.
.	8g 8e/	.	.	.	.	.	.	.	.	.	.	.	.	.
.	8B/J	.	.	.	.	.	.	.	.	.	.	.	.	.
2BBB/	8f#XL 8d#X/	.	.	.	.	.	.	.	2f#X/)	.	.	2d#X/)	.	.
.	8B/	.	.	.	.	.	.	.	.	.	.	.	.	.
.	8f# 8d#/	.	.	.	.	.	.	.	.	.	.	.	.	.
.	8B/J	.	.	.	.	.	.	.	.	.	.	.	.	.
*	*Xtremolo	*	*	*	*	*	*	*	*	*	*	*	*	*
=59	=59	=59	=59	=59	=59	=59	=59	=59	=59	=59	=59	=59	=59	=59
4EE/	4e/	.	2E\	-di,	.	2E/	-di,	.	2e/	-di,	.	2e/	-di,	.
4E\	8e/L	.	.	.	.	.	.	.	.	.	.	.	.	.
.	8e/J	.	.	.	.	.	.	.	.	.	.	.	.	.
4BB/	4e 4G/	.	2r	.	.	2r	.	.	2r	.	.	2r	.	.
4GG/	4e 4B/	.	.	.	.	.	.	.	.	.	.	.	.	.
=60	=60	=60	=60	=60	=60	=60	=60	=60	=60	=60	=60	=60	=60	=60
!	!LO:ART:color=blue	!	!	!	!	!	!	!	!	!	!	!	!	!
2EE/	2e 2G^>/	.	1r	.	.	1r	.	.	2r	.	.	2r	.	.
!	!	!	!	!	!	!	!	!	!	!	!LO:HP:b:color=blue	!	!	!LO:HP:b:color=blue
!	!	!	!	!	!	!	!	!	!LO:TX:a:i:t=Solo.	!	!LO:DY:b:rj:color=blue	!LO:TX:a:i:t=Solo.	!	!LO:DY:b:rj:color=blue
2r	2r	.	.	.	.	.	.	.	2e/	ex-	p < [[	2e/	ex-	p < [[
!!LO:LB:g=original
=61	=61	=61	=61	=61	=61	=61	=61	=61	=61	=61	=61	=61	=61	=61
!	!	!LO:DY:rj:color=blue	!	!	!	!	!	!	!	!	!LO:HP:b:color=blue	!	!	!LO:HP:b:color=blue
8A>/L	1ff 1cc	p	1r	.	.	1r	.	.	1cc	-au-	>]	1ee	-au-	>]
8B>/	.	.	.	.	.	.	.	.	.	.	.	.	.	.
8c>/	.	.	.	.	.	.	.	.	.	.	.	.	.	.
8d>/J	.	.	.	.	.	.	.	.	.	.	.	.	.	.
8e>/L	.	.	.	.	.	.	.	.	.	.	.	.	.	.
8a>/	.	.	.	.	.	.	.	.	.	.	.	.	.	.
8cc>/	.	.	.	.	.	.	.	.	.	.	.	.	.	.
8ee>/J	.	.	.	.	.	.	.	.	.	.	.	.	.	.
=62	=62	=62	=62	=62	=62	=62	=62	=62	=62	=62	=62	=62	=62	=62
!	!	!LO:HP:color=blue	!	!	!	!	!	!	!	!	!	!	!	!
2dd> 2b>\	8ee/L	<	1r	.	.	1r	.	.	2b/	-di	.	2dd\	-di	.
.	8ff#X/	.	.	.	.	.	.	.	.	.	.	.	.	.
.	8gg#X/	.	.	.	.	.	.	.	.	.	.	.	.	.
.	8ee/J	.	.	.	.	.	.	.	.	.	.	.	.	.
2cc> 2a>\	8aa/L	.	.	.	.	.	.	.	2a/	nos	.	2cc\	nos	.
.	8bb/	.	.	.	.	.	.	.	.	.	.	.	.	.
.	8ccc/	.	.	.	.	.	.	.	.	.	.	.	.	.
.	8ddd/J	[[	.	.	.	.	.	.	.	.	.	.	.	.
=63	=63	=63	=63	=63	=63	=63	=63	=63	=63	=63	=63	=63	=63	=63
2.b> 2.g>\	8eee\L	.	1r	.	.	1r	.	.	2.g^>/	Do-	.	2.b^>\	Do-	.
.	8fff#X\	.	.	.	.	.	.	.	.	.	.	.	.	.
.	8ggg\	.	.	.	.	.	.	.	.	.	.	.	.	.
.	8fff#\J	.	.	.	.	.	.	.	.	.	.	.	.	.
!	!LO:TX:t=P:problem=mixed beam	!LO:HP:color=blue	!	!	!	!	!	!	!	!	!	!	!	!
.	8eee\L	>	.	.	.	.	.	.	.	.	.	.	.	.
.	8ee/	.	.	.	.	.	.	.	.	.	.	.	.	.
4a> 4f#X>\	8ee/	.	.	.	.	.	.	.	4f#X/	-mi-	.	4a\	-mi-	.
.	8ff#X\J	.	.	.	.	.	.	.	.	.	.	.	.	.
=64	=64	=64	=64	=64	=64	=64	=64	=64	=64	=64	=64	=64	=64	=64
!	!	!	!	!	!	!LO:N:vis=1	!	!	!	!	!	!	!	!
1g> 1e>	8gg/L	.	1r	.	.	2rc	.	.	4e/	-ne,	.	4g/	-ne,	.
.	8aa/	.	.	.	.	.	.	.	.	.	.	.	.	.
!	!	!	!	!	!	!	!	!LO:DY:b:color=red	!	!	!	!	!	!
.	8bb/	]	.	.	.	.	.	p	4r	.	.	4r	.	.
.	8aa/J	.	.	.	.	.	.	.	.	.	.	.	.	.
!	!	!	!	!	!	!LO:TX:a:i:t=Solo.	!	!LO:HP:b:color=blue	!	!	!LO:HP:a:color=blue	!	!	!LO:HP:a:color=blue
.	8gg/L	.	.	.	.	2E/	ex-	< [[	2e/	ex-	<[	2e/	ex-	<[
.	8ff#X/	.	.	.	.	.	.	.	.	.	.	.	.	.
.	8ee/	.	.	.	.	.	.	.	.	.	.	.	.	.
.	8dd/J	.	.	.	.	.	.	.	.	.	.	.	.	.
=65	=65	=65	=65	=65	=65	=65	=65	=65	=65	=65	=65	=65	=65	=65
1cc> 1e 1A	8cc/L	.	1r	.	.	1A	-au-	.	1e	-au-	.	1cc	-au-	.
.	8dd/	.	.	.	.	.	.	.	.	.	.	.	.	.
!	!	!	!	!	!	!	!	!LO:HP:b:color=blue	!	!	!	!	!	!
.	8ee/	.	.	.	.	.	.	>	.	.	.	.	.	.
!	!	!	!	!	!	!	!	!	!	!	!LO:HP:a:color=blue	!	!	!LO:HP:a:color=blue
.	8dd/J	.	.	.	.	.	.	.	.	.	>	.	.	>
.	8cc/L	.	.	.	.	.	.	.	.	.	.	.	.	.
.	8b/	.	.	.	.	.	.	.	.	.	.	.	.	.
.	8a/	.	.	.	.	.	.	.	.	.	.	.	.	.
.	8g/J	.	.	.	.	.	.	]	.	.	]	.	.	]
!!LO:PB:g=original
=66	=66	=66	=66	=66	=66	=66	=66	=66	=66	=66	=66	=66	=66	=66
*^	*	*	*	*	*	*	*	*	*	*	*	*	*	*
2b>/	2d#X 2B\	8f#X/L	.	1r	.	.	2B\	-di	.	2d#X/	-di	.	2b\	-di	.
.	.	8g/	.	.	.	.	.	.	.	.	.	.	.	.	.
.	.	8a/	.	.	.	.	.	.	.	.	.	.	.	.	.
.	.	8b/J	.	.	.	.	.	.	.	.	.	.	.	.	.
2ryy	2f#X 2D#X\	8b/L	.	.	.	.	2B\	nos	.	2f#X/	nos	.	2a\	nos	.
.	.	8a/	.	.	.	.	.	.	.	.	.	.	.	.	.
.	.	8g/	.	.	.	.	.	.	.	.	.	.	.	.	.
.	.	8f#/J	.	.	.	.	.	.	.	.	.	.	.	.	.
*v	*v	*	*	*	*	*	*	*	*	*	*	*	*	*	*
=67	=67	=67	=67	=67	=67	=67	=67	=67	=67	=67	=67	=67	=67	=67
2.B 2.E\	8e/L	.	1r	.	.	2.B^>\	Do-	.	2.e^>/	Do-	.	2.g^>/	Do-	.
.	8f#X/	.	.	.	.	.	.	.	.	.	.	.	.	.
.	8g/	.	.	.	.	.	.	.	.	.	.	.	.	.
.	8f#/J	.	.	.	.	.	.	.	.	.	.	.	.	.
!LO:TX:a:t=P:problem="crescen." zapisane niebieskim atramentem	!	!	!	!	!	!	!	!	!	!	!	!	!	!
.	8e/L	<	.	.	.	.	.	.	.	.	.	.	.	.
.	8g/	.	.	.	.	.	.	.	.	.	.	.	.	.
4A 4F#X\	8a/	.	.	.	.	4E/	-mi-	.	4e/	-mi-	.	4e/	-mi-	.
.	8f#/J	.	.	.	.	.	.	.	.	.	.	.	.	.
=68	=68	=68	=68	=68	=68	=68	=68	=68	=68	=68	=68	=68	=68	=68
4B 4G\	8g/L	.	2r	.	.	4E/	-ne!	.	4e/	-ne!	.	4e/	-ne!	.
.	8b/	.	.	.	.	.	.	.	.	.	.	.	.	.
4c 4A\	8cc/	.	.	.	.	4r	.	.	4r	.	.	4r	.	.
.	8a/J	.	.	.	.	.	.	.	.	.	.	.	.	.
!	!	!	!LO:TX:a:t=tutti	!	!LO:DY:a:rj:t=f.	!	!	!	!LO:TX:a:t=tutti.	!	!LO:DY:a	!	!	!
4d 4B\	8b/L	.	2G\	Ex-	f	2r	.	.	2g/	Ex-	f	2r	.	.
.	8dd/	.	.	.	.	.	.	.	.	.	.	.	.	.
4e 4c\	8ee/	.	.	.	.	.	.	.	.	.	.	.	.	.
.	8cc/J	.	.	.	.	.	.	.	.	.	.	.	.	.
=69	=69	=69	=69	=69	=69	=69	=69	=69	=69	=69	=69	=69	=69	=69
*	*^	*	*	*	*	*	*	*	*	*	*	*	*	*
*	*	*^	*	*	*	*	*	*	*	*	*	*	*	*	*
!	!	!	!	!LO:DY:t=f.	!	!	!	!	!	!	!	!	!	!	!	!
8B\L	2.gg^^>/	2.g\	1ff 1dd	f	1G	-au-	.	1r	.	.	1g	-au-	.	1r	.	.
8c\	.	.	.	.	.	.	.	.	.	.	.	.	.	.	.	.
8d\	.	.	.	.	.	.	.	.	.	.	.	.	.	.	.	.
8c\J	.	.	.	.	.	.	.	.	.	.	.	.	.	.	.	.
8B\L	.	.	.	.	.	.	.	.	.	.	.	.	.	.	.	.
8G\	.	.	.	.	.	.	.	.	.	.	.	.	.	.	.	.
8A\	8gg/L	8g\L	.	.	.	.	.	.	.	.	.	.	.	.	.	.
!	!	!	!	!LO:HP:color=blue	!	!	!	!	!	!	!	!	!LO:HP:a:color=blue	!	!	!
8B\J	8gg/J	8g\J	.	<	.	.	.	.	.	.	.	.	<	.	.	.
*	*	*v	*v	*	*	*	*	*	*	*	*	*	*	*	*	*
=70	=70	=70	=70	=70	=70	=70	=70	=70	=70	=70	=70	=70	=70	=70	=70
!	!	!	!	!	!	!LO:HP:a:color=blue	!	!	!	!	!	!	!	!	!
8c\L	4gg 4g/	2ee 2cc\	.	2G\	-di	<	1r	.	.	2g/	-di	.	1r	.	.
8e\	.	.	.	.	.	.	.	.	.	.	.	.	.	.	.
8d\	2gg 2g/	.	.	.	.	.	.	.	.	.	.	.	.	.	.
8c\J	.	.	.	.	.	.	.	.	.	.	.	.	.	.	.
8B\L	.	2dd\	.	2G\	nos	[[	.	.	.	2g/	nos	[[	.	.	.
8d\	.	.	.	.	.	.	.	.	.	.	.	.	.	.	.
8c\	4gg 4g/	.	.	.	.	.	.	.	.	.	.	.	.	.	.
8B\J	.	.	.	.	.	.	.	.	.	.	.	.	.	.	.
=71	=71	=71	=71	=71	=71	=71	=71	=71	=71	=71	=71	=71	=71	=71	=71
8A\L	2gg 2ee\	1ccc 1cc	[	2.c^>\	Do-	.	1r	.	.	2.cc^>\	Do-	.	1r	.	.
8G\	.	.	.	.	.	.	.	.	.	.	.	.	.	.	.
8A\	.	.	.	.	.	.	.	.	.	.	.	.	.	.	.
!	!	!	!LO:HP:color=blue	!	!	!	!	!	!	!	!	!	!	!	!
8B\J	.	.	>	.	.	.	.	.	.	.	.	.	.	.	.
!LO:TX:t=P:problem=mixed beam	!	!	!	!	!	!	!	!	!	!	!	!LO:HP:a:color=blue	!	!	!
8c^</L	2aa 2dd\	.	.	.	.	.	.	.	.	.	.	>	.	.	.
!	!	!	!	!	!	!LO:HP:a:color=blue	!	!	!	!	!	!	!	!	!
8d>\	.	.	.	.	.	>	.	.	.	.	.	.	.	.	.
!	!	!	!	!	!	!	!	!	!	!	!	!LO:DY:a	!	!	!
8e>\	.	.	.	4c\	-mi-	.	.	.	.	4cc\	-mi-	.	.	.	.
8f#X>\J	.	.	.	.	.	]]	.	.	.	.	.	.	.	.	.
*	*v	*v	*	*	*	*	*	*	*	*	*	*	*	*	*
=72	=72	=72	=72	=72	=72	=72	=72	=72	=72	=72	=72	=72	=72	=72
8g>\L	2bb 2gg 2b/	.	2B\	-ne,	.	2r	.	.	2b\	-ne,	]	2r	.	.
8a>\	.	.	.	.	.	.	.	.	.	.	.	.	.	.
8b>\	.	.	.	.	.	.	.	.	.	.	.	.	.	.
8cc>\J	.	.	.	.	.	.	.	.	.	.	.	.	.	.
!	!	!	!	!	!	!LO:TX:a:t=tutti.	!	!LO:DY:a:t=f.:rj	!	!	!	!LO:TX:a:t=tutti.	!	!LO:DY:a:rj:t=f.
!	!	!	!	!	!	!	!	!	!LO:N:vis=1	!	!	!	!	!
8dd>\L	2riaa	]	2r	.	.	2e\	Ex	f	2rb	.	.	2ee\	Ex-	f
8cc>\	.	.	.	.	.	.	.	.	.	.	.	.	.	.
8b>\	.	.	.	.	.	.	.	.	.	.	.	.	.	.
8a>\J	.	.	.	.	.	.	.	.	.	.	.	.	.	.
!!LO:LB:g=original
=73	=73	=73	=73	=73	=73	=73	=73	=73	=73	=73	=73	=73	=73	=73
*^	*	*	*	*	*	*	*	*	*	*	*	*	*	*
!	!	!	!LO:DY:b=2:t=f.	!	!	!	!	!	!	!	!	!	!	!	!
2.e/	2.d 2.B\	8g#X\L	f	1r	.	.	1e	-au-	.	1r	.	.	1ee	-au-	.
.	.	8a\	.	.	.	.	.	.	.	.	.	.	.	.	.
.	.	8b\	.	.	.	.	.	.	.	.	.	.	.	.	.
.	.	8cc\J	.	.	.	.	.	.	.	.	.	.	.	.	.
.	.	8dd\L	.	.	.	.	.	.	.	.	.	.	.	.	.
.	.	8b\	.	.	.	.	.	.	.	.	.	.	.	.	.
4e/	4d 4B\	8ee\	.	.	.	.	.	.	.	.	.	.	.	.	.
.	.	8dd\J	.	.	.	.	.	.	.	.	.	.	.	.	.
=74	=74	=74	=74	=74	=74	=74	=74	=74	=74	=74	=74	=74	=74	=74	=74
!	!	!	!	!	!	!	!	!	!LO:HP:a:color=blue	!	!	!	!	!	!LO:HP:a:color=blue
4e/	2c 2A\	8cc\L	.	1r	.	.	2e\	-di	<	2r	.	.	2ee\	-di	<
.	.	8ee\	.	.	.	.	.	.	.	.	.	.	.	.	.
2e/	.	8dd\	.	.	.	.	.	.	.	.	.	.	.	.	.
.	.	8cc\J	.	.	.	.	.	.	.	.	.	.	.	.	.
!	!	!	!	!	!	!	!	!	!	!	!	!LO:HP:a:color=red	!	!	!
.	2B 2G\	8b\L	.	.	.	.	2e\	nos	[[	2e/	ex-	<[	2ee\	nos	[[
.	.	8ee\	.	.	.	.	.	.	.	.	.	.	.	.	.
4e/	.	8cc\	.	.	.	.	.	.	.	.	.	.	.	.	.
.	.	8b\J	.	.	.	.	.	.	.	.	.	.	.	.	.
=75	=75	=75	=75	=75	=75	=75	=75	=75	=75	=75	=75	=75	=75	=75	=75
2e 2c/	2F#X\	8a/L	.	1r	.	.	2c^>\	Do-	.	1a^>	-au-	.	2ee^>\	Do-	.
.	.	8g#X/	.	.	.	.	.	.	.	.	.	.	.	.	.
.	.	8a/	.	.	.	.	.	.	.	.	.	.	.	.	.
.	.	8b/J	.	.	.	.	.	.	.	.	.	.	.	.	.
!LO:TX:a:t=P:problem="crescen" zapisane niebieskim atramentem	!	!	!	!	!	!	!	!	!LO:HP:a:color=blue	!	!	!LO:HP:a:color=red	!	!	!LO:HP:a:color=blue
!	!	!	!LO:HP:t=crescen	!	!	!	!	!	!	!	!	!	!	!	!
2d#X/	2B\	8cc#X\L	<	.	.	.	2B\	-mi-	>]	.	.	>	2dd#X\	-mi-	>]
.	.	8dd#X\	.	.	.	.	.	.	.	.	.	.	.	.	.
.	.	8ee\	.	.	.	.	.	.	.	.	.	.	.	.	.
.	.	8ff#X\J	.	.	.	.	.	.	.	.	.	.	.	.	.
*v	*v	*	*	*	*	*	*	*	*	*	*	*	*	*	*
=76	=76	=76	=76	=76	=76	=76	=76	=76	=76	=76	=76	=76	=76	=76
2e 2B 2E\	8gg#X\L	.	1r	.	.	2e\	-ne.	.	2g#X/	-di!	.	2ee\	-ne.	.
.	8aa\	.	.	.	.	.	.	.	.	.	.	.	.	.
.	8bb\	.	.	.	.	.	.	.	.	.	]	.	.	.
.	8ccc\J	.	.	.	.	.	.	.	.	.	.	.	.	.
2r	8ddd\L	.	.	.	.	2r	.	.	2r	.	.	2r	.	.
.	8eee\	.	.	.	.	.	.	.	.	.	.	.	.	.
.	8fff#X\	.	.	.	.	.	.	.	.	.	.	.	.	.
.	8ggg#X\J	.	.	.	.	.	.	.	.	.	.	.	.	.
=77	=77	=77	=77	=77	=77	=77	=77	=77	=77	=77	=77	=77	=77	=77
!	!	!LO:DY:t=ff.	!	!	!	!	!	!LO:DY:a:rj:color=blue	!	!	!	!	!	!LO:DY:a:rj:color=blue
4AA/	8aaaL 8aa\	ff	2.A\	a-	.	2.e\	a-	ff	2.cc\	a-	.	2.ee\	a-	ff
.	8gg\	.	.	.	.	.	.	.	.	.	.	.	.	.
4A\	8ff\	.	.	.	.	.	.	.	.	.	.	.	.	.
.	8ee\J	.	.	.	.	.	.	.	.	.	.	.	.	.
4C/	8dd\L	.	.	.	.	.	.	.	.	.	.	.	.	.
.	8cc\	.	.	.	.	.	.	.	.	.	.	.	.	.
4E\	8b\	.	4A\	-gnus	.	4e\	-gnus	.	4cc\	-gnus	.	4ee\	-gnus	.
.	8a\J	.	.	.	.	.	.	.	.	.	.	.	.	.
=78	=78	=78	=78	=78	=78	=78	=78	=78	=78	=78	=78	=78	=78	=78
4AA/	8aa\L	.	2A\	De-	.	2e\	De-	.	2cc\	De-	.	2ee\	De-	.
.	8ee\	.	.	.	.	.	.	.	.	.	.	.	.	.
4E\	8cc\	.	.	.	.	.	.	.	.	.	.	.	.	.
.	8dd\J	.	.	.	.	.	.	.	.	.	.	.	.	.
4C/	8ee\L	.	2A\	-i,	.	2c\	-i,	.	2cc\	-i,	.	2ee\	-i,	.
.	8cc\	.	.	.	.	.	.	.	.	.	.	.	.	.
4AA/	8ee\	.	.	.	.	.	.	.	.	.	.	.	.	.
.	8aa\J	.	.	.	.	.	.	.	.	.	.	.	.	.
!!LO:PB:g=original
=79	=79	=79	=79	=79	=79	=79	=79	=79	=79	=79	=79	=79	=79	=79
4GG/	8bb\L	.	2.G\	a-	.	2.d\	a-	.	2.b\	a-	.	2.gg\	a-	.
.	8aa\	.	.	.	.	.	.	.	.	.	.	.	.	.
8BB/L	8gg\	.	.	.	.	.	.	.	.	.	.	.	.	.
8C/J	8ff#X\J	.	.	.	.	.	.	.	.	.	.	.	.	.
4G\	8ee\L	.	.	.	.	.	.	.	.	.	.	.	.	.
.	8dd\	.	.	.	.	.	.	.	.	.	.	.	.	.
4D\	8cc\	.	4G\	-gnus	.	4d\	-gnus	.	4b\	-gnus	.	4dd\	-gnus	.
.	8b\J	.	.	.	.	.	.	.	.	.	.	.	.	.
=80	=80	=80	=80	=80	=80	=80	=80	=80	=80	=80	=80	=80	=80	=80
4G\	8bb\L	.	2G\	De-	.	2d\	De-	.	2b\	De-	.	2dd\	De-	.
.	8gg\	.	.	.	.	.	.	.	.	.	.	.	.	.
4D\	8dd\	.	.	.	.	.	.	.	.	.	.	.	.	.
.	8cc\J	.	.	.	.	.	.	.	.	.	.	.	.	.
4BB/	8b\L	.	2G\	-i,	.	2d\	-i,	.	2b\	-i,	.	2gg\	-i,	.
.	8dd\	.	.	.	.	.	.	.	.	.	.	.	.	.
4GG/	8gg\	.	.	.	.	.	.	.	.	.	.	.	.	.
.	8bb\J	.	.	.	.	.	.	.	.	.	.	.	.	.
=81	=81	=81	=81	=81	=81	=81	=81	=81	=81	=81	=81	=81	=81	=81
4FF/	8ccc\L	.	1F	a-	.	1f	a-	.	1cc	a-	.	1aa	a-	.
.	8bb\	.	.	.	.	.	.	.	.	.	.	.	.	.
4AA/	8aa\	.	.	.	.	.	.	.	.	.	.	.	.	.
.	8gg#X\J	.	.	.	.	.	.	.	.	.	.	.	.	.
4C/	8aa\L	.	.	.	.	.	.	.	.	.	.	.	.	.
.	8gg#\	.	.	.	.	.	.	.	.	.	.	.	.	.
4AA/	8aa\	.	.	.	.	.	.	.	.	.	.	.	.	.
.	8bb\J	.	.	.	.	.	.	.	.	.	.	.	.	.
=82	=82	=82	=82	=82	=82	=82	=82	=82	=82	=82	=82	=82	=82	=82
4FF/	8ccc\L	.	1A	-gnus	.	1c	-gnus	.	1cc	-gnus	.	1ff	-gnus	.
.	8bb\	.	.	.	.	.	.	.	.	.	.	.	.	.
4C/	8aa\	.	.	.	.	.	.	.	.	.	.	.	.	.
.	8bb\J	.	.	.	.	.	.	.	.	.	.	.	.	.
4F\	8ccc\L	.	.	.	.	.	.	.	.	.	.	.	.	.
.	8bb\	.	.	.	.	.	.	.	.	.	.	.	.	.
4AA/	8ccc\	.	.	.	.	.	.	.	.	.	.	.	.	.
.	8ddd\J	.	.	.	.	.	.	.	.	.	.	.	.	.
=83	=83	=83	=83	=83	=83	=83	=83	=83	=83	=83	=83	=83	=83	=83
4C 4CC/	8eee\L	.	1c	De-	.	1e	De-	.	1g	De-	.	1ee	De-	.
.	8ddd\	.	.	.	.	.	.	.	.	.	.	.	.	.
4E\	8ccc\	.	.	.	.	.	.	.	.	.	.	.	.	.
.	8bb\J	.	.	.	.	.	.	.	.	.	.	.	.	.
4G\	8aa\L	.	.	.	.	.	.	.	.	.	.	.	.	.
.	8bb\	.	.	.	.	.	.	.	.	.	.	.	.	.
4E\	8ccc\	.	.	.	.	.	.	.	.	.	.	.	.	.
.	8ddd\J	.	.	.	.	.	.	.	.	.	.	.	.	.
=84	=84	=84	=84	=84	=84	=84	=84	=84	=84	=84	=84	=84	=84	=84
4C\	4eee\	.	4C/	-i	.	4e\	-i	.	4g/	-i	.	4ee\	-i	.
!	!	!LO:DY:color=blue	!	!	!	!	!	!	!	!	!	!	!	!
4r	4r	mp	4r	.	.	4r	.	.	4r	.	.	4r	.	.
!	!	!	!	!	!	!	!	!LO:DY:a	!	!	!LO:DY:a	!	!	!
!	!	!LO:HP:color=blue	!	!	!LO:DY:b:color=blue	!	!	!LO:DY:a:color=blue	!	!	!LO:DY:a:color=blue	!	!	!LO:DY:a:color=blue
2a> 2f#X> 2d 2c\	8aa/L	<	2c\	qui	mp	2d\	qui	mp	2a/	qui	mp	2ff#X\	qui	mp
!	!	!	!	!	!LO:HP:b:color=blue	!	!	!LO:HP:a:color=blue	!	!	!	!	!	!
.	8gg/	.	.	.	<	.	.	<	.	.	.	.	.	.
!	!	!	!	!	!	!	!	!	!	!	!LO:HP:a:color=blue	!	!	!LO:HP:a:color=blue
.	8ff#X/	.	.	.	.	.	.	.	.	.	<	.	.	<
.	8aa/J	[[	.	.	.	.	.	[	.	.	.	.	.	.
=85	=85	=85	=85	=85	=85	=85	=85	=85	=85	=85	=85	=85	=85	=85
!	!	!LO:HP:color=blue	!	!	!	!	!	!LO:HP:a:color=blue	!	!	!LO:DY:a	!	!	!
2g 2d 2B\	8gg\L	>	(>2B\	tol-	[	2d\	tol-	>	1g	tol-	[	(>2gg\	tol-	[
.	8ff\	.	.	.	.	.	.	.	.	.	.	.	.	.
!	!	!	!	!	!LO:HP:b:color=blue	!	!	!	!	!	!LO:HP:a:color=blue	!	!	!LO:HP:a:color=blue
.	8ee\	.	.	.	>	.	.	.	.	.	>	.	.	>
.	8dd\J	.	.	.	.	.	.	]	.	.	.	.	.	.
2g 2c 2B-X\	8ee\L	.	2B-X\)	.	]]	[>2c\	-lis	.	.	.	.	2ee\)	.	.
.	8ff\	.	.	.	.	.	.	.	.	.	.	.	.	.
.	8gg\	.	.	.	.	.	.	.	.	.	]	.	.	]
.	8ee\J	]]	.	.	.	.	.	.	.	.	.	.	.	.
!!LO:LB:g=original
=86	=86	=86	=86	=86	=86	=86	=86	=86	=86	=86	=86	=86	=86	=86
2f 2c 2A\	8ff\L	.	2A\	-lis,	.	2c\]	.	.	2a/	-lis,	.	2ff\	-lis,	.
.	8ee\	.	.	.	.	.	.	.	.	.	.	.	.	.
.	8dd\	.	.	.	.	.	.	.	.	.	.	.	.	.
!	!	!LO:DY:color=blue	!	!	!	!	!	!	!	!	!	!	!	!
.	8cc\J	p	.	.	.	.	.	.	.	.	.	.	.	.
!	!	!	!	!	!LO:HP:a:color=blue	!	!	!LO:HP:a:color=blue	!	!	!LO:HP:a:color=blue	!	!	!
!	!	!LO:HP:color=blue	!	!	!LO:DY:a:rj:color=blue	!	!	!LO:DY:a:rj:color=blue	!	!	!LO:DY:a:rj:color=blue	!	!	!LO:DY:a:rj:color=blue
2e 2B-X 2G\	8cc#X\L	<	2G\	qui	p < [[	2c#X\	pec-	p < [[	2b-X/	qui	p < [[	2ee\	qui	p
!	!	!	!	!	!	!	!	!	!	!	!	!	!	!LO:HP:a:color=blue
.	8dd\	.	.	.	.	.	.	.	.	.	.	.	.	<
.	8ee\	.	.	.	.	.	.	.	.	.	.	.	.	.
.	8cc#\J	[[	.	.	.	.	.	.	.	.	.	.	.	.
=87	=87	=87	=87	=87	=87	=87	=87	=87	=87	=87	=87	=87	=87	=87
!	!	!LO:HP:color=blue	!	!	!LO:HP:a:color=blue	!	!	!LO:HP:a:color=blue	!LO:S:color=red	!	!LO:HP:a:color=blue	!	!	!
2d 2A 2F#X\	8dd\L	>	(>2F#X\	tol-	>	1d	-ca-	>]	(>2a/	tol-	>	(>2dd\	tol-	[
!	!	!	!	!	!	!	!	!	!	!	!	!	!	!LO:HP:a:color=blue
.	8cc\	.	.	.	.	.	.	.	.	.	.	.	.	>
.	8b\	.	.	.	.	.	.	.	.	.	.	.	.	.
.	8a\J	.	.	.	.	.	.	.	.	.	.	.	.	.
2d 2G 2Fn\	8b\L	]	2Fn\)	.	]	.	.	.	2g/)	.	]]	2b\)	.	]
.	8cc\	.	.	.	.	.	.	.	.	.	.	.	.	.
.	8dd\	.	.	.	.	.	.	.	.	.	.	.	.	.
!LO:TX:a:t=P:problem="crescen." zapisane niebieskim atramentem	!	!	!	!	!	!	!	!	!	!	!	!	!	!
.	8b\J	<	.	.	.	.	.	.	.	.	.	.	.	.
=88	=88	=88	=88	=88	=88	=88	=88	=88	=88	=88	=88	=88	=88	=88
!	!	!	!LO:TX:a:t=P:problem="crescen." zapisane niebieskim atramentem	!	!LO:HP:a	!LO:TX:a:t=P:problem="crescen." zapisane niebieskim atramentem	!	!LO:HP:a	!LO:TX:a:t=P:problem="crescen." zapisane niebieskim atramentem	!	!LO:DY:a	!LO:TX:a:t=P:problem="crescen." zapisane niebieskim atramentem	!	!LO:HP:a:color=blue
2c 2G 2E\	8cc\L	.	2E\	-lis	<	1G	-ta	<	2g/	-lis	<	2cc\	-lis	<
.	8dd\	.	.	.	.	.	.	.	.	.	.	.	.	.
.	8ee\	.	.	.	.	.	.	.	.	.	.	.	.	.
.	8dd\J	.	.	.	.	.	.	.	.	.	.	.	.	.
2B-X 2G 2E\	8cc#X\L	.	2E\	pec-	.	.	.	.	2b-X/	pec-	.	2cc#X\	pec-	.
.	8dd\	.	.	.	.	.	.	.	.	.	.	.	.	.
.	8ee\	.	.	.	.	.	.	.	.	.	.	.	.	.
.	8cc#\J	.	.	.	.	.	.	.	.	.	.	.	.	.
=89	=89	=89	=89	=89	=89	=89	=89	=89	=89	=89	=89	=89	=89	=89
*^	*	*	*	*	*	*	*	*	*	*	*	*	*	*
2A/	2F\	8dd\L	.	2F\	-ca-	.	(>2A\	mun-	.	2a/	-ca-	.	2dd\	-ca-	.
.	.	8ccc\	.	.	.	.	.	.	.	.	.	.	.	.	.
.	.	8bb\	.	.	.	.	.	.	.	.	.	.	.	.	.
.	.	8aa\J	.	.	.	.	.	.	.	.	.	.	.	.	.
4A/	4E\	8gg\L	.	(>4E\	-ta	.	[>2c\)	.	.	(<4g/	-ta	.	(>4ee\	-ta	.
.	.	8ff\	.	.	.	.	.	.	.	.	.	.	.	.	.
4d 4A/	4D\	8ee\	.	4D\)	.	.	.	.	.	4f/)	.	.	4ff\)	.	.
.	.	8dd\J	.	.	.	.	.	.	.	.	.	.	.	.	.
=90	=90	=90	=90	=90	=90	=90	=90	=90	=90	=90	=90	=90	=90	=90	=90
!	!	!	!LO:DY:color=blue	!	!	!LO:DY:a:rj:color=blue	!	!	!LO:DY:a:rj:color=blue	!	!	!LO:DY:a:color=blue	!	!	!LO:DY:a:color=blue
2c\	2G\	8ee\L	f	1G	mun-	f	(>2c\]	.	f	(<2.g#X/	mun-	f	(>2ee\	mun-	f
.	.	8ff\	.	.	.	.	.	.	.	.	.	.	.	.	.
.	.	8gg\	.	.	.	.	.	.	.	.	.	.	.	.	.
.	.	8cc\J	.	.	.	.	.	.	.	.	.	.	.	.	.
4B/	2GG\	8dd\L	.	.	.	.	2B\)	.	.	.	.	.	2dd\)	.	.
.	.	8gg\	.	.	.	.	.	.	.	.	.	.	.	.	.
4d/	.	8gg\	.	.	.	.	.	.	.	4f/)	.	.	.	.	.
.	.	8b\J	.	.	.	.	.	.	.	.	.	.	.	.	.
=91	=91	=91	=91	=91	=91	=91	=91	=91	=91	=91	=91	=91	=91	=91	=91
!	!	!	!LO:HP:color=blue	!	!	!	!	!	!	!	!	!	!	!	!
4c/	4C\	8cc\L	<	2C/	-di,	.	2c\	-di,	.	2e/	-di,	.	2cc\	-di,	.
.	.	8b\	.	.	.	.	.	.	.	.	.	.	.	.	.
8c/L	4r	8a\	.	.	.	.	.	.	.	.	.	.	.	.	.
8c/J	.	8g\J	.	.	.	.	.	.	.	.	.	.	.	.	.
4c/	2r	8f/L	.	2r	.	.	2r	.	.	2r	.	.	2r	.	.
.	.	8e/	.	.	.	.	.	.	.	.	.	.	.	.	.
4c/	.	8d/	.	.	.	.	.	.	.	.	.	.	.	.	.
.	.	8c/J	.	.	.	.	.	.	.	.	.	.	.	.	.
=92	=92	=92	=92	=92	=92	=92	=92	=92	=92	=92	=92	=92	=92	=92	=92
4c/	1rA	8cc\L	.	1r	.	.	1r	.	.	1r	.	.	1r	.	.
.	.	8b\	.	.	.	.	.	.	.	.	.	.	.	.	.
4c/	.	8a\	.	.	.	.	.	.	.	.	.	.	.	.	.
.	.	8g\J	.	.	.	.	.	.	.	.	.	.	.	.	.
4c/	.	8f/L	.	.	.	.	.	.	.	.	.	.	.	.	.
.	.	8e/	.	.	.	.	.	.	.	.	.	.	.	.	.
4c/	.	8d/	.	.	.	.	.	.	.	.	.	.	.	.	.
.	.	8c/J	[	.	.	.	.	.	.	.	.	.	.	.	.
*v	*v	*	*	*	*	*	*	*	*	*	*	*	*	*	*
!!LO:PB:g=original
=93	=93	=93	=93	=93	=93	=93	=93	=93	=93	=93	=93	=93	=93	=93
*clefG2	*	*	*	*	*	*	*	*	*	*	*	*	*	*
!	!	!	!	!	!	!	!	!	!	!	!LO:DY:a:rj:t=f.	!	!	!LO:DY:a:rj:t=f.
!	!	!LO:DY:t=ff.	!	!	!	!	!	!	!	!	!	!	!	!
(>1a 1f 1c	8ccc^>\L	ff	1r	.	.	1r	.	.	2.a^</	Mi-	f	2.ff^>\	Mi-	f
.	8bb\	.	.	.	.	.	.	.	.	.	.	.	.	.
.	8aa\	.	.	.	.	.	.	.	.	.	.	.	.	.
.	8gg\J	.	.	.	.	.	.	.	.	.	.	.	.	.
!	!	!LO:HP:color=blue	!	!	!	!	!	!	!	!	!	!	!	!
.	8ff\L	>	.	.	.	.	.	.	.	.	.	.	.	.
.	8ee\	.	.	.	.	.	.	.	.	.	.	.	.	.
.	8dd\	.	.	.	.	.	.	.	4a/	-se-	.	4ff\	-se-	.
.	8cc\J	.	.	.	.	.	.	.	.	.	.	.	.	.
=94	=94	=94	=94	=94	=94	=94	=94	=94	=94	=94	=94	=94	=94	=94
2g/	8ccc\L	.	1r	.	.	1r	.	.	2g/	-re-	.	2ee\	-re-	.
.	8bb\	.	.	.	.	.	.	.	.	.	.	.	.	.
.	8aa\	.	.	.	.	.	.	.	.	.	.	.	.	.
.	8gg\J	.	.	.	.	.	.	.	.	.	.	.	.	.
2b 2f/)	8ff\L	.	.	.	.	.	.	.	2f/	-re	.	2dd\	-re	.
.	8ee\	.	.	.	.	.	.	.	.	.	.	.	.	.
.	8dd\	]	.	.	.	.	.	.	.	.	.	.	.	.
.	8cc\J	.	.	.	.	.	.	.	.	.	.	.	.	.
*clefF4	*	*	*	*	*	*	*	*	*	*	*	*	*	*
=95	=95	=95	=95	=95	=95	=95	=95	=95	=95	=95	=95	=95	=95	=95
!	!	!LO:DY:rj:color=blue	!	!	!LO:DY:a:rj:t=f.	!	!	!	!	!	!	!	!	!
8c^>\L	(>2cc 2e/	f	2.c^>\	mi-	f	1r	.	.	(<2e/	no-	.	(>2cc\	no-	.
!	!	!LO:DY:b=2:rj:t=ff.	!	!	!	!	!	!	!	!	!	!	!	!
8B\	.	ff	.	.	.	.	.	.	.	.	.	.	.	.
8A\	.	.	.	.	.	.	.	.	.	.	.	.	.	.
!	!	!LO:HP:b=2:color=blue	!	!	!	!	!	!	!	!	!	!	!	!
8G\J	.	>	.	.	.	.	.	.	.	.	.	.	.	.
8F\L	2b 2g/	.	.	.	.	.	.	.	2g/)	.	.	2b\)	.	.
8E\	.	.	.	.	.	.	.	.	.	.	.	.	.	.
8D\	.	.	4c\	-se-	.	.	.	.	.	.	.	.	.	.
8C\J	.	.	.	.	.	.	.	.	.	.	.	.	.	.
=96	=96	=96	=96	=96	=96	=96	=96	=96	=96	=96	=96	=96	=96	=96
8c^\L	2a 2f/	.	2c\	-re-	.	1r	.	.	(<2f/	-bis,	.	(<2a/	-bis,	.
8B\	.	.	.	.	.	.	.	.	.	.	.	.	.	.
8A\	.	.	.	.	.	.	.	.	.	.	.	.	.	.
8G\J	.	.	.	.	.	.	.	.	.	.	.	.	.	.
8F\L	2g#X 2e/)	]	2c\	-re,	.	.	.	.	2e/)	.	.	2g#X/)	.	.
8E\	.	.	.	.	.	.	.	.	.	.	.	.	.	.
8D\	.	.	.	.	.	.	.	.	.	.	.	.	.	.
8C\J	.	.	.	.	.	.	.	.	.	.	.	.	.	.
=97	=97	=97	=97	=97	=97	=97	=97	=97	=97	=97	=97	=97	=97	=97
!	!	!LO:DY:rj:color=blue	!	!	!	!	!	!LO:DY:a:rj:t=f.	!	!	!	!	!	!
(>1f 1A^>	8ccc^\L	f	2.A\	mi-	.	2.f^>\	mi-	f	2f/	mi-	.	2a/	mi-	.
.	8bb\	.	.	.	.	.	.	.	.	.	.	.	.	.
.	8aa\	.	.	.	.	.	.	.	.	.	.	.	.	.
.	8gg\J	.	.	.	.	.	.	.	.	.	.	.	.	.
!	!	!LO:HP:color=blue	!	!	!	!	!	!	!	!	!	!	!	!
.	8ff\L	>	.	.	.	.	.	.	2c/	-se-	.	2cc\	-se-	.
.	8ee\	.	.	.	.	.	.	.	.	.	.	.	.	.
.	8dd\	.	4A\	-se-	.	4f\	-se-	.	.	.	.	.	.	.
.	8cc\J	.	.	.	.	.	.	.	.	.	.	.	.	.
=98	=98	=98	=98	=98	=98	=98	=98	=98	=98	=98	=98	=98	=98	=98
2e 2G\	8ccc^>\L	.	2G\	-re-	.	2e\	-re-	.	2c/	-re-	.	2cc\	-re-	.
.	8bb\	.	.	.	.	.	.	.	.	.	.	.	.	.
.	8aa\	.	.	.	.	.	.	.	.	.	.	.	.	.
.	8gg\J	.	.	.	.	.	.	.	.	.	.	.	.	.
2d 2F\)	8ff\L	]	2F\	-re,	.	2d\	-re	.	2B/	-re	.	2dd\	-re	.
.	8ee\	.	.	.	.	.	.	.	.	.	.	.	.	.
.	8dd\	.	.	.	.	.	.	.	.	.	.	.	.	.
.	8cc\J	.	.	.	.	.	.	.	.	.	.	.	.	.
!!LO:LB:g=original
=99	=99	=99	=99	=99	=99	=99	=99	=99	=99	=99	=99	=99	=99	=99
*	*	*^	*	*	*	*	*	*	*	*	*	*	*	*
!	!	!LO:DY:a:color=blue	!LO:DY:b=2:color=blue	!	!	!	!	!	!	!	!	!	!	!	!
8c^>\L	2ee 2cc/	f	ff	(>2E\	no-	.	(>2c\	no-	.	1c	no-	.	1ee	no-	.
8B\	.	.	.	.	.	.	.	.	.	.	.	.	.	.	.
8A\	.	.	.	.	.	.	.	.	.	.	.	.	.	.	.
8G\J	.	.	.	.	.	.	.	.	.	.	.	.	.	.	.
!	!	!LO:HP:b=2:color=blue	!	!	!	!	!	!	!	!	!	!	!	!	!
8F\L	2ee 2g/	>	.	2G\)	.	.	2B\)	.	.	.	.	.	.	.	.
8E\	.	.	.	.	.	.	.	.	.	.	.	.	.	.	.
!	!	!	!	!	!	!LO:HP:b:color=red	!	!	!	!	!	!	!	!	!LO:HP:color=red
8D\	.	.	.	.	.	>	.	.	.	.	.	.	.	.	>
8C\J	.	.	.	.	.	.	.	.	.	.	.	.	.	.	.
*	*	*v	*v	*	*	*	*	*	*	*	*	*	*	*	*
=100	=100	=100	=100	=100	=100	=100	=100	=100	=100	=100	=100	=100	=100	=100
!	!	!	!	!	!	!	!	!LO:HP:a:color=red	!LO:S:color=blue	!	!LO:HP:color=red	!	!	!
8c^\L	2dd 2g 2d/	.	(>2F\	-bis,	.	(<2A/	-bis,	>	(<2c/	.	>	(2dd\	-bis,	.
8B\	.	.	.	.	.	.	.	.	.	.	.	.	.	.
8A\	.	.	.	.	.	.	.	.	.	.	.	.	.	.
8G\J	.	.	.	.	.	.	.	.	.	.	.	.	.	]
8F\L	2cc 2g 2c/	.	2E\)	.	.	2G/)	.	.	2g/)@	.	.	4cc\)	.	.
8E\	.	]	.	.	.	.	.	.	.	.	.	.	.	.
8D\	.	.	.	.	]	.	.	.	.	.	.	4r	.	.
8C\J	.	.	.	.	.	.	.	]	.	.	.	.	.	.
=101	=101	=101	=101	=101	=101	=101	=101	=101	=101	=101	=101	=101	=101	=101
!	!	!LO:DY:color=blue:t=mf.	!LO:ART:color=red	!	!	!LO:ART:color=red	!	!	!	!	!	!	!	!LO:DY:a:rj:color=blue
(>1B 1F 1D	8gg\L	mf	2.D^>\	mi-	mf	1B^>	mi-	.	[1g	-bis,	.	2.gg^>\	mi-	mf
.	8aa\	.	.	.	.	.	.	.	.	.	.	.	.	.
.	8gg\	.	.	.	.	.	.	.	.	.	.	.	.	.
.	8ff#X\J	.	.	.	.	.	.	.	.	.	.	.	.	.
!	!	!	!	!	!	!	!	!	!	!	!	!	!	!LO:HP:a:color=blue
.	8gg\L	.	.	.	.	.	.	.	.	.	.	.	.	>
.	8ffn\	.	.	.	.	.	.	.	.	.	.	.	.	.
!	!	!LO:HP:color=blue	!	!	!	!	!	!	!	!	!	!	!	!
.	8ee\	>	4D\	-se-	.	.	.	.	.	.	.	4ff\	-se-	.
.	8dd\J	.	.	.	.	.	.	.	.	.	.	.	.	.
=102	=102	=102	=102	=102	=102	=102	=102	=102	=102	=102	=102	=102	=102	=102
!	!	!	!	!	!	!	!	!LO:HP:b:color=blue	!	!	!	!	!	!
2c 2G 2E\	8cc\L	.	2E\	-re-	.	(>2c\	-se-	<	4g/]	.	]	2ee\	-re-	.
.	8g\	.	.	.	.	.	.	.	.	.	.	.	.	.
.	8e\	.	.	.	.	.	.	.	4r	.	.	.	.	]
.	8f\J	.	.	.	.	.	.	.	.	.	.	.	.	.
2d 2G 2F\)	8g\L	]	4F\	-re,	.	2d\)	.	[[	2r	.	.	2dd\	-re	.
.	8a\	.	.	.	.	.	.	.	.	.	.	.	.	.
.	8b\	.	4r	.	.	.	.	.	.	.	.	.	.	.
.	8cc\J	.	.	.	.	.	.	.	.	.	.	.	.	.
=103	=103	=103	=103	=103	=103	=103	=103	=103	=103	=103	=103	=103	=103	=103
!	!	!	!	!	!LO:DY:a	!	!	!	!	!	!LO:HP:color=red	!	!	!
!LO:S:color=blue	!	!LO:HP:color=blue	!	!	!LO:DY:a:rj:color=red	!	!	!LO:HP:b:color=blue	!	!	!LO:DY:b:rj:color=red	!	!	!LO:HP:a:color=blue
(>2e 2G/	8cc#X\L	<	2.A^>\	mi-	mp	2e\	-re-	>	2.a/	mi-	mp <	(>2cc#X\	no-	<
.	8dd\	.	.	.	.	.	.	.	.	.	.	.	.	.
.	8ee\	.	.	.	.	.	.	.	.	.	.	.	.	.
!	!	!	!	!	!LO:HP:a:color=red	!	!	!	!	!	!	!	!	!
.	8ff#X\J	.	.	.	<	.	.	.	.	.	.	.	.	.
2A/)	8gg\L	.	.	.	.	4A/	-re,	]	.	.	.	2ee\	.	[[
.	8aa\	.	.	.	.	.	.	.	.	.	.	.	.	.
.	8bb\	.	4G\	-se-	.	4r	.	.	4a/	-se-	[[	.	.	.
.	8ccc#X\J	[[	.	.	[[	.	.	.	.	.	.	.	.	.
=104	=104	=104	=104	=104	=104	=104	=104	=104	=104	=104	=104	=104	=104	=104
*^	*	*	*	*	*	*	*	*	*	*	*	*	*	*
!	!	!	!	!	!	!	!	!	!	!	!	!LO:HP:color=red	!	!	!
2d/	2A 2F#X\	8ddd\L	.	2F#X\	-re-	.	1r	.	.	2a/	-re-	>	2aa\	.	.
.	.	8ccc#X\	.	.	.	.	.	.	.	.	.	.	.	.	.
.	.	8bb\	.	.	.	.	.	.	.	.	.	.	.	.	.
!	!	!	!LO:HP:color=blue	!	!	!	!	!	!	!	!	!	!	!	!LO:HP:a:color=blue
.	.	8aa\J	>	.	.	.	.	.	.	.	.	.	.	.	>
!	!	!	!	!	!	!LO:HP:a:color=red	!	!	!	!	!	!	!	!	!
2c#X/	2A 2E\	8aa\L	.	2E\	-re	>]	.	.	.	2a/	-re	]]	2gg\	.	.
.	.	8gg\	.	.	.	.	.	.	.	.	.	.	.	.	.
.	.	8ff#X\	.	.	.	.	.	.	.	.	.	.	.	.	.
.	.	8ee\J	]]	.	.	.	.	.	.	.	.	.	.	.	]
*v	*v	*	*	*	*	*	*	*	*	*	*	*	*	*	*
!!LO:PB:g=original
=105	=105	=105	=105	=105	=105	=105	=105	=105	=105	=105	=105	=105	=105	=105
2d 2A 2D\	8ff#X\L	.	(>2D\	no-	.	2.d\	mi-	.	(>2f#X/	no-	.	2.ff#X\	.	.
!	!	!LO:HP:color=blue	!	!	!	!	!	!	!	!	!	!	!	!
.	8gg\	<	.	.	.	.	.	.	.	.	.	.	.	.
!	!	!	!	!	!	!	!	!LO:HP:a:color=blue	!	!	!	!	!	!
.	8aa\	.	.	.	.	.	.	<	.	.	.	.	.	.
.	8bb\J	.	.	.	.	.	.	.	.	.	.	.	.	.
!	!	!	!	!	!LO:HP:a:color=red	!	!	!	!	!	!LO:HP:b:color=blue	!	!	!
2d 2G 2E\	8ccc\L	.	2E\	.	<[	.	.	.	2a/	.	<[	.	.	.
.	8bb\	.	.	.	.	.	.	.	.	.	.	.	.	.
.	8ccc\	.	.	.	.	4c\	-se-	[[	.	.	.	4ee\)	.	.
.	8bb\J	[[	.	.	.	.	.	.	.	.	.	.	.	.
=106	=106	=106	=106	=106	=106	=106	=106	=106	=106	=106	=106	=106	=106	=106
!	!	!	!	!	!	!	!	!	!	!	!LO:DY:b:color=red	!	!	!
2d 2G#X 2E#X\	8ccc\L	.	2E#X\	.	.	2B\	-re-	.	2dd\	.	mf	4dd\	-bis,	.
.	8bb\	.	.	.	.	.	.	.	.	.	.	.	.	.
!	!	!LO:HP:color=blue	!	!	!	!	!	!	!	!	!	!	!	!
.	8aa\	>	.	.	.	.	.	.	.	.	.	4r	.	.
.	8bb\J	.	.	.	.	.	.	.	.	.	.	.	.	.
!	!	!	!	!	!LO:HP:a:color=red	!	!	!LO:HP:a:color=blue	!	!	!LO:HP:b:color=blue	!	!	!
2d 2A 2F#X\	8ddd\L	.	2F#X\	.	>	2A\	-re	>	2cc\	.	>	2r	.	.
.	8ccc\	.	.	.	.	.	.	.	.	.	.	.	.	.
.	8bb\	.	.	.	.	.	.	.	.	.	.	.	.	.
.	8aa\J	]]	.	.	.	.	.	.	.	.	.	.	.	.
=107	=107	=107	=107	=107	=107	=107	=107	=107	=107	=107	=107	=107	=107	=107
*	*^	*	*	*	*	*	*	*	*	*	*	*	*	*
4G\	2bb/	8b\L	.	2G\	.	.	2G/	no-	]	2b\	.	.	(>2b\	no-	.
!	!	!	!	!	!	!	!	!	!	!	!	!	!	!	!LO:HP:b:color=blue
.	.	8cc\	.	.	.	.	.	.	.	.	.	]	.	.	<
!	!	!	!LO:HP:color=blue	!	!	!	!	!	!	!	!	!	!	!	!
8D\L	.	8dd\	<	.	.	.	.	.	.	.	.	.	.	.	.
8BB\J	.	8ee\J	.	.	.	]	.	.	.	.	.	.	.	.	.
8GG/L	2aa/	8ff\L	.	2A\)	.	.	4G/	-bis.	.	2a\)	.	.	2dd\	.	.
8AA/	.	8ee\	.	.	.	.	.	.	.	.	.	.	.	.	.
8BB/	.	8ff\	.	.	.	.	4r	.	.	.	.	.	.	.	.
8C/J	.	8ee\J	.	.	.	.	.	.	.	.	.	.	.	.	[
*	*v	*v	*	*	*	*	*	*	*	*	*	*	*	*	*
=108	=108	=108	=108	=108	=108	=108	=108	=108	=108	=108	=108	=108	=108	=108
8D\L	8dd\L	.	2B\	.	.	1r	.	.	2g/	-bis.	.	2gg\	.	.
8E\	8ee\	.	.	.	.	.	.	.	.	.	.	.	.	.
8F\	8ff\	.	.	.	.	.	.	.	.	.	.	.	.	.
!	!	!	!	!	!	!	!	!	!	!	!	!	!	!LO:HP:b:color=blue
8G\J	8gg\J	.	.	.	.	.	.	.	.	.	.	.	.	>
8A\L	8aa\L	.	4G\	-bis.	.	.	.	.	2r	.	.	2ffn\)	.	.
8B\	8bb\	.	.	.	.	.	.	.	.	.	.	.	.	.
8c\	8ccc\	.	4r	.	.	.	.	.	.	.	.	.	.	.
8d\J	8ddd\J	[[	.	.	.	.	.	.	.	.	.	.	.	.
=109	=109	=109	=109	=109	=109	=109	=109	=109	=109	=109	=109	=109	=109	=109
*^	*^	*	*	*	*	*	*	*	*	*	*	*	*	*
!	!LO:TX:a:t=....	!	!	!LO:DY:color=blue	!	!	!LO:DY:a:rj:t=fp.	!	!	!	!	!	!	!	!	!
4E/	8CL 8CC'>\	4eee/	8e/L 8c'^/	sfp	(>2.c\	a-	fp	1r	.	.	1r	.	.	2ee\	-bis.	]
.	8C 8CC'\	.	8e/ 8c'/	.	.	.	.	.	.	.	.	.	.	.	.	.
4E/	8C 8CC'\	4r	8e/ 8c'/	.	.	.	.	.	.	.	.	.	.	.	.	.
.	8CJ 8CC'\	.	8e/J 8c'/	.	.	.	.	.	.	.	.	.	.	.	.	.
!	!LO:TX:a:t=....	!	!	!	!	!	!	!	!	!	!	!	!	!	!	!
4G/	8CL 8CC'>\	2r	8eL 8c'/	.	.	.	.	.	.	.	.	.	.	2r	.	.
.	8C 8CC'\	.	8e 8c'/	.	.	.	.	.	.	.	.	.	.	.	.	.
4GG/	8C 8CC'\	.	8e 8B'/	.	4B\)	.	.	.	.	.	.	.	.	.	.	.
.	8CJ 8CC'\	.	8eJ 8B'/	.	.	.	.	.	.	.	.	.	.	.	.	.
*	*	*v	*v	*	*	*	*	*	*	*	*	*	*	*	*	*
=110	=110	=110	=110	=110	=110	=110	=110	=110	=110	=110	=110	=110	=110	=110	=110
*	*	*tremolo	*	*	*	*	*	*	*	*	*	*	*	*	*
!	!LO:TX:a:t=....	!LO:TX:b:t=....	!	!	!	!	!	!	!	!	!	!	!	!	!
4E/	8CL 8CC'>\	8eL 8B'/	.	1B	-gnus	.	1r	.	.	1r	.	.	1r	.	.
.	8C 8CC'\	8e 8B'/	.	.	.	.	.	.	.	.	.	.	.	.	.
4E/	8C 8CC'\	8e 8B'/	.	.	.	.	.	.	.	.	.	.	.	.	.
.	8CJ 8CC'\	8eJ 8B'/	.	.	.	.	.	.	.	.	.	.	.	.	.
!	!LO:TX:a:t=....	!LO:TX:b:t=....	!	!	!	!	!	!	!	!	!	!	!	!	!
4G/	8CL 8CC'>\	8eL 8B'/	.	.	.	.	.	.	.	.	.	.	.	.	.
.	8C 8CC'\	8e 8B'/	.	.	.	.	.	.	.	.	.	.	.	.	.
4GG/	8C 8CC'\	8e 8B'/	.	.	.	.	.	.	.	.	.	.	.	.	.
.	8CJ 8CC'\	8eJ 8B'/	.	.	.	.	.	.	.	.	.	.	.	.	.
!!LO:LB:g=original
=111	=111	=111	=111	=111	=111	=111	=111	=111	=111	=111	=111	=111	=111	=111	=111
!	!LO:TX:a:t=....	!LO:TX:b:t=....	!	!	!	!	!	!	!	!	!	!	!	!	!
4E/	8CL 8CC'>\	8eL 8B'/	.	(>2.B-X\	De-	.	1r	.	.	1r	.	.	1r	.	.
.	8C 8CC'\	8e 8B'/	.	.	.	.	.	.	.	.	.	.	.	.	.
4E/	8C 8CC'\	8e 8B'/	.	.	.	.	.	.	.	.	.	.	.	.	.
.	8CJ 8CC'\	8e 8B'/	.	.	.	.	.	.	.	.	.	.	.	.	.
!	!LO:TX:a:t=....	!	!	!	!	!	!	!	!	!	!	!	!	!	!
4G/	8CL 8CC'>\	8e 8B'/	.	.	.	.	.	.	.	.	.	.	.	.	.
.	8C 8CC'\	8eJ 8B'/	.	.	.	.	.	.	.	.	.	.	.	.	.
*	*	*Xtremolo	*	*	*	*	*	*	*	*	*	*	*	*	*
!LO:TX:b:i:t=x. Dla ułatwienia można cwierciowe nuty sredniego głosu spuszczać.:color=blue	!	!	!	!LO:TX:a:t=P:problem="dimi" zapisane niebieskim atramentem	!	!LO:HP:a	!	!	!	!	!	!	!	!	!
4GG/	8C 8CC'\	8eL 8A/	.	4A\)	.	>	.	.	.	.	.	.	.	.	.
!	!	!LO:TX:a:t=P:problem="dimi" zapisane niebieskim atramentem	!LO:HP:a	!	!	!	!	!	!	!	!	!	!	!	!
.	8CJ 8CC'\	8eJ 8A/	>	.	.	.	.	.	.	.	.	.	.	.	.
=112	=112	=112	=112	=112	=112	=112	=112	=112	=112	=112	=112	=112	=112	=112	=112
*	*	*tremolo	*	*	*	*	*	*	*	*	*	*	*	*	*
!	!LO:TX:a:t=....	!LO:TX:b:t=....	!	!	!	!	!	!	!	!	!	!	!	!	!
4E/	8CL 8CC'>\	8eL 8A'/	.	1A	-i,	.	1r	.	.	1r	.	.	1r	.	.
.	8C 8CC'\	8e 8A'/	.	.	.	.	.	.	.	.	.	.	.	.	.
4E/	8C 8CC'\	8e 8A'/	.	.	.	.	.	.	.	.	.	.	.	.	.
.	8CJ 8CC'\	8eJ 8A'/	.	.	.	.	.	.	.	.	.	.	.	.	.
!	!LO:TX:a:t=....	!LO:TX:b:t=....	!	!	!	!	!	!	!	!	!	!	!	!	!
4G/	8CL 8CC'>\	8eL 8A'/	.	.	.	.	.	.	.	.	.	.	.	.	.
.	8C 8CC'\	8e 8A'/	.	.	.	.	.	.	.	.	.	.	.	.	.
4GG/	8C 8CC'\	8e 8A'/	.	.	.	.	.	.	.	.	.	.	.	.	.
.	8CJ 8CC'\	8eJ 8A'/	.	.	.	.	.	.	.	.	.	.	.	.	.
*	*	*Xtremolo	*	*	*	*	*	*	*	*	*	*	*	*	*
=113	=113	=113	=113	=113	=113	=113	=113	=113	=113	=113	=113	=113	=113	=113	=113
!	!LO:TX:a:t=....	!	!LO:DY:a:rj:color=blue	!	!	!LO:DY:a:rj:color=blue	!	!	!	!	!	!	!	!	!LO:DY:a:t=pp.
4D-X/	8DD-X'>\L	8fL 8A-X'/	pp	(>2.A-X\	qui	pp	1r	.	.	1r	.	.	(<2.f/	a-	pp
.	8DD-'\	8f 8A-'/	.	.	.	.	.	.	.	.	.	.	.	.	.
4AA-X/	8DD-'\	8f 8A-'/	.	.	.	.	.	.	.	.	.	.	.	.	.
.	8DD-'\J	8fJ 8A-'/	.	.	.	.	.	.	.	.	.	.	.	.	.
4FF/	8DD-\L	8fL 8A-'/	.	.	.	.	.	.	.	.	.	.	.	.	.
.	8DD-\	8f 8A-'/	.	.	.	.	.	.	.	.	.	.	.	.	.
!	!	!LO:TX:a:i:t=un poco:color=blue	!	!	!	!	!	!	!	!	!	!	!	!	!
4BB-X/	8DD-\	8e 8G'/	.	4G\)	.	.	.	.	.	.	.	.	4e/)	.	.
.	8DD-\J	8eJ 8G'/	.	.	.	.	.	.	.	.	.	.	.	.	.
=114	=114	=114	=114	=114	=114	=114	=114	=114	=114	=114	=114	=114	=114	=114	=114
!	!	!	!	!LO:TX:a:i:t=un poco:color=blue	!	!	!	!	!	!	!	!	!	!	!LO:HP:a:color=blue
4AA-X/	8DD-X'>\L	8fL 8A-X'/	.	2.A-X\	tol-	.	1r	.	.	1r	.	.	1f	-gnus	<[
.	8DD-'\	8f 8A-'/	.	.	.	.	.	.	.	.	.	.	.	.	.
4FF/	8DD-'\	8f 8A-'/	.	.	.	.	.	.	.	.	.	.	.	.	.
.	8DD-'\J	8fJ 8A-'/	.	.	.	.	.	.	.	.	.	.	.	.	.
4DD-X/	8DD-\L	8fL 8A-'/	.	.	.	.	.	.	.	.	.	.	.	.	.
.	8DD-\	8f 8A-'/	.	.	.	.	.	.	.	.	.	.	.	.	.
4D-X/	8DD-\	8f 8An'/	.	4An\	-lis	.	.	.	.	.	.	.	.	.	.
.	8DD-\J	8fJ 8A'/	.	.	.	.	.	.	.	.	.	.	.	.	.
=115	=115	=115	=115	=115	=115	=115	=115	=115	=115	=115	=115	=115	=115	=115	=115
!	!LO:TX:a:t=....	!LO:TX:a:t=P:problem="crescendo" zapisane niebieskim atramentem	!LO:HP:a:t=crescendo	!LO:TX:a:t=P:problem="crescendo" zapisane niebieskim atramentem	!	!LO:HP:a:t=crescendo	!	!	!	!	!	!	!	!	!
4BB-X/	8DD-X'>\L	8fL 8B-X'/	<	(>2.B-X\	pec-	<	1r	.	.	1r	.	.	(<2.f/	De-	.
.	8DD-'\	8f 8B-'/	.	.	.	.	.	.	.	.	.	.	.	.	.
4FF/	8DD-'\	8f 8B-'/	.	.	.	.	.	.	.	.	.	.	.	.	.
!	!	!	!	!	!	!	!	!	!	!	!	!	!	!	!LO:HP:a:color=blue
.	8DD-'\J	8fJ 8B-'/	.	.	.	.	.	.	.	.	.	.	.	.	>
4DD-X/	8DD-\L	8fL 8B-'/	.	.	.	.	.	.	.	.	.	.	.	.	.
.	8DD-\	8f 8B-'/	.	.	.	.	.	.	.	.	.	.	.	.	.
4C/	8DD-\	8g-X 8A'/	.	4A\)	.	.	.	.	.	.	.	.	4g-X/)	.	.
.	8DD-\J	8g-J 8A'/	.	.	.	.	.	.	.	.	.	.	.	.	.
=116	=116	=116	=116	=116	=116	=116	=116	=116	=116	=116	=116	=116	=116	=116	=116
4D-X/	8DD-X\L	8fL 8B-X'/	.	(>4B-X\	-ca-	.	1r	.	.	1r	.	.	2f/	-i,	]
.	8DD-\	8f 8B-'/	.	.	.	.	.	.	.	.	.	.	.	.	.
4AA-X/	8DD-\	8f 8Bn'/	.	4Bn\)	.	.	.	.	.	.	.	.	.	.	.
.	8DD-\J	8fJ 8B'/	.	.	.	.	.	.	.	.	.	.	.	.	.
!	!	!	!	!	!	!	!	!	!	!	!	!	!LO:N:vis=1	!	!
4AAn/	8DD-\L	8fL 8c'/	.	(>4c\	-ta	.	.	.	.	.	.	.	2rb	.	.
.	8DD-\	8f 8c'/	.	.	.	.	.	.	.	.	.	.	.	.	.
!	!	!	!	!	!	!LO:HP:a:color=red	!	!	!	!	!	!	!	!	!
4BB-X/	8DD-\	8f 8c#X'/	.	4c#X\)	.	>	.	.	.	.	.	.	.	.	.
.	8DD-\J	8fJ 8c#'/	.	.	.	.	.	.	.	.	.	.	.	.	.
!!LO:PB:g=original
=117	=117	=117	=117	=117	=117	=117	=117	=117	=117	=117	=117	=117	=117	=117	=117
*	*Xtremolo	*	*	*	*	*	*	*	*	*	*	*	*	*	*
!	!	!	!LO:DY:color=blue	!	!	!	!	!	!LO:DY:a:rj:t=p.	!	!	!	!	!	!
4AA/	8DDn\L	8f#XL 8d/	p	4d\	mun-	.	(>2.d\	a-	p	1r	.	.	1r	.	.
.	8DD\	8f# 8d/	.	.	.	]	.	.	.	.	.	.	.	.	.
4D/	8DD\	8f# 8d/	.	4D/	-di.	.	.	.	.	.	.	.	.	.	.
.	8DD\J	8f#J 8d/	.	.	.	.	.	.	.	.	.	.	.	.	.
*	*tremolo	*	*	*	*	*	*	*	*	*	*	*	*	*	*
!	!LO:TX:a:t=....	!	!	!	!	!	!	!	!	!	!	!	!	!	!
4F#X/	8DD'>\L	8f#L 8d/	.	2r	.	.	.	.	.	.	.	.	.	.	.
.	8DD'\	8f# 8d/	.	.	.	.	.	.	.	.	.	.	.	.	.
!	!	!	!LO:HP:color=blue	!	!	!	!	!	!	!	!	!	!	!	!
4AA/	8DD'\	8f# 8c#X/	<	.	.	.	4c#X\)	.	.	.	.	.	.	.	.
.	8DD'\J	8f#J 8c#/	.	.	.	.	.	.	.	.	.	.	.	.	.
=118	=118	=118	=118	=118	=118	=118	=118	=118	=118	=118	=118	=118	=118	=118	=118
*	*	*tremolo	*	*	*	*	*	*	*	*	*	*	*	*	*
!	!LO:TX:a:t=....	!LO:TX:b:t=....	!	!	!	!	!	!	!LO:HP:a:color=red	!	!	!	!	!	!
4D/	8DD'>\L	8f#XL 8c#X'/	.	1r	.	.	1c#X	-gnus	<[	1r	.	.	1r	.	.
.	8DD'\	8f# 8c#'/	.	.	.	.	.	.	.	.	.	.	.	.	.
4F#X/	8DD'\	8f# 8c#'/	.	.	.	.	.	.	.	.	.	.	.	.	.
.	8DD'\J	8f#J 8c#'/	.	.	.	.	.	.	.	.	.	.	.	.	.
!	!LO:TX:a:t=....	!LO:TX:b:t=....	!	!	!	!	!	!	!	!	!	!	!	!	!
4A/	8DD'>\L	8f#L 8c#'/	.	.	.	.	.	.	.	.	.	.	.	.	.
.	8DD'\	8f# 8c#'/	.	.	.	.	.	.	.	.	.	.	.	.	.
4AA/	8DD'\	8f# 8c#'/	.	.	.	.	.	.	.	.	.	.	.	.	.
.	8DD'\J	8f#J 8c#'/	[[	.	.	.	.	.	.	.	.	.	.	.	.
=119	=119	=119	=119	=119	=119	=119	=119	=119	=119	=119	=119	=119	=119	=119	=119
!	!LO:TX:a:t=....	!LO:TX:b:t=....	!	!	!	!	!	!	!LO:HP:a:color=red	!	!	!	!	!	!
4D/	8DD'>\L	8f#XL 8cn'/	.	1r	.	.	(>2.cn\	De-	>	1r	.	.	1r	.	.
.	8DD'\	8f# 8c'/	.	.	.	.	.	.	.	.	.	.	.	.	.
4F#X/	8DD'\	8f# 8c'/	.	.	.	.	.	.	.	.	.	.	.	.	.
!	!	!	!LO:HP:color=blue	!	!	!	!	!	!	!	!	!	!	!	!
.	8DD'\J	8f#J 8c'/	>	.	.	.	.	.	.	.	.	.	.	.	.
*	*	*Xtremolo	*	*	*	*	*	*	*	*	*	*	*	*	*
!	!LO:TX:a:t=....	!	!	!	!	!	!LO:TX:a:t=⟨.......⟩:color=blue	!	!	!	!	!	!	!	!
4A/	8DD'>\L	8f#L 8c/	.	.	.	.	.	.	.	.	.	.	.	.	.
.	8DD'\	8f# 8c/	.	.	.	.	.	.	]	.	.	.	.	.	.
4AA/	8DD'\	8f# 8Bn/	.	.	.	.	4B\)	.	.	.	.	.	.	.	.
.	8DD'\J	8f#J 8B/	.	.	.	.	.	.	.	.	.	.	.	.	.
*	*Xtremolo	*	*	*	*	*	*	*	*	*	*	*	*	*	*
=120	=120	=120	=120	=120	=120	=120	=120	=120	=120	=120	=120	=120	=120	=120	=120
*	*tremolo	*tremolo	*	*	*	*	*	*	*	*	*	*	*	*	*
!	!LO:TX:a:t=....	!LO:TX:b:t=....	!	!	!	!	!	!	!	!	!	!	!	!	!
4D/	8DD'>\L	8f#XL 8Bn'/	.	1r	.	.	1B	-i,	.	1r	.	.	1r	.	.
.	8DD'\	8f# 8B'/	.	.	.	.	.	.	.	.	.	.	.	.	.
4F#X/	8DD'\	8f# 8B'/	]	.	.	.	.	.	.	.	.	.	.	.	.
.	8DD'\J	8f#J 8B'/	.	.	.	.	.	.	.	.	.	.	.	.	.
*	*	*	*	*	*	*	*	*	*	*	*	*	*	*	*
!	!LO:TX:a:t=....	!LO:TX:b:t=....	!	!	!	!	!	!	!	!	!	!	!	!	!
4A/	8DD'>\L	8f#L 8B'/	.	.	.	.	.	.	.	.	.	.	.	.	.
.	8DD'\	8f# 8B'/	.	.	.	.	.	.	.	.	.	.	.	.	.
4AA/	8DD'\	8f# 8B'/	.	.	.	.	.	.	.	.	.	.	.	.	.
!LO:TX:b:t=2:color=grey	!	!	!	!	!	!	!	!	!	!	!	!	!	!	!
.	8DD'\J	8f#J 8B'/	.	.	.	.	.	.	.	.	.	.	.	.	.
=121	=121	=121	=121	=121	=121	=121	=121	=121	=121	=121	=121	=121	=121	=121	=121
*	*Xtremolo	*	*	*	*	*	*	*	*	*	*	*	*	*	*
!	!	!LO:TX:b:t=....	!LO:DY:color=blue	!	!	!	!	!	!LO:DY:a:rj:color=blue	!	!	!	!	!	!LO:DY:a:rj:color=blue
4E-X/	8EE-X\L	8gL 8B-X'/	pp	1r	.	.	(>2.B-X\	qui	pp	1r	.	.	(<2.g/	a-	p
.	8EE-\	8g 8B-'/	.	.	.	.	.	.	.	.	.	.	.	.	.
4BB-X/	8EE-\	8g 8B-'/	.	.	.	.	.	.	.	.	.	.	.	.	.
.	8EE-\J	8g 8B-'/	.	.	.	.	.	.	.	.	.	.	.	.	.
*	*tremolo	*	*	*	*	*	*	*	*	*	*	*	*	*	*
4GG/	8EE-\L	8g 8B-'/	.	.	.	.	.	.	.	.	.	.	.	.	.
.	8EE-\	8gJ 8B-'/	.	.	.	.	.	.	.	.	.	.	.	.	.
*	*	*Xtremolo	*	*	*	*	*	*	*	*	*	*	*	*	*
4C/	8EE-\	8f#XL 8A/	.	.	.	.	4A\)	.	.	.	.	.	4f#X/)	.	.
.	8EE-\J	8f#J 8A/	.	.	.	.	.	.	.	.	.	.	.	.	.
=122	=122	=122	=122	=122	=122	=122	=122	=122	=122	=122	=122	=122	=122	=122	=122
*	*	*tremolo	*	*	*	*	*	*	*	*	*	*	*	*	*
!LO:TX:a:i:t=poco:color=blue	!	!	!	!	!	!	!LO:TX:a:i:t=poco:color=blue	!	!	!	!	!	!	!	!LO:HP:a:color=blue
4BB-X/	8EE-X\L	8gL 8B-X'/	.	1r	.	.	2.B-X\	tol-	.	1r	.	.	1g	-gnus	<[
.	8EE-\	8g 8B-'/	.	.	.	.	.	.	.	.	.	.	.	.	.
4E-X/	8EE-\	8g 8B-'/	.	.	.	.	.	.	.	.	.	.	.	.	.
.	8EE-\J	8g 8B-'/	.	.	.	.	.	.	.	.	.	.	.	.	.
4G/	8EE-\L	8g 8B-'/	.	.	.	.	.	.	.	.	.	.	.	.	.
.	8EE-\	8gJ 8B-'/	.	.	.	.	.	.	.	.	.	.	.	.	.
*	*	*Xtremolo	*	*	*	*	*	*	*	*	*	*	*	*	*
4E-/	8EE-\	8gL 8Bn/	.	.	.	.	4Bn\	-lis	.	.	.	.	.	.	.
.	8EE-\J	8gJ 8B/	.	.	.	.	.	.	.	.	.	.	.	.	.
!!LO:LB:g=original
=123	=123	=123	=123	=123	=123	=123	=123	=123	=123	=123	=123	=123	=123	=123	=123
*	*	*tremolo	*	*	*	*	*	*	*	*	*	*	*	*	*
!	!LO:TX:a:t=....	!	!	!	!	!	!LO:TX:a:i:t=a:color=blue	!	!	!	!	!	!	!	!LO:HP:a:color=blue
4C/	8EE-X'>\L	8gL 8c'/	.	1r	.	.	(>2.c\	pec-	.	1r	.	.	(<2.g/	De-	>
.	8EE-'\	8g 8c'/	.	.	.	.	.	.	.	.	.	.	.	.	.
!	!	!LO:TX:b:i:t=a:color=blue	!	!	!	!	!	!	!	!	!	!	!	!	!
4GG/	8EE-'\	8g 8c'/	.	.	.	.	.	.	.	.	.	.	.	.	.
.	8EE-'\J	8g 8c'/	.	.	.	.	.	.	.	.	.	.	.	.	.
!	!LO:TX:a:t=....	!	!	!	!	!	!	!	!	!	!	!	!	!	!
4C/	8EE-'>\L	8g 8c'/	.	.	.	.	.	.	.	.	.	.	.	.	.
.	8EE-'\	8gJ 8c'/	.	.	.	.	.	.	.	.	.	.	.	.	.
*	*	*Xtremolo	*	*	*	*	*	*	*	*	*	*	*	*	*
!	!	!LO:TX:a:t=P:problem=kasownik zapisany czerwonym atramentem	!	!	!	!	!	!	!	!	!	!	!	!	!
4D/	8EE-'\	8a-XL 8Bn/	.	.	.	.	4B\)	.	.	.	.	.	4a-X/)	.	]]
.	8EE-'\J	8a-J 8B/	.	.	.	.	.	.	.	.	.	.	.	.	.
=124	=124	=124	=124	=124	=124	=124	=124	=124	=124	=124	=124	=124	=124	=124	=124
!	!LO:TX:a:t=....	!	!	!	!	!	!LO:TX:a:i:t=poco:color=blue	!	!	!	!	!	!LO:TX:t=P:problem=niezidentyfikowane oznaczenie	!	!
4E-X/	8EE-X'>\L	8gL 8c'/	.	1r	.	.	(>4c\	-ca-	.	1r	.	.	4g/	-i,	.
.	8EE-'\	8g 8c'/	.	.	.	.	.	.	.	.	.	.	.	.	.
!	!	!	!	!	!	!	!	!	!	!	!	!	!LO:TX:a:t=⟨... . ...⟩:color=red	!	!
4En/	8EE-'\	8g 8c#X'/	.	.	.	.	4c#X\)	.	.	.	.	.	4r	.	.
.	8EE-'\J	8gJ 8c#'/	.	.	.	.	.	.	.	.	.	.	.	.	.
!	!LO:TX:a:t=....	!LO:TX:b:i:t=poco:color=blue	!	!	!	!	!	!	!	!	!	!	!	!	!
4F/	8EE-'>\L	8gL 8d'/	.	.	.	.	(>4d\	-ta	.	.	.	.	2g/	qui	.
.	8EE-'\	8g 8d'/	.	.	.	.	.	.	.	.	.	.	.	.	.
4F#X/	8EE-'\	8g 8d#X'/	.	.	.	.	4d#X\)	.	.	.	.	.	.	.	.
.	8EE-'\J	8gJ 8d#'/	.	.	.	.	.	.	.	.	.	.	.	.	.
=125	=125	=125	=125	=125	=125	=125	=125	=125	=125	=125	=125	=125	=125	=125	=125
*Xtremolo	*	*tremolo	*	*	*	*	*	*	*	*	*	*	*	*	*
!	!	!LO:TX:b:t=....	!	!	!	!	!	!	!	!	!	!	!	!	!
8G\L	(<1EEn	8gL 8e 8c# 8A'/	.	1r	.	.	[>1e	mun-	.	1r	.	.	(>2g/	tol-	.
8G\	.	8g 8e 8c# 8A'/	.	.	.	.	.	.	.	.	.	.	.	.	.
8G\	.	8g 8e 8c# 8A'/	.	.	.	.	.	.	.	.	.	.	.	.	.
8G\J	.	8gJ 8e 8c# 8A'/	.	.	.	.	.	.	.	.	.	.	.	.	.
!	!	!LO:TX:b:t=....	!	!	!	!	!	!	!	!	!	!	!	!	!
8G\L	.	8gL 8e 8c# 8A'/	.	.	.	.	.	.	.	.	.	.	[>2ee\)	.	.
8G\	.	8g 8e 8c# 8A'/	.	.	.	.	.	.	.	.	.	.	.	.	.
8G\	.	8g 8e 8c# 8A'/	.	.	.	.	.	.	.	.	.	.	.	.	.
8G\J	.	8gJ 8e 8c# 8A'/	.	.	.	.	.	.	.	.	.	.	.	.	.
=126	=126	=126	=126	=126	=126	=126	=126	=126	=126	=126	=126	=126	=126	=126	=126
*	*	*	*	*	*	*	*2\left	*	*	*	*	*	*	*	*
!	!	!LO:TX:b:t=....	!	!	!	!	!	!	!	!	!	!	!LO:TX:a:t=⟨.. . ....⟩:color=red	!	!LO:DY:a
8G\L	1GGG)	8gL 8e 8c#X 8B-X'/	.	1r	.	.	2e\]	.	.	1r	.	.	2ee\]	.	.
8G\	.	8g 8e 8c# 8B-'/	.	.	.	.	.	.	.	.	.	.	.	.	.
8G\	.	8g 8e 8c# 8B-'/	.	.	.	.	.	.	.	.	.	.	.	.	.
8G\J	.	8gJ 8e 8c# 8B-'/	.	.	.	.	.	.	.	.	.	.	.	.	.
*	*	*	*	*	*	*	*2\right	*	*	*	*	*	*	*	*
!	!	!LO:TX:b:t=....	!	!	!	!	!LO:TX:a:i:t=crescen_do:color=blue:problem=dynamics with line extensions	!	!LO:HP:a:i:t=crescen_do:ext=ud	!	!	!	!	!	!
8G\L	.	8gL 8e 8c# 8B-'/	.	.	.	.	[<2G/	-di,	<	.	.	.	2g/	-lis	.
8G\	.	8g 8e 8c# 8B-'/	.	.	.	.	.	.	.	.	.	.	.	.	.
8G\	.	8g 8e 8c# 8B-'/	.	.	.	.	.	.	.	.	.	.	.	.	.
8G\J	.	8gJ 8e 8c# 8B-'/	.	.	.	.	.	.	.	.	.	.	.	.	.
=127	=127	=127	=127	=127	=127	=127	=127	=127	=127	=127	=127	=127	=127	=127	=127
!	!	!LO:TX:b:t=....	!	!	!	!	!	!	!	!	!	!	!	!	!
8G\L	(<1DD	8gL 8f 8d 8B-X'/	.	1r	.	.	2G/]	.	.	1r	.	.	2f/	pec-	.
!	!LO:TX:i:t=crescen_do:color=blue:problem=dynamics with line extensions	!	!LO:HP:i:t=crescen_do:ext=ud	!	!	!	!	!	!	!	!	!	!	!	!
8G\	.	8g 8f 8d 8B-'/	<	.	.	.	.	.	.	.	.	.	.	.	.
8G\	.	8g 8f 8d 8B-'/	.	.	.	.	.	.	.	.	.	.	.	.	.
8G\J	.	8gJ 8f 8d 8B-'/	.	.	.	.	.	.	.	.	.	.	.	.	.
!	!	!LO:TX:b:t=....	!	!	!	!	!	!	!	!	!	!	!	!	!
8G\L	.	8gL 8f 8d 8B-'/	.	.	.	.	[>2d\	a-	.	.	.	.	[>2dd\	-ca-	.
8G\	.	8g 8f 8d 8B-'/	.	.	.	.	.	.	.	.	.	.	.	.	.
8G\	.	8g 8f 8d 8B-'/	.	.	.	.	.	.	.	.	.	.	.	.	.
8G\J	.	8gJ 8f 8d 8B-'/	.	.	.	.	.	.	.	.	.	.	.	.	.
=128	=128	=128	=128	=128	=128	=128	=128	=128	=128	=128	=128	=128	=128	=128	=128
!	!	!LO:TX:b:t=....	!	!	!	!	!	!	!	!	!	!	!	!	!
8G\L	1GGG)	8gL 8f 8d 8Bn'/	.	1r	.	.	2d\]	.	.	1r	.	.	2dd\]	.	.
8G\	.	8g 8f 8d 8B'/	.	.	.	.	.	.	.	.	.	.	.	.	.
8G\	.	8g 8f 8d 8B'/	.	.	.	.	.	.	.	.	.	.	.	.	.
8G\J	.	8gJ 8f 8d 8B'/	.	.	.	.	.	.	.	.	.	.	.	.	.
!	!	!LO:TX:b:t=....	!	!	!	!	!	!	!	!	!	!	!	!	!
8G\L	.	8gL 8f 8d 8B'/	.	.	.	.	2G/	-gnus,	.	.	.	.	2f/	-ta	.
8G\	.	8g 8f 8d 8B'/	.	.	.	.	.	.	.	.	.	.	.	.	.
8G\	.	8g 8f 8d 8B'/	.	.	.	.	.	.	.	.	.	.	.	.	.
8G\J	.	8gJ 8f 8d 8B'/	.	.	.	.	.	.	.	.	.	.	.	.	.
*v	*v	*	*	*	*	*	*	*	*	*	*	*	*	*	*
!!LO:PB:g=original
=129	=129	=129	=129	=129	=129	=129	=129	=129	=129	=129	=129	=129	=129	=129
!	!	!	!	!	!LO:DY:a:rj:color=red	!	!	!	!	!	!LO:DY:a:color=red	!LO:TX:a:t=×:color=grey:rj	!	!
8c\L	2ee 2e/	.	(>2c\	a-	p	(2e\	a-	.	(<2c/	a-	p	(<2e/	mun-	.
8e\	.	.	.	.	.	.	.	.	.	.	.	.	.	.
8d\	.	.	.	.	.	.	.	.	.	.	.	.	.	.
8c\J	.	.	.	.	.	.	.	.	.	.	.	.	.	.
!	!	!	!LO:TX:a:t=P:problem="crescendo" zapisane czerwonym atramentem	!	!LO:HP:a:t=crescendo	!	!	!	!LO:TX:a:i:t=cre_scen_:color=red:problem=dynamics with line extensions	!	!LO:HP:a:i:t=cre_scen_:ext=ud	!	!	!
8B\L	2gg 2g/	.	2B\)	.	<	2d\)	.	.	2d/)	.	<	2g/)	.	.
8d\	.	.	.	.	.	.	.	.	.	.	.	.	.	.
8c\	.	.	.	.	.	.	.	.	.	.	.	.	.	.
8B\J	.	.	.	.	.	.	.	.	.	.	.	.	.	.
=130	=130	=130	=130	=130	=130	=130	=130	=130	=130	=130	=130	=130	=130	=130
8A\L	2ff 2f/	.	(>2A\	-gnus	.	(>2c\	-gnus	.	(<2f/	-gnus	.	(>2cc\	-di,	.
8c\	.	.	.	.	.	.	.	.	.	.	.	.	.	.
8B\	.	.	.	.	.	.	.	.	.	.	.	.	.	.
8A\J	.	.	.	.	.	.	.	.	.	.	.	.	.	.
8G\L	2ee 2e/	.	2G\)	.	.	2B\)	.	.	2e/)	.	.	2ee\)	.	.
8B\	.	.	.	.	.	.	.	.	.	.	.	.	.	.
8A\	.	.	.	.	.	.	.	.	.	.	.	.	.	.
8G\J	.	.	.	.	.	.	.	.	.	.	[	.	.	.
=131	=131	=131	=131	=131	=131	=131	=131	=131	=131	=131	=131	=131	=131	=131
8F\L	2dd 2d/	.	(>2F\	De-	.	(<2A/	De-	.	2f/	De-	.	(>2dd\	mi-	.
8A\	.	.	.	.	.	.	.	.	.	.	.	.	.	.
8G\	.	.	.	.	.	.	.	.	.	.	.	.	.	.
8F\J	.	.	.	.	.	.	.	.	.	.	.	.	.	.
8E\L	2cc 2c/	[[	2E\)	.	.	2G/)	.	[[	2g/	-i	.	2cc\)	.	.
8G\	.	.	.	.	.	.	.	.	.	.	.	.	.	.
8F\	.	.	.	.	.	.	.	.	.	.	.	.	.	.
8E\J	.	.	.	.	.	.	.	.	.	.	.	.	.	.
=132	=132	=132	=132	=132	=132	=132	=132	=132	=132	=132	=132	=132	=132	=132
8D\L	2b 2B/	.	(>2D\	-i,	.	(>2G/	-i,	.	2f/	mi-	.	(>2b\	-se-	.
8F\	.	.	.	.	.	.	.	.	.	.	.	.	.	.
8E\	.	.	.	.	.	.	.	.	.	.	.	.	.	.
8D\J	.	.	.	.	.	.	.	.	.	.	.	.	.	.
8C\L	2a 2A/	.	2C\)	.	.	2c\)	.	.	2f/	-se-	.	2a\)	.	.
8F\	.	.	.	.	.	.	.	.	.	.	.	.	.	.
8D\	.	.	.	.	.	.	.	.	.	.	.	.	.	.
8C\J	.	.	.	.	.	.	.	.	.	.	.	.	.	.
=133	=133	=133	=133	=133	=133	=133	=133	=133	=133	=133	=133	=133	=133	=133
2.D 2.BB\	4g 4G/	.	2.BB/	mi-	.	2.d\	mi-	.	2.d/	-re-	.	2.g/	-re-	.
.	8.r	.	.	.	.	.	.	.	.	.	.	.	.	.
.	16ff| 16dd 16f\	.	.	.	.	.	.	.	.	.	.	.	.	.
.	2ff 2dd 2f^^>\	.	.	.	.	.	.	.	.	.	.	.	.	.
4G 4D 4BB\	.	.	4BB/	-se	.	4G/	-se-	.	4d/	-re	.	4g/	-re	.
!!LO:LB:g=original
=134	=134	=134	=134	=134	=134	=134	=134	=134	=134	=134	=134	=134	=134	=134
2.A 2.D 2.C^>\	4r	.	2.C^>/	-re-	.	2.A^>/	-re-	.	2.d^>/	no-	.	2.a^>/	no-	.
.	8.r	.	.	.	.	.	.	.	.	.	.	.	.	.
.	16ff| 16dd 16f\	.	.	.	.	.	.	.	.	.	.	.	.	.
.	2ff 2dd 2f^^>\	.	.	.	.	.	.	.	.	.	.	.	.	.
4G 4D 4BB\	.	.	4BB/	-re,	.	4G/	-re,	.	4g/	-bis,	.	4g/	-bis,	.
=135	=135	=135	=135	=135	=135	=135	=135	=135	=135	=135	=135	=135	=135	=135
!	!	!	!LO:ART:color=red	!	!	!	!	!	!	!	!	!	!	!
2.c 2.G 2.E\	4r	.	2.E^\	mi-	.	2.c^>\	mi-	.	2.g^>/	mi-	.	2.cc^>\	mi-	.
.	8.r	.	.	.	.	.	.	.	.	.	.	.	.	.
.	16g 16G|<	.	.	.	.	.	.	.	.	.	.	.	.	.
.	2g 2G^^</	.	.	.	.	.	.	.	.	.	.	.	.	.
4B 4F 4D\	.	.	4D\	-se-	.	4B\	-se-	.	4g/	-se-	.	4b\	-se-	.
=136	=136	=136	=136	=136	=136	=136	=136	=136	=136	=136	=136	=136	=136	=136
!	!	!	!	!	!LO:DY:a:rj:color=red	!	!	!LO:DY:a	!	!	!LO:DY:a	!	!	!
!	!	!LO:DY:rj:color=blue	!LO:ART:color=red	!	!LO:DY:a	!	!	!LO:DY:a:rj:color=blue	!	!	!LO:DY:a:rj:color=red	!	!	!LO:DY:a:rj:color=blue
2.e 2.B 2.G^>\	4r	f	2.G^\	-re-	f	2.e^>\	-re-	f	2.g^>/	-re-	f	2.ee^>\	-re-	f
!	!	!	!	!	!	!	!	!	!	!	!	!	!	!LO:HP:a:color=blue
!	!	!	!	!	!	!	!	!LO:HP:a:color=blue	!	!	!	!	!	!
.	8.r	.	.	.	.	.	.	>	.	.	.	.	.	>
!	!	!LO:HP:color=blue	!	!	!LO:HP:a:color=red	!	!	!	!	!	!LO:HP:a:color=red	!	!	!
.	16gg| 16g\	>	.	.	>	.	.	.	.	.	>	.	.	.
.	2gg 2g^^>\	]]	.	.	.	.	.	.	.	.	.	.	.	.
4d 4B 4F\	.	.	4F\	-re	]	4f\	-re	]]	4f/	-re,	]	4dd\	-re,	]
=137	=137	=137	=137	=137	=137	=137	=137	=137	=137	=137	=137	=137	=137	=137
*^	*	*	*	*	*	*	*	*	*	*	*	*	*	*
!	!	!	!	!	!	!	!	!	!	!	!	!LO:DY:a	!	!	!
!	!	!	!LO:DY:color=blue	!LO:TX:a:t=P:problem="diminuendo" zapisane czerwonym atramentem	!	!LO:HP:a:t=diminuendo	!	!	!LO:DY:a:color=blue	!	!	!LO:DY:a:color=red	!	!	!LO:DY:a:color=blue
2c/	4E 4C^>\	8ccc\L	mp	(>4E\	no-	>	[>1c	no-	mp	(<2g/	a-	mp	(>2cc\	a-	mp
.	.	8bb\	.	.	.	.	.	.	.	.	.	.	.	.	.
!	!	!	!	!	!	!	!	!	!	!	!	!LO:HP:a:color=red	!	!	!LO:HP:a:color=blue
.	4r	8aa\	.	4D\)	.	.	.	.	.	.	.	<	.	.	<
!	!	!	!	!	!	!	!	!	!LO:HP:a:color=blue	!	!	!	!	!	!
.	.	8gg\J	.	.	.	.	.	.	<	.	.	.	.	.	.
!	!	!	!LO:HP:color=blue	!	!	!	!	!	!	!	!	!	!	!	!
4.c/	2r	8aa\L	<	[<2C\	-bis.	.	.	.	.	2a/)	.	.	2ff\)	.	.
.	.	8bb\	.	.	.	.	.	.	.	.	.	.	.	.	.
.	.	8ccc\	.	.	.	.	.	.	.	.	.	.	.	.	[
8c/	.	8ddd\J	[[	.	.	.	.	.	[	.	.	[	.	.	.
=138	=138	=138	=138	=138	=138	=138	=138	=138	=138	=138	=138	=138	=138	=138	=138
!	!	!	!	!	!	!	!	!	!LO:HP:a:color=blue	!	!	!LO:HP:a:color=red	!	!	!LO:HP:a:color=blue
2c^</	1r	8eee\L	.	4C/]	.	.	2c\]	.	>	(<2g/	-gnus	>	(>2ee\	-gnus	>
.	.	8ddd\	.	.	.	.	.	.	.	.	.	.	.	.	.
!	!	!	!LO:HP:color=blue	!	!	!	!	!	!	!	!	!	!	!	!
.	.	8ccc\	>	4r	.	.	.	.	.	.	.	.	.	.	.
.	.	8bb\J	.	.	.	.	.	.	.	.	.	.	.	.	.
2G^</	.	8aa\L	.	2r	.	.	4c\	-bis.	]	2f/)	.	]]	2dd\)	.	.
.	.	8gg\	.	.	.	.	.	.	.	.	.	.	.	.	]
.	.	8aa\	]	.	.	.	4r	.	.	.	.	.	.	.	.
.	.	8bb\J	.	.	.	.	.	.	.	.	.	.	.	.	.
!!LO:PB:g=original
=139	=139	=139	=139	=139	=139	=139	=139	=139	=139	=139	=139	=139	=139	=139	=139
!	!	!	!	!	!	!LO:DY:a:color=red	!	!	!	!	!	!	!	!	!
2c/	2C^<\	8cccL 8cc\	.	(>2C/	ag-	mp	(>2c\	ag-	.	(<4e/	De-	.	[>1cc	De-	.
.	.	8b\	.	.	.	.	.	.	.	.	.	.	.	.	.
!	!	!	!	!	!	!	!	!	!LO:HP:b:color=blue	!	!	!	!	!	!
.	.	8a\	.	.	.	.	.	.	<	(<4d/)	.	.	.	.	.
!	!	!	!LO:HP:a:color=red	!	!	!LO:HP:b:color=blue	!	!	!	!	!	!	!	!	!
.	.	8g\J	<	.	.	<	.	.	.	.	.	.	.	.	.
2r	4.C\	8a\L	.	2A\)	.	.	2f\)	.	.	[<2c/)	.	.	.	.	.
.	.	8b\	.	.	.	.	.	.	.	.	.	.	.	.	.
.	.	8cc\	.	.	.	[	.	.	[	.	.	.	.	.	.
.	8C\	8dd\J	[	.	.	.	.	.	.	.	.	.	.	.	.
=140	=140	=140	=140	=140	=140	=140	=140	=140	=140	=140	=140	=140	=140	=140	=140
!	!	!	!	!	!	!LO:HP:b:color=blue	!	!	!LO:HP:b:color=blue	!	!	!	!	!	!
1r	2C^>\	8ee\L	.	(>2G\	-nus	>	(>2e\	nus	>	2c/]	.	.	2cc\]	.	.
!	!	!	!LO:HP:a:color=red	!	!	!	!	!	!	!	!	!	!	!	!
.	.	8dd\	>	.	.	.	.	.	.	.	.	.	.	.	.
.	.	8cc\	.	.	.	.	.	.	.	.	.	.	.	.	.
.	.	8b\J	.	.	.	.	.	.	.	.	.	.	.	.	.
.	2GG^>\	8a\L	]	2F\)	.	]	2d\)	.	]	4g/	-i,	.	4g/	-i,	.
.	.	8g\	.	.	.	.	.	.	.	.	.	.	.	.	.
.	.	8a\	.	.	.	.	.	.	.	4r	.	.	4r	.	.
.	.	8b\J	.	.	.	.	.	.	.	.	.	.	.	.	.
=141	=141	=141	=141	=141	=141	=141	=141	=141	=141	=141	=141	=141	=141	=141	=141
!	!	!	!	!	!	!	!	!	!	!	!	!LO:HP:b:color=blue	!	!	!
2c/	2C^>\	8cccL 8cc\	.	(<4E/	De-	.	[>1c	De-	.	(<2g/	a-	<	(>2cc\	a-	.
!	!	!	!	!	!	!	!	!	!	!	!	!	!	!	!LO:HP:b:color=blue
.	.	8bb\	.	.	.	.	.	.	.	.	.	.	.	.	<
.	.	8aa\	.	4D/)	.	.	.	.	.	.	.	.	.	.	.
!	!	!	!LO:HP:a:color=red	!	!	!	!	!	!	!	!	!	!	!	!
.	.	8gg\J	<	.	.	.	.	.	.	.	.	.	.	.	.
4.c/	2r	8aa\L	.	[<2C/	-i,	.	.	.	.	2a/)	.	[[	2ff\)	.	.
.	.	8bb\	.	.	.	.	.	.	.	.	.	.	.	.	.
.	.	8ccc\	.	.	.	.	.	.	.	.	.	.	.	.	[
8c/	.	8ddd\J	[	.	.	.	.	.	.	.	.	.	.	.	.
=142	=142	=142	=142	=142	=142	=142	=142	=142	=142	=142	=142	=142	=142	=142	=142
!	!	!	!	!	!	!	!	!	!	!	!	!LO:HP:b:color=blue	!	!	!
2c^</	1r	8eee\L	.	4C/]	.	.	2c\]	.	.	(<2g/	-gnus	>	(>2ee\	-gnus	.
!	!	!	!LO:HP:a:color=red	!	!	!	!	!	!	!	!	!	!	!	!
.	.	8ddd\	>	.	.	.	.	.	.	.	.	.	.	.	.
!	!	!	!	!	!	!	!	!	!	!	!	!	!	!	!LO:HP:b:color=blue
.	.	8ccc\	.	4r	.	.	.	.	.	.	.	.	.	.	>
.	.	8bb\J	.	.	.	.	.	.	.	.	.	.	.	.	.
2G^</	.	8aa\L	.	2r	.	.	4c\	-i,	.	2f/)	.	]	2dd\)	.	.
.	.	8gg\	]	.	.	.	.	.	.	.	.	.	.	.	.
.	.	8aa\	.	.	.	.	4r	.	.	.	.	.	.	.	.
.	.	8bb\J	.	.	.	.	.	.	.	.	.	.	.	.	]
=143	=143	=143	=143	=143	=143	=143	=143	=143	=143	=143	=143	=143	=143	=143	=143
!	!	!	!	!	!	!LO:HP:b:color=blue	!	!	!LO:HP:b:color=blue	!	!	!	!	!	!
2c/	2C\^<	8cccL 8cc\	.	(>2C/	a-	<	(>2c\	a-	<	(<4e/	De-	.	[>1cc	De-	.
.	.	8b\	.	.	.	.	.	.	.	.	.	.	.	.	.
!	!	!	!LO:HP:a:color=red	!	!	!	!	!	!	!	!	!	!	!	!
.	.	8a\	<	.	.	.	.	.	.	(<4d/)	.	.	.	.	.
.	.	8g\J	.	.	.	.	.	.	.	.	.	.	.	.	.
2r	4.C\	8a\L	.	2A\)	.	[[	2f\)	.	.	[<2c/)	.	.	.	.	.
.	.	8b\	.	.	.	.	.	.	.	.	.	.	.	.	.
.	.	8cc\	[	.	.	.	.	.	[	.	.	.	.	.	.
.	8C\	8dd\J	.	.	.	.	.	.	.	.	.	.	.	.	.
!!LO:LB:g=original
=144	=144	=144	=144	=144	=144	=144	=144	=144	=144	=144	=144	=144	=144	=144	=144
!	!	!	!	!	!	!LO:HP:b:color=blue	!	!	!LO:HP:b:color=blue	!	!	!	!	!	!
1r	2C^>\	8ee\L	.	1G	-gnus,	>]	(2e\	-gnus,	>	2c/]	.	.	2cc\]	.	.
.	.	8dd\	.	.	.	.	.	.	.	.	.	.	.	.	.
.	.	8cc\	.	.	.	.	.	.	.	.	.	.	.	.	.
!	!	!	!LO:HP:a:color=red	!	!	!	!	!	!	!	!	!	!	!	!
.	.	8b\J	>	.	.	.	.	.	.	.	.	.	.	.	.
.	2GG^>\	8a\L	.	.	.	.	2d\)	.	.	2g/	-i,	.	2g/	-i,	.
.	.	8g\	.	.	.	.	.	.	]	.	.	.	.	.	.
.	.	8a\	.	.	.	.	.	.	.	.	.	.	.	.	.
.	.	8b\J	]	.	.	.	.	.	.	.	.	.	.	.	.
=145	=145	=145	=145	=145	=145	=145	=145	=145	=145	=145	=145	=145	=145	=145	=145
*	*	*^	*	*	*	*	*	*	*	*	*	*	*	*	*
*	*	*	*Xtremolo	*	*	*	*	*	*	*	*	*	*	*	*	*
!	!	!	!	!	!	!	!	!	!	!	!	!	!	!LO:TX:a:t=P:problem="cre_scen_do" zapisane niebieskim atramentem	!	!
!	!	!	!	!	!	!	!	!	!	!	!	!	!	!LO:TX::i:t=cre_scen_do:ext:problem=dynamics with line extensions	!	!LO:HP:a:i:t=cre_scen_do:ext=ud
1e	8c\L	1ccc 1ee	8cc\L	.	1c	mi-	.	1c	mi-	.	1cc	mi-	.	1cc	mi-	<
.	8B\	.	8b\	.	.	.	.	.	.	.	.	.	.	.	.	.
!	!	!	!LO:TX:b:i:t=cre_scen_do:color=blue:problem=dynamics with line extensions	!LO:HP:i:t=cre_scen_do:ext=ud	!	!	!	!	!	!	!	!	!	!	!	!
.	8c\	.	8cc\	<	.	.	.	.	.	.	.	.	.	.	.	.
.	8B\J	.	8b\J	.	.	.	.	.	.	.	.	.	.	.	.	.
.	8c\L	.	8cc\L	.	.	.	.	.	.	.	.	.	.	.	.	.
.	8B\	.	8b\	.	.	.	.	.	.	.	.	.	.	.	.	.
.	8c\	.	8cc\	.	.	.	.	.	.	.	.	.	.	.	.	.
.	8B\J	.	8b\J	.	.	.	.	.	.	.	.	.	.	.	.	.
=146	=146	=146	=146	=146	=146	=146	=146	=146	=146	=146	=146	=146	=146	=146	=146	=146
1f 1d	8B-X\L	1ddd 1ff	8b-X\L	.	1B-X	-se-	.	1d	-se-	.	1b-X	-se-	.	1dd	-se-	.
.	8A\	.	8a\	.	.	.	.	.	.	.	.	.	.	.	.	.
.	8B-\	.	8b-\	.	.	.	.	.	.	.	.	.	.	.	.	.
.	8A\J	.	8a\J	.	.	.	.	.	.	.	.	.	.	.	.	.
.	8B-\L	.	8b-\L	.	.	.	.	.	.	.	.	.	.	.	.	.
.	8A\	.	8a\	.	.	.	.	.	.	.	.	.	.	.	.	.
.	8B-\	.	8b-\	.	.	.	.	.	.	.	.	.	.	.	.	.
.	8A\J	.	8a\J	.	.	.	.	.	.	.	.	.	.	.	.	.
=147	=147	=147	=147	=147	=147	=147	=147	=147	=147	=147	=147	=147	=147	=147	=147	=147
1e-X 1c	8A-X\L	1eee-X 1ccc 1ee-X@	8a-X\L	.	1A-X	-re-	.	1c	-re-	.	1cc	-re-	.	1ee-X	-re-	.
.	8G\	.	8g\	.	.	.	.	.	.	.	.	.	.	.	.	.
.	8A-\	.	8a-\	.	.	.	.	.	.	.	.	.	.	.	.	.
.	8G\J	.	8g\J	.	.	.	.	.	.	.	.	.	.	.	.	.
.	8A-\L	.	8a-\L	.	.	.	.	.	.	.	.	.	.	.	.	.
.	8G\	.	8g\	.	.	.	.	.	.	.	.	.	.	.	.	.
.	8A-\	.	8a-\	.	.	.	.	.	.	.	.	.	.	.	.	.
.	8G\J	.	8g\J	.	.	.	.	.	.	.	.	.	.	.	.	.
=148	=148	=148	=148	=148	=148	=148	=148	=148	=148	=148	=148	=148	=148	=148	=148	=148
1f-X 1d-X	8G-X\L	8eenL 8dd-X 8b-X/	8g-X\L	.	(>2.G-X^>\	-re,	.	1c#X	-re,	.	1b-X	-re,	.	(>2.een\	-re,	.
.	8F\	8ee 8dd- 8b-/	8f\	.	.	.	.	.	.	.	.	.	.	.	.	.
.	8G-\	8ee 8dd- 8b-/	8g-\	.	.	.	.	.	.	.	.	.	.	.	.	.
.	8F\J	8eeJ 8dd- 8b-/	8f\J	.	.	.	.	.	.	.	.	.	.	.	.	.
.	8G-\L	8eeL 8dd- 8b-/	8g-\L	.	.	.	.	.	.	.	.	.	.	.	.	.
.	8F\	8ee 8dd- 8b-/	8f\	.	.	.	.	.	.	.	.	.	.	.	.	.
.	8G-\	8ff 8dd-X 8b-/	8g-\	.	4F\)	.	.	.	.	.	.	.	.	4ff\)	.	.
.	8F\J	8ffJ 8dd- 8b-/	8f\J	.	.	.	.	.	.	.	.	.	.	.	.	.
*v	*v	*	*	*	*	*	*	*	*	*	*	*	*	*	*	*
*	*v	*v	*	*	*	*	*	*	*	*	*	*	*	*	*
!!LO:PB:g=original
=149	=149	=149	=149	=149	=149	=149	=149	=149	=149	=149	=149	=149	=149	=149
2c#X 2A 2G 2E\	8ggL 8cc#X 8a'\	.	2E\	mi-	.	2c#X\	mi-	.	2a/	mi-	.	2gg\	mi-	.
.	8gg 8cc# 8a'\	.	.	.	.	.	.	.	.	.	.	.	.	.
.	8gg 8cc# 8a'\	[	.	.	.	.	.	.	.	.	.	.	.	.
.	8ggJ 8cc# 8a'\	.	.	.	.	.	.	.	.	.	.	.	.	.
*	*tremolo	*	*	*	*	*	*	*	*	*	*	*	*	*
!	!LO:TX:a:t=....	!	!	!	!	!	!	!	!	!	!	!	!	!
2d 2A 2F#X 2D\	8aaL 8ff#X 8ccn'\	.	2D\	-se-	.	2d\	-se-	.	2a/	-se-	.	2ff#X\	-se-	[[
.	8aa 8ff# 8cc'\	.	.	.	.	.	.	.	.	.	.	.	.	.
.	8aa 8ff# 8cc'\	.	.	.	.	.	.	.	.	.	.	.	.	.
.	8aaJ 8ff# 8cc'\	.	.	.	.	.	.	.	.	.	.	.	.	.
=150	=150	=150	=150	=150	=150	=150	=150	=150	=150	=150	=150	=150	=150	=150
!	!LO:TX:a:t=....	!	!	!	!	!	!	!	!	!	!	!	!	!
2G 2D 2GG/	8bbL 8ffn 8dd'\	.	2G\	-re-	.	2d\	-re-	.	2bn\	-re-	.	2ffn\	-re-	.
.	8bb 8ff 8dd'\	.	.	.	.	.	.	.	.	.	.	.	.	.
.	8bb 8ff 8dd'\	.	.	.	.	.	.	.	.	.	.	.	.	.
.	8bbJ 8ff 8dd'\	.	.	.	.	.	.	.	.	.	.	.	.	.
!	!LO:TX:a:t=....	!	!	!	!	!	!	!	!	!	!	!	!	!
2A 2C 2AA/	8cccL 8ee 8cc'\	.	2A\	-re	.	2cn\	-re	.	2cc\	-re	.	2ee\	-re	.
.	8ccc 8ee 8cc'\	.	.	.	.	.	.	.	.	.	.	.	.	.
.	8ccc 8ee 8cc'\	.	.	.	.	.	.	.	.	.	.	.	.	.
.	8cccJ 8ee 8cc'\	.	.	.	.	.	.	.	.	.	.	.	.	.
=151	=151	=151	=151	=151	=151	=151	=151	=151	=151	=151	=151	=151	=151	=151
!	!LO:TX:a:t=....	!	!	!	!	!	!	!	!	!	!	!	!	!LO:DY:a:t=sff.
!	!	!LO:DY:t=sff.	!	!	!	!	!	!	!	!	!	!	!	!
(<1F [>1D 1C 1FF^^>	8aaL 8dd 8cc 8a'^^>\	sff	(>1F	no-	.	(>1c	no-	.	1a	no-	.	1dd	no-	sff
.	8aa 8dd 8cc 8a'\	.	.	.	.	.	.	.	.	.	.	.	.	.
.	8aa 8dd 8cc 8a'\	.	.	.	.	.	.	.	.	.	.	.	.	.
.	8aaJ 8dd 8cc 8a'\	.	.	.	.	.	.	.	.	.	.	.	.	.
!	!LO:TX:a:t=....	!LO:HP:color=blue	!	!	!	!	!	!	!	!	!	!	!	!
.	8aaL 8dd 8cc 8a'\	>	.	.	.	.	.	.	.	.	.	.	.	.
.	8aa 8dd 8cc 8a'\	.	.	.	.	.	.	.	.	.	.	.	.	.
!	!	!	!	!	!	!	!	!	!	!	!	!	!	!LO:HP:a:color=blue
.	8aa 8dd 8cc 8a'\	.	.	.	.	.	.	.	.	.	.	.	.	>
!	!	!	!	!	!	!	!	!	!	!	!LO:HP:a:color=blue	!	!	!
.	8aaJ 8dd 8cc 8a'\	.	.	.	.	.	.	.	.	.	>	.	.	.
=152	=152	=152	=152	=152	=152	=152	=152	=152	=152	=152	=152	=152	=152	=152
!	!LO:TX:a:t=....	!	!	!	!LO:HP:a:color=blue	!	!	!LO:HP:a:color=blue	!	!	!LO:DY:a	!	!	!
1G 1D] 1GG)	8ggL 8ff 8dd 8b 8g'\	.	1G)	.	>]	1B)	.	>]	1g	-bis,	.	1dd	-bis,	.
.	8gg 8ff 8dd 8b 8g'\	.	.	.	.	.	.	.	.	.	.	.	.	.
.	8gg 8ff 8dd 8b 8g'\	.	.	.	.	.	.	.	.	.	.	.	.	.
.	8ggJ 8ff 8dd 8b 8g'\	.	.	.	.	.	.	.	.	.	.	.	.	.
!	!LO:TX:a:t=....	!	!	!	!	!	!	!	!	!	!	!	!	!
.	8ggL 8ff 8dd 8b 8g'\	]	.	.	.	.	.	.	.	.	.	.	.	.
.	8gg 8ff 8dd 8b 8g'\	.	.	.	.	.	.	.	.	.	]	.	.	.
.	8gg 8ff 8dd 8b 8g'\	.	.	.	.	.	.	.	.	.	.	.	.	]
.	8ggJ 8ff 8dd 8b 8g'\	.	.	.	.	.	.	.	.	.	.	.	.	.
=153	=153	=153	=153	=153	=153	=153	=153	=153	=153	=153	=153	=153	=153	=153
*^	*	*	*	*	*	*	*	*	*	*	*	*	*	*
!	!	!	!	!	!	!	!	!	!	!	!	!LO:DY:a	!	!	!
!	!	!	!LO:DY:color=blue	!	!	!LO:DY:a:color=red	!	!	!LO:DY:a:rj:color=red	!	!	!LO:DY:a:color=red	!	!	!LO:DY:a:color=blue
2c/	1C	8ccc\L	mp	2C/	-bis.	mp	2c\	-bis.	mp	(<2g/	a-	mp	(>2cc\	a-	mp
.	.	8bb\	.	.	.	.	.	.	.	.	.	.	.	.	.
!	!	!	!	!	!	!	!	!	!	!	!	!LO:HP:a:color=red	!	!	!LO:HP:a:color=blue
.	.	8aa\	.	.	.	.	.	.	.	.	.	<	.	.	<
.	.	8gg\J	.	.	.	.	.	.	.	.	.	.	.	.	.
!	!	!	!	!LO:N:vis=1	!	!	!	!	!	!	!	!	!	!	!
4.c/	.	8aa\L	.	2rD	.	.	2r	.	.	2a/)	.	.	2ff\)	.	.
.	.	8bb\	.	.	.	.	.	.	.	.	.	.	.	.	.
.	.	8ccc\	.	.	.	.	.	.	.	.	.	[	.	.	.
8c/	.	8ddd\J	.	.	.	.	.	.	.	.	.	.	.	.	[
!!LO:LB:g=original
=154	=154	=154	=154	=154	=154	=154	=154	=154	=154	=154	=154	=154	=154	=154	=154
!	!	!	!	!	!	!	!	!	!	!	!	!LO:HP:a:color=blue	!	!	!LO:HP:a:color=blue
2c^</	1r	8eee\L	.	1r	.	.	1r	.	.	(<2g/	-gnus	>	(>2ee\	-gnus	>
.	.	8ddd\	.	.	.	.	.	.	.	.	.	.	.	.	.
.	.	8ccc\	.	.	.	.	.	.	.	.	.	.	.	.	.
.	.	8bb\J	.	.	.	.	.	.	.	.	.	.	.	.	.
2G^</	.	8aa\L	.	.	.	.	.	.	.	2f/)	.	.	2dd\)	.	]]
.	.	8gg\	.	.	.	.	.	.	.	.	.	.	.	.	.
.	.	8aa\	.	.	.	.	.	.	.	.	.	]	.	.	.
.	.	8bb\J	.	.	.	.	.	.	.	.	.	.	.	.	.
=155	=155	=155	=155	=155	=155	=155	=155	=155	=155	=155	=155	=155	=155	=155	=155
!	!	!	!	!	!	!LO:HP:b:color=blue	!	!	!	!LO:S:color=red	!	!	!	!	!
2c/	2C\^<	8cccL 8cc\	.	(>2C/	a-	<	(>2c\	a-	.	(<4e/	De-	.	[>1cc	De-	.
.	.	8b\	.	.	.	.	.	.	.	.	.	.	.	.	.
!	!	!	!	!	!	!	!	!	!LO:HP:b:color=blue	!	!	!	!	!	!
.	.	8a\	.	.	.	.	.	.	<	4d/	.	.	.	.	.
.	.	8g\J	.	.	.	.	.	.	.	.	.	.	.	.	.
2r	4.C\	8a\L	.	2A\)	.	[[	2f\)	.	.	[<2c/)	.	.	.	.	.
.	.	8b\	.	.	.	.	.	.	[	.	.	.	.	.	.
.	.	8cc\	.	.	.	.	.	.	.	.	.	.	.	.	.
.	8C\	8dd\J	.	.	.	.	.	.	.	.	.	.	.	.	.
=156	=156	=156	=156	=156	=156	=156	=156	=156	=156	=156	=156	=156	=156	=156	=156
!	!	!	!	!	!	!LO:HP:b:color=blue	!	!	!LO:HP:b:color=blue	!	!	!	!	!	!
1r	2C^>\	8ee\L	.	(>2G\	-gnus	>	(>2e\	-gnus	>	2c/]	.	.	2cc\]	.	.
.	.	8dd\	.	.	.	.	.	.	.	.	.	.	.	.	.
.	.	8cc\	.	.	.	.	.	.	.	.	.	.	.	.	.
.	.	8b\J	.	.	.	.	.	.	.	.	.	.	.	.	.
.	2GG^>\	8a\L	.	2F\)	.	]	2d\)	.	]	4g/	-i,	.	4g/	-i,	.
.	.	8g\	.	.	.	.	.	.	.	.	.	.	.	.	.
.	.	8a\	.	.	.	.	.	.	.	4r	.	.	4r	.	.
.	.	8b\J	.	.	.	.	.	.	.	.	.	.	.	.	.
=157	=157	=157	=157	=157	=157	=157	=157	=157	=157	=157	=157	=157	=157	=157	=157
!	!	!	!LO:DY:b=2:rj:color=blue	!	!	!	!	!	!	!	!	!	!	!	!
2c/	2C\^>	8cccL 8cc\	ff	(<4E/	De-	.	[>1c	De-	.	(<2g/	a-	.	(>2cc\	a-	.
!	!	!	!	!	!	!	!	!	!	!	!	!LO:HP:a:color=blue	!	!	!LO:HP:a:color=blue
.	.	8bb\	.	.	.	.	.	.	.	.	.	<	.	.	<
.	.	8aa\	.	4D/)	.	.	.	.	.	.	.	.	.	.	.
.	.	8gg\J	.	.	.	.	.	.	.	.	.	.	.	.	.
4.c/	2r	8aa\L	.	[<2C/	-i,	.	.	.	.	2a/)	.	.	2ff\)	.	.
.	.	8bb\	.	.	.	.	.	.	.	.	.	.	.	.	.
.	.	8ccc\	.	.	.	.	.	.	.	.	.	[	.	.	[
8c/	.	8ddd\J	.	.	.	.	.	.	.	.	.	.	.	.	.
=158	=158	=158	=158	=158	=158	=158	=158	=158	=158	=158	=158	=158	=158	=158	=158
!	!	!	!	!	!	!	!	!	!	!	!	!LO:HP:a:color=blue	!	!	!LO:HP:a:color=blue
2c^</	1r	8eee\L	.	4C/]	.	.	2c\]	.	.	(<2g/	-gnus	>	(>2ee\	-gnus	>
.	.	8ddd\	.	.	.	.	.	.	.	.	.	.	.	.	.
.	.	8ccc\	.	4r	.	.	.	.	.	.	.	.	.	.	.
.	.	8bb\J	.	.	.	.	.	.	.	.	.	]	.	.	.
2G^</	.	8aa\L	.	2r	.	.	4c\	-i	.	2f/)	.	.	2dd\)	.	]]
.	.	8gg\	.	.	.	.	.	.	.	.	.	.	.	.	.
.	.	8aa\	.	.	.	.	4r	.	.	.	.	.	.	.	.
.	.	8bb\J	.	.	.	.	.	.	.	.	.	.	.	.	.
!!LO:PB:g=original
=159	=159	=159	=159	=159	=159	=159	=159	=159	=159	=159	=159	=159	=159	=159	=159
2c/	2C^<\	8cccL 8cc\	.	(>2C/	a-	.	(>2c\	a-	.	(<4e/	De-	.	[>1cc	De-	.
.	.	8b\	.	.	.	.	.	.	.	.	.	.	.	.	.
!	!	!	!	!	!	!	!	!	!LO:HP:b:color=blue	!	!	!	!	!	!
.	.	8a\	.	.	.	.	.	.	<	(<4d/)	.	.	.	.	.
.	.	8g\J	.	.	.	.	.	.	.	.	.	.	.	.	.
2r	4.C\	8a\L	.	2A\)	.	.	2f\)	.	.	[<2c/)	.	.	.	.	.
.	.	8b\	.	.	.	.	.	.	[	.	.	.	.	.	.
.	.	8cc\	.	.	.	.	.	.	.	.	.	.	.	.	.
.	8C\	8dd\J	.	.	.	.	.	.	.	.	.	.	.	.	.
=160	=160	=160	=160	=160	=160	=160	=160	=160	=160	=160	=160	=160	=160	=160	=160
!	!	!	!	!	!	!	!	!	!LO:HP:b:color=blue	!	!	!	!	!	!
1r	2C^>\	8ee\L	.	1G	-gnus,	.	(>2e\	-gnus,	>	2c/]	.	.	2cc\]	.	.
.	.	8dd\	.	.	.	.	.	.	.	.	.	.	.	.	.
.	.	8cc\	.	.	.	.	.	.	.	.	.	.	.	.	.
.	.	8b\J	.	.	.	.	.	.	.	.	.	.	.	.	.
.	2GG^>\	8a\L	.	.	.	.	2d\)	.	]	2g/	-i,	.	2g/	-i,	.
.	.	8g\	.	.	.	.	.	.	.	.	.	.	.	.	.
.	.	8a\	.	.	.	.	.	.	.	.	.	.	.	.	.
.	.	8b\J	.	.	.	.	.	.	.	.	.	.	.	.	.
=161	=161	=161	=161	=161	=161	=161	=161	=161	=161	=161	=161	=161	=161	=161	=161
*	*	*^	*	*	*	*	*	*	*	*	*	*	*	*	*
*	*	*	*Xtremolo	*	*	*	*	*	*	*	*	*	*	*	*	*
1e	8c\L	1ccc 1ee	8cc\L	.	1c	mi-	.	1c	mi-	.	1cc	mi-	.	1cc	mi-	.
.	8B\	.	8b\	.	.	.	.	.	.	.	.	.	.	.	.	.
.	8c\	.	8cc\	.	.	.	.	.	.	.	.	.	.	.	.	.
.	8B\J	.	8b\J	.	.	.	.	.	.	.	.	.	.	.	.	.
!	!	!	!	!	!	!	!	!	!	!	!	!	!	!LO:TX:b:t=P:problem="cre_scen_do" zapisane niebieskim atramentem	!	!
!	!	!	!LO:TX:a:i:t=cre_scen_do:color=blue:problem=dynamics with line extensions	!LO:HP:a:i:t=cre_scen_do:ext=ud	!	!	!	!	!	!	!	!	!	!LO:TX::i:t=cre_scen_do:ext:problem=dynamics with line extensions	!	!LO:HP:a:i:t=cre_scen_do:ext=ud
.	8c\L	.	8cc\L	<	.	.	.	.	.	.	.	.	.	.	.	<
.	8B\	.	8b\	.	.	.	.	.	.	.	.	.	.	.	.	.
.	8c\	.	8cc\	.	.	.	.	.	.	.	.	.	.	.	.	.
.	8B\J	.	8b\J	.	.	.	.	.	.	.	.	.	.	.	.	.
=162	=162	=162	=162	=162	=162	=162	=162	=162	=162	=162	=162	=162	=162	=162	=162	=162
1f 1d	8B-X\L	1ddd 1ff	8b-X\L	.	1B-X	-se-	.	1d	-se-	.	1b-X	-se-	.	1dd	-se-	.
.	8A\	.	8a\	.	.	.	.	.	.	.	.	.	.	.	.	.
.	8B-\	.	8b-\	.	.	.	.	.	.	.	.	.	.	.	.	.
.	8A\J	.	8a\J	.	.	.	.	.	.	.	.	.	.	.	.	.
.	8B-\L	.	8b-\L	.	.	.	.	.	.	.	.	.	.	.	.	.
.	8A\	.	8a\	.	.	.	.	.	.	.	.	.	.	.	.	.
.	8B-\	.	8b-\	.	.	.	.	.	.	.	.	.	.	.	.	.
.	8A\J	.	8a\J	.	.	.	.	.	.	.	.	.	.	.	.	.
=163	=163	=163	=163	=163	=163	=163	=163	=163	=163	=163	=163	=163	=163	=163	=163	=163
1e-X 1c	8A-X\L	1eee-X 1ccc 1ee-X@	8a-X\L	.	1A-X	-re-	.	1c	-re-	.	1cc	-re-	.	1ee-X	-re-	.
.	8G\	.	8g\	.	.	.	.	.	.	.	.	.	.	.	.	.
.	8A-\	.	8a-\	.	.	.	.	.	.	.	.	.	.	.	.	.
.	8G\J	.	8g\J	.	.	.	.	.	.	.	.	.	.	.	.	.
.	8A-\L	.	8a-\L	.	.	.	.	.	.	.	.	.	.	.	.	.
.	8G\	.	8g\	.	.	.	.	.	.	.	.	.	.	.	.	.
.	8A-\	.	8a-\	.	.	.	.	.	.	.	.	.	.	.	.	.
.	8G\J	.	8g\J	.	.	.	.	.	.	.	.	.	.	.	.	.
!!LO:LB:g=original
=164	=164	=164	=164	=164	=164	=164	=164	=164	=164	=164	=164	=164	=164	=164	=164	=164
*	*	*tremolo	*	*	*	*	*	*	*	*	*	*	*	*	*	*
1d-X 1B-X	8G-X\L	8eenL 8dd-X 8b-X/	8g-X\L	.	(>2.G-X^>\	-re,	.	1c#X	-re,	.	1b-X	-re,	.	(>2.een\	-re,	.
.	8F\	8een 8dd- 8b-/	8f\	.	.	.	.	.	.	.	.	.	.	.	.	.
.	8G-\	8een 8dd- 8b-/	8g-\	.	.	.	.	.	.	.	.	.	.	.	.	[
.	8F\J	8een 8dd- 8b-/	8f\J	.	.	.	.	.	.	.	.	.	.	.	.	.
.	8G-\L	8een 8dd- 8b-/	8g-\L	[	.	.	.	.	.	.	.	.	.	.	.	.
.	8F\	8eenJ 8dd- 8b-/	8f\	.	.	.	.	.	.	.	.	.	.	.	.	.
*	*	*Xtremolo	*	*	*	*	*	*	*	*	*	*	*	*	*	*
.	8G-\	8ffL 8dd-X 8b-/	8g-\	.	4F\)	.	.	.	.	.	.	.	.	4ff\)	.	.
.	8F\J	8ffJ 8dd- 8b-/	8f\J	.	.	.	.	.	.	.	.	.	.	.	.	.
*v	*v	*	*	*	*	*	*	*	*	*	*	*	*	*	*	*
*	*v	*v	*	*	*	*	*	*	*	*	*	*	*	*	*
=165	=165	=165	=165	=165	=165	=165	=165	=165	=165	=165	=165	=165	=165	=165
*	*tremolo	*	*	*	*	*	*	*	*	*	*	*	*	*
!	!LO:TX:a:t=....	!	!	!	!	!	!	!	!	!	!	!	!	!
2c#X 2A 2G 2E\	8ggL 8cc#X 8a'\	.	2E\	mi-	.	2c#X\	mi-	.	2a/	mi-	.	2gg\	mi-	.
.	8gg 8cc# 8a'\	.	.	.	.	.	.	.	.	.	.	.	.	.
.	8gg 8cc# 8a'\	.	.	.	.	.	.	.	.	.	.	.	.	.
.	8ggJ 8cc# 8a'\	.	.	.	.	.	.	.	.	.	.	.	.	.
!	!LO:TX:a:t=....	!	!	!	!	!	!	!	!	!	!	!	!	!
2d 2A 2F#X 2D\	8aaL 8ff#X 8ccn'\	.	2D\	-se-	.	2d\	-se-	.	2a/	-se-	.	2ff#X\	-se-	.
.	8aa 8ff# 8cc'\	.	.	.	.	.	.	.	.	.	.	.	.	.
.	8aa 8ff# 8cc'\	.	.	.	.	.	.	.	.	.	.	.	.	.
.	8aaJ 8ff# 8cc'\	.	.	.	.	.	.	.	.	.	.	.	.	.
=166	=166	=166	=166	=166	=166	=166	=166	=166	=166	=166	=166	=166	=166	=166
!	!LO:TX:a:t=....	!	!	!	!	!	!	!	!	!	!	!	!	!
2G 2D 2GG/	8bbL 8ffn 8dd'\	.	2G\	-re-	.	2d\	-re-	.	2bn\	-re-	.	2ffn\	-re-	.
.	8bb 8ff 8dd'\	.	.	.	.	.	.	.	.	.	.	.	.	.
.	8bb 8ff 8dd'\	.	.	.	.	.	.	.	.	.	.	.	.	.
.	8bbJ 8ff 8dd'\	.	.	.	.	.	.	.	.	.	.	.	.	.
!	!LO:TX:a:t=....	!	!	!	!	!	!	!	!	!	!	!	!	!
2A 2C 2AA/	8cccL 8ee 8cc'\	.	2A\	-re	.	2cn\	-re	.	2cc\	-re	.	2ee\	-re	.
.	8ccc 8ee 8cc'\	.	.	.	.	.	.	.	.	.	.	.	.	.
.	8ccc 8ee 8cc'\	.	.	.	.	.	.	.	.	.	.	.	.	.
.	8cccJ 8ee 8cc'\	.	.	.	.	.	.	.	.	.	.	.	.	.
=167	=167	=167	=167	=167	=167	=167	=167	=167	=167	=167	=167	=167	=167	=167
!	!	!	!	!	!	!	!	!	!	!	!	!	!	!LO:DY:a:t=sff.
!	!LO:TX:a:t=....	!	!	!	!	!	!	!	!	!	!	!	!	!
1F [1D (<1C 1FF^^>	8aaL 8dd 8cc 8a'^^>\	???	(>1F	no-	.	(>1d	no-	.	(>1cc	no-	.	(>1aa	no-	sff
.	8aa 8dd 8cc 8a'\	.	.	.	.	.	.	.	.	.	.	.	.	.
.	8aa 8dd 8cc 8a'\	.	.	.	.	.	.	.	.	.	.	.	.	.
.	8aa 8dd 8cc 8a'\	.	.	.	.	.	.	.	.	.	.	.	.	.
.	8aa 8dd 8cc 8a'\	.	.	.	.	.	.	.	.	.	.	.	.	.
.	8aa 8dd 8cc 8a'\	.	.	.	.	.	.	.	.	.	.	.	.	.
.	8aa 8dd 8cc 8a'\	.	.	.	.	.	.	.	.	.	.	.	.	.
.	8aaJ 8dd 8cc 8a'\	.	.	.	.	.	.	.	.	.	.	.	.	.
=168	=168	=168	=168	=168	=168	=168	=168	=168	=168	=168	=168	=168	=168	=168
!	!LO:TX:a:t=....	!LO:HP:color=blue	!	!	!	!	!	!	!	!	!	!	!	!LO:HP:a:color=blue
1G 1D] 1GG)	8ggL 8ff 8dd 8b 8g'\	>	1G)	.	.	1d)	.	.	1b)	.	.	1gg)	.	>]
.	8gg 8ff 8dd 8b 8g'\	.	.	.	.	.	.	.	.	.	.	.	.	.
.	8gg 8ff 8dd 8b 8g'\	.	.	.	.	.	.	.	.	.	.	.	.	.
.	8ggJ 8ff 8dd 8b 8g'\	.	.	.	.	.	.	.	.	.	.	.	.	.
!	!LO:TX:a:t=....	!	!	!	!	!	!	!	!	!	!	!	!	!
.	8ggL 8ff 8dd 8b 8g'\	.	.	.	.	.	.	.	.	.	.	.	.	.
.	8gg 8ff 8dd 8b 8g'\	.	.	.	.	.	.	.	.	.	.	.	.	.
.	8gg 8ff 8dd 8b 8g'\	.	.	.	.	.	.	.	.	.	.	.	.	.
.	8ggJ 8ff 8dd 8b 8g'\	]]	.	.	.	.	.	.	.	.	.	.	.	.
!!LO:PB:g=original
=169	=169	=169	=169	=169	=169	=169	=169	=169	=169	=169	=169	=169	=169	=169
!	!	!LO:DY:color=blue	!	!	!	!	!	!	!	!	!	!	!	!
2G 2C\	2ee 2cc 2g\	mf	4c\	-bis,	.	4c\	-bis,	.	4cc\	-bis,	.	4cc\	-bis,	.
.	.	.	4r	.	.	4r	.	.	4r	.	.	4r	.	.
2G 2GG\	2gg 2dd 2b 2g\	.	2r	.	.	2r	.	.	2r	.	.	2r	.	.
=170	=170	=170	=170	=170	=170	=170	=170	=170	=170	=170	=170	=170	=170	=170
!	!	!	!	!	!	!	!	!	!	!	!	!	!	!LO:DY:a:color=blue
2G 2C\	2ee 2cc 2g\	.	2c\	mi-	.	2c\	mi-	.	2g/	mi-	.	2ee\	mi-	f
2G 2GG\	2gg 2dd 2b 2g\	.	2G\	-se-	.	2B\	-se-	.	2g/	-se-	.	2dd\	-se-	.
=171	=171	=171	=171	=171	=171	=171	=171	=171	=171	=171	=171	=171	=171	=171
!	!LO:TX:a:t=P:problem="crescen." zapisane niebieskim atramentem	!	!	!	!	!	!	!	!	!	!	!LO:TX:a:t=P:problem="crescen." zapisane niebieskim atramentem	!	!LO:HP:a
2G 2C\	2ee 2cc 2g\	<	2c\	-re-	.	2c\	-re-	.	2g/	-re-	.	2ee\	-re-	<
2G 2GG\	2gg 2dd 2b 2g\	.	2G\	-re	.	2B\	-re	.	2g/	-re	.	2dd\	-re	.
=172	=172	=172	=172	=172	=172	=172	=172	=172	=172	=172	=172	=172	=172	=172
2G 2C\	2ee 2cc 2g\	.	2c\	no-	.	2c\	no-	.	2g/	no-	.	2ee\	no-	.
2G 2GG\	2gg 2dd 2b 2g\	.	2G\	-bis.	.	2B\@	-bis.	.	2g/	-bis.	.	2dd\	-bis.	.
*	*Xtremolo	*	*	*	*	*	*	*	*	*	*	*	*	*
=173	=173	=173	=173	=173	=173	=173	=173	=173	=173	=173	=173	=173	=173	=173
!	!	!LO:DY:t=ff.	!	!	!	!	!	!	!	!	!	!	!	!LO:DY:a:color=blue
4C 4CC/	8cccL 8ee\	ff	[>1c^>	a-	.	[>1e^>	a-	.	[>1g^>	a-	.	[>1ee^>	a-	ff
.	8cc\	.	.	.	.	.	.	.	.	.	.	.	.	.
*tremolo	*	*	*	*	*	*	*	*	*	*	*	*	*	*
8EL 8C\	8ccc 8ee\	.	.	.	.	.	.	.	.	.	.	.	.	.
8G\	8cc\J	.	.	.	.	.	.	.	.	.	.	.	.	.
8E 8C\	8cccL 8ee\	.	.	.	.	.	.	.	.	.	.	.	.	.
8G\	8cc\	.	.	.	.	.	.	.	.	.	.	.	.	.
8E 8C\	8ccc 8ee\	.	.	.	.	.	.	.	.	.	.	.	.	.
8G\J	8cc\J	.	.	.	.	.	.	.	.	.	.	.	.	.
=174	=174	=174	=174	=174	=174	=174	=174	=174	=174	=174	=174	=174	=174	=174
!	!	!	!	!	!	!	!	!	!	!	!LO:DY:a	!	!	!LO:HP:a:color=blue
8EL 8C\	8ggL 8ee 8cc\	>	1c]	.	.	1e]	.	.	1g]	.	.	1ee]	.	>]
8G\	8gg 8ee 8cc\	.	.	.	.	.	.	.	.	.	.	.	.	.
8E 8C\	8gg 8ee 8cc\	.	.	.	.	.	.	.	.	.	.	.	.	.
8G\J	8ggJ 8ee 8cc\	.	.	.	.	.	.	.	.	.	.	.	.	.
8EL 8C\	8eeL 8cc 8g\	.	.	.	.	.	.	.	.	.	.	.	.	.
8G\	8ee 8cc 8g\	.	.	.	.	.	.	.	.	.	.	.	.	.
8E 8C\	8ee 8cc 8g\	.	.	.	.	.	.	.	.	.	.	.	.	.
8G\J	8eeJ 8cc 8g\	]]	.	.	.	.	.	.	.	.	.	.	.	.
!!LO:LB:g=original
=175	=175	=175	=175	=175	=175	=175	=175	=175	=175	=175	=175	=175	=175	=175
*^	*	*	*	*	*	*	*	*	*	*	*	*	*	*
8GL 8E/	4C\	4b\	.	2C/	-men.	.	2e\	-men.	.	2g/	-men.	.	2cc\	-men.	.
8G 8E/	.	.	.	.	.	.	.	.	.	.	.	.	.	.	.
8G 8E/	4r	4g/	.	.	.	.	.	.	.	.	.	.	.	.	.
8GJ 8E/	.	.	.	.	.	.	.	.	.	.	.	.	.	.	.
8GL 8E/	2C\	4e/	<	2r	.	.	2r	.	.	2r	.	.	2r	.	.
8G 8E/	.	.	.	.	.	.	.	.	.	.	.	.	.	.	.
8G 8E/	.	4c/	.	.	.	.	.	.	.	.	.	.	.	.	.
8GJ 8E/	.	.	.	.	.	.	.	.	.	.	.	.	.	.	.
=176	=176	=176	=176	=176	=176	=176	=176	=176	=176	=176	=176	=176	=176	=176	=176
8GL 8E/	2GG\	4e/	.	1r	.	.	1r	.	.	1r	.	.	1r	.	.
8G 8E/	.	.	.	.	.	.	.	.	.	.	.	.	.	.	.
8G 8E/	.	4g/	.	.	.	.	.	.	.	.	.	.	.	.	.
8GJ 8E/	.	.	.	.	.	.	.	.	.	.	.	.	.	.	.
8GL 8C/	2EE\	4cc\	.	.	.	.	.	.	.	.	.	.	.	.	.
8G 8C/	.	.	.	.	.	.	.	.	.	.	.	.	.	.	.
8G 8C/	.	4ee\	[[	.	.	.	.	.	.	.	.	.	.	.	.
8GJ 8C/	.	.	.	.	.	.	.	.	.	.	.	.	.	.	.
*v	*v	*	*	*	*	*	*	*	*	*	*	*	*	*	*
=177	=177	=177	=177	=177	=177	=177	=177	=177	=177	=177	=177	=177	=177	=177
*	*tremolo	*	*	*	*	*	*	*	*	*	*	*	*	*
!	!LO:TX:a:t=....	!LO:DY:color=blue	!	!	!	!	!	!	!	!	!	!	!	!LO:DY:a:color=blue
4C 4CC/	8ggL 8ee 8cc'\	ff	[>1c	a-	.	[>1e	a-	.	[>1cc	a-	.	[>1gg	a-	ff
.	8gg 8ee 8cc'\	.	.	.	.	.	.	.	.	.	.	.	.	.
8EL 8C\	8gg 8ee 8cc'\	.	.	.	.	.	.	.	.	.	.	.	.	.
8G\	8ggJ 8ee 8cc'\	.	.	.	.	.	.	.	.	.	.	.	.	.
!	!LO:TX:a:t=....	!	!	!	!	!	!	!	!	!	!	!	!	!
8E 8C\	8ggL 8ee 8cc'\	.	.	.	.	.	.	.	.	.	.	.	.	.
8G\	8gg 8ee 8cc'\	.	.	.	.	.	.	.	.	.	.	.	.	.
8E 8C\	8gg 8ee 8cc'\	.	.	.	.	.	.	.	.	.	.	.	.	.
!	!	!LO:HP:color=blue	!	!	!	!	!	!	!	!	!	!	!	!LO:HP:a:color=blue
8G\J	8ggJ 8ee 8cc'\	>	.	.	.	.	.	.	.	.	.	.	.	>
=178	=178	=178	=178	=178	=178	=178	=178	=178	=178	=178	=178	=178	=178	=178
!	!LO:TX:a:t=....	!	!	!	!	!	!	!	!	!	!	!	!	!LO:DY:a
8GL 8E 8C\	8eeL 8cc 8g'\	.	1c]	.	.	1e]	.	.	1cc]	.	.	1gg]	.	.
8G 8E 8C\	8ee 8cc 8g'\	.	.	.	.	.	.	.	.	.	.	.	.	.
8G 8E 8C\	8ee 8cc 8g'\	.	.	.	.	.	.	.	.	.	.	.	.	.
8GJ 8E 8C\	8eeJ 8cc 8g'\	.	.	.	.	.	.	.	.	.	.	.	.	.
!	!LO:TX:b:t=....	!	!	!	!	!	!	!	!	!	!	!	!	!
8GL 8E 8C\	8ccL 8g 8e'/	.	.	.	.	.	.	.	.	.	.	.	.	.
8G 8E 8C\	8cc 8g 8e'/	.	.	.	.	.	.	.	.	.	.	.	.	.
8G 8E 8C\	8cc 8g 8e'/	.	.	.	.	.	.	.	.	.	.	.	.	.
8GJ 8E 8C\	8ccJ 8g 8e'/	]	.	.	.	.	.	.	.	.	.	.	.	]
=179	=179	=179	=179	=179	=179	=179	=179	=179	=179	=179	=179	=179	=179	=179
*^	*	*	*	*	*	*	*	*	*	*	*	*	*	*
!	!	!	!LO:HP:a	!	!	!	!	!	!	!	!	!	!	!	!
8GL 8E/	4C\	4g/	<	2C/	-men.	.	2c\	-men.	.	2g/	-men.	.	2ee\	-men.	.
8G 8E/	.	.	.	.	.	.	.	.	.	.	.	.	.	.	.
8G 8E/	4r	4e/	.	.	.	.	.	.	.	.	.	.	.	.	.
8GJ 8E/	.	.	.	.	.	.	.	.	.	.	.	.	.	.	.
8G/L	2E\	4c/	.	2r	.	.	2r	.	.	2r	.	.	2r	.	.
8G/	.	.	.	.	.	.	.	.	.	.	.	.	.	.	.
8G/	.	4G/	.	.	.	.	.	.	.	.	.	.	.	.	.
8G/J	.	.	.	.	.	.	.	.	.	.	.	.	.	.	.
=180	=180	=180	=180	=180	=180	=180	=180	=180	=180	=180	=180	=180	=180	=180	=180
8GL 8E/	2C\	4c/	.	1r	.	.	1r	.	.	1r	.	.	1r	.	.
8G 8E/	.	.	.	.	.	.	.	.	.	.	.	.	.	.	.
8G 8E/	.	4e/	.	.	.	.	.	.	.	.	.	.	.	.	.
8GJ 8E/	.	.	.	.	.	.	.	.	.	.	.	.	.	.	.
8GL 8E/	2GG\	4g/	.	.	.	.	.	.	.	.	.	.	.	.	.
8G 8E/	.	.	.	.	.	.	.	.	.	.	.	.	.	.	.
8G 8E/	.	4cc\	[[	.	.	.	.	.	.	.	.	.	.	.	.
8GJ 8E/	.	.	.	.	.	.	.	.	.	.	.	.	.	.	.
*v	*v	*	*	*	*	*	*	*	*	*	*	*	*	*	*
!!LO:PB:g=original
=181	=181	=181	=181	=181	=181	=181	=181	=181	=181	=181	=181	=181	=181	=181
*	*^	*	*	*	*	*	*	*	*	*	*	*	*	*
*	*Xtremolo	*	*	*	*	*	*	*	*	*	*	*	*	*	*
2E 2EE/	8ee/L	2e\	.	1e	a-	.	1e	a-	.	1e	a-	.	1ee	a-	.
.	8ee/	.	.	.	.	.	.	.	.	.	.	.	.	.	.
.	8ee/	.	.	.	.	.	.	.	.	.	.	.	.	.	.
.	8ee/J	.	.	.	.	.	.	.	.	.	.	.	.	.	.
2C 2CC/	8cc/L	2c\	.	.	.	.	.	.	.	.	.	.	.	.	.
.	8cc/	.	.	.	.	.	.	.	.	.	.	.	.	.	.
.	8cc/	.	.	.	.	.	.	.	.	.	.	.	.	.	.
.	8cc/J	.	.	.	.	.	.	.	.	.	.	.	.	.	.
=182	=182	=182	=182	=182	=182	=182	=182	=182	=182	=182	=182	=182	=182	=182	=182
2G 2GG/	8gg/L	2g\	.	1c	-men,	.	1c	-men,	.	1cc	-men,	.	1cc	-men,	.
.	8gg/	.	.	.	.	.	.	.	.	.	.	.	.	.	.
.	8gg/	.	.	.	.	.	.	.	.	.	.	.	.	.	.
.	8gg/J	.	.	.	.	.	.	.	.	.	.	.	.	.	.
2E 2EE/	8ee/L	2e\	.	.	.	.	.	.	.	.	.	.	.	.	.
.	8ee/	.	.	.	.	.	.	.	.	.	.	.	.	.	.
.	8ee/	.	.	.	.	.	.	.	.	.	.	.	.	.	.
.	8ee/J	.	.	.	.	.	.	.	.	.	.	.	.	.	.
*	*v	*v	*	*	*	*	*	*	*	*	*	*	*	*	*
=183	=183	=183	=183	=183	=183	=183	=183	=183	=183	=183	=183	=183	=183	=183
4c 4C\	4cc\	.	1G	a-	.	1G	a-	.	1g	a-	.	1g	a-	.
4r	4r	.	.	.	.	.	.	.	.	.	.	.	.	.
2G 2GG/	2cc 2g 2e/	.	.	.	.	.	.	.	.	.	.	.	.	.
=184	=184	=184	=184	=184	=184	=184	=184	=184	=184	=184	=184	=184	=184	=184
2C 2CC/	2cc 2g 2e/	.	1E	-men,	.	1E	-men,	.	1e	-men,	.	1e	-men,	.
2GG 2GGG/	2cc 2g 2e/	.	.	.	.	.	.	.	.	.	.	.	.	.
!!LO:LB:g=original
=185	=185	=185	=185	=185	=185	=185	=185	=185	=185	=185	=185	=185	=185	=185
16CLL 16CC/	2cc 2g 2e/	.	[>1C	a-	.	[>1C	a-	.	[>1c	a-	.	[>1c	a-	.
16C 16CC/	.	.	.	.	.	.	.	.	.	.	.	.	.	.
16C 16CC/	.	.	.	.	.	.	.	.	.	.	.	.	.	.
16C 16CC/	.	.	.	.	.	.	.	.	.	.	.	.	.	.
16C 16CC/	.	.	.	.	.	.	.	.	.	.	.	.	.	.
16C 16CC/	.	.	.	.	.	.	.	.	.	.	.	.	.	.
16C 16CC/	.	.	.	.	.	.	.	.	.	.	.	.	.	.
16C 16CC/	.	.	.	.	.	.	.	.	.	.	.	.	.	.
16C 16CC/	4r	.	.	.	.	.	.	.	.	.	.	.	.	.
16C 16CC/	.	.	.	.	.	.	.	.	.	.	.	.	.	.
16C 16CC/	.	.	.	.	.	.	.	.	.	.	.	.	.	.
16C 16CC/	.	.	.	.	.	.	.	.	.	.	.	.	.	.
16C 16CC/	4ccc 4gg 4ee 4cc\	.	.	.	.	.	.	.	.	.	.	.	.	.
16C 16CC/	.	.	.	.	.	.	.	.	.	.	.	.	.	.
16C 16CC/	.	.	.	.	.	.	.	.	.	.	.	.	.	.
16CJJ 16CC/	.	.	.	.	.	.	.	.	.	.	.	.	.	.
=186	=186	=186	=186	=186	=186	=186	=186	=186	=186	=186	=186	=186	=186	=186
16CLL 16CC/	2ccc 2gg 2ee 2cc\	.	1C_>	.	.	1C_>	.	.	1c_>	.	.	1c_>	.	.
16C 16CC/	.	.	.	.	.	.	.	.	.	.	.	.	.	.
16C 16CC/	.	.	.	.	.	.	.	.	.	.	.	.	.	.
16C 16CC/	.	.	.	.	.	.	.	.	.	.	.	.	.	.
16C 16CC/	.	.	.	.	.	.	.	.	.	.	.	.	.	.
16C 16CC/	.	.	.	.	.	.	.	.	.	.	.	.	.	.
16C 16CC/	.	.	.	.	.	.	.	.	.	.	.	.	.	.
16C 16CC/	.	.	.	.	.	.	.	.	.	.	.	.	.	.
16C 16CC/	4r	.	.	.	.	.	.	.	.	.	.	.	.	.
16C 16CC/	.	.	.	.	.	.	.	.	.	.	.	.	.	.
16C 16CC/	.	.	.	.	.	.	.	.	.	.	.	.	.	.
16C 16CC/	.	.	.	.	.	.	.	.	.	.	.	.	.	.
16C 16CC/	4cc 4g 4e/	.	.	.	.	.	.	.	.	.	.	.	.	.
16C 16CC/	.	.	.	.	.	.	.	.	.	.	.	.	.	.
16C 16CC/	.	.	.	.	.	.	.	.	.	.	.	.	.	.
16CJJ 16CC/	.	.	.	.	.	.	.	.	.	.	.	.	.	.
=187	=187	=187	=187	=187	=187	=187	=187	=187	=187	=187	=187	=187	=187	=187
16CLL 16CC/	2cc 2g 2e/	.	1C_>	.	.	1C_>	.	.	1c_>	.	.	1c_>	.	.
16C 16CC/	.	.	.	.	.	.	.	.	.	.	.	.	.	.
16C 16CC/	.	.	.	.	.	.	.	.	.	.	.	.	.	.
16C 16CC/	.	.	.	.	.	.	.	.	.	.	.	.	.	.
16C 16CC/	.	.	.	.	.	.	.	.	.	.	.	.	.	.
16C 16CC/	.	.	.	.	.	.	.	.	.	.	.	.	.	.
16C 16CC/	.	.	.	.	.	.	.	.	.	.	.	.	.	.
16C 16CC/	.	.	.	.	.	.	.	.	.	.	.	.	.	.
16C 16CC/	4r	.	.	.	.	.	.	.	.	.	.	.	.	.
16C 16CC/	.	.	.	.	.	.	.	.	.	.	.	.	.	.
16C 16CC/	.	.	.	.	.	.	.	.	.	.	.	.	.	.
16C 16CC/	.	.	.	.	.	.	.	.	.	.	.	.	.	.
16C 16CC/	4eee 4ccc 4gg 4ee\	.	.	.	.	.	.	.	.	.	.	.	.	.
16C 16CC/	.	.	.	.	.	.	.	.	.	.	.	.	.	.
16C 16CC/	.	.	.	.	.	.	.	.	.	.	.	.	.	.
16CJJ 16CC/	.	.	.	.	.	.	.	.	.	.	.	.	.	.
=188	=188	=188	=188	=188	=188	=188	=188	=188	=188	=188	=188	=188	=188	=188
16CLL 16CC/	2eee 2ccc 2gg 2ee\	.	1C]	.	.	1C]	.	.	1c]	.	.	1c]	.	.
16C 16CC/	.	.	.	.	.	.	.	.	.	.	.	.	.	.
16C 16CC/	.	.	.	.	.	.	.	.	.	.	.	.	.	.
16C 16CC/	.	.	.	.	.	.	.	.	.	.	.	.	.	.
16C 16CC/	.	.	.	.	.	.	.	.	.	.	.	.	.	.
16C 16CC/	.	.	.	.	.	.	.	.	.	.	.	.	.	.
16C 16CC/	.	.	.	.	.	.	.	.	.	.	.	.	.	.
16C 16CC/	.	.	.	.	.	.	.	.	.	.	.	.	.	.
16C 16CC/	4r	.	.	.	.	.	.	.	.	.	.	.	.	.
16C 16CC/	.	.	.	.	.	.	.	.	.	.	.	.	.	.
16C 16CC/	.	.	.	.	.	.	.	.	.	.	.	.	.	.
16C 16CC/	.	.	.	.	.	.	.	.	.	.	.	.	.	.
16C 16CC/	4cc 4c/	.	.	.	.	.	.	.	.	.	.	.	.	.
16C 16CC/	.	.	.	.	.	.	.	.	.	.	.	.	.	.
16C 16CC/	.	.	.	.	.	.	.	.	.	.	.	.	.	.
16CJJ 16CC/	.	.	.	.	.	.	.	.	.	.	.	.	.	.
=189	=189	=189	=189	=189	=189	=189	=189	=189	=189	=189	=189	=189	=189	=189
1C@ 1CC;>	1cc 1c;>	.	1C;>	-men.	.	1C;>	-men.	.	1c;>	-men.	.	1c;>	-men.	.
!	!	!	!	!	!	!LO:TX:a:i:t=Koniec.:color=blue	!	!	!	!	!	!	!	!
==	==	==	==	==	==	==	==	==	==	==	==	==	==	==
*-	*-	*-	*-	*-	*-	*-	*-	*-	*-	*-	*-	*-	*-	*-
!!!system-decoration: [g1][(s5,s6)]
!!!RDF**kern: | = vertical stroke
!!!RDF**kern: N = linked
!!!RDF**kern: @ = marked note, color=blue
!!!RDF**kern: i = marked note, color=red
!!!RDF**dynam: < = "crescen.", 'fontstyle="italics"
!!!RDF**dynam: > = "dimi", 'fontstyle="italics"
!!!RDF**kern: > = above
!!!RDF**kern: < = below
!!!ENC: Tomasz Grochalski
!!!END: 2021-07-28
!!!EED: Antoni Szymański
!!!EEV: 2021-09-08
